; generated by PrusaSlicer 2.6.0-alpha6+win64 on 2023-08-13 at 20:36:15 UTC

; 

; external perimeters extrusion width = 0.38mm
; perimeters extrusion width = 0.38mm
; infill extrusion width = 0.45mm
; solid infill extrusion width = 0.45mm
; top infill extrusion width = 0.44mm
; support material extrusion width = 0.40mm
; first layer extrusion width = 0.40mm

M190 S55 ; set bed temperature and wait for it to be reached
M104 S210 ; set temperature
;TYPE:Custom
print_start EXTRUDER=210 BED=55
M109 S210 ; set temperature and wait for it to be reached
G21 ; set units to millimeters
G90 ; use absolute coordinates
M83 ; use relative distances for extrusion
;Filament gcode
M107
;LAYER_CHANGE
;Z:0.24
;HEIGHT:0.24
G1 Z.24 F12000
G1 E-.75 F3000
G1 X125.296 Y85.08 F12000
G1 E.75 F1800
M204 S4000
;TYPE:Skirt/Brim
;WIDTH:0.4
G1 F3000
G1 X126.046 Y84.238 E.03529
G1 X126.929 Y83.618 E.03377
G1 X128.858 Y83.129 E.06228
G1 X170.802 Y83.14 E1.31267
G1 X171.501 Y83.198 E.02195
G1 X172.683 Y83.538 E.03849
G1 X173.736 Y84.173 E.03848
G1 X174.589 Y85.058 E.03847
G1 X175.118 Y85.973 E.03308
G1 X175.458 Y87.154 E.03846
G1 X175.515 Y87.856 E.02204
G1 X175.515 Y212.156 E3.89006
G1 X175.458 Y212.858 E.02204
G1 X175.118 Y214.039 E.03846
G1 X174.59 Y214.954 E.03306
G1 X173.736 Y215.839 E.03849
G1 X172.683 Y216.474 E.03848
G1 X171.328 Y216.837 E.0439
G1 X129.116 Y216.866 E1.32106
G1 X128.282 Y216.78 E.02624
G1 X126.891 Y216.271 E.04636
G1 X126.059 Y215.684 E.03187
G1 X125.372 Y214.939 E.03172
G1 X124.715 Y213.706 E.04372
G1 X124.487 Y212.78 E.02985
G1 X124.434 Y212.106 E.02116
G1 X124.434 Y87.806 E3.89006
G1 X124.49 Y87.11 E.02185
G1 X124.818 Y85.944 E.03791
G1 X125.267 Y85.133 E.02901
G1 X125.57 Y85.3 F12000
G1 F3000
G1 X126.273 Y84.503 E.03326
G1 X127.095 Y83.925 E.03145
G1 X128.858 Y83.477 E.05693
G1 X170.802 Y83.489 E1.31267
G1 X171.456 Y83.543 E.02054
G1 X172.55 Y83.86 E.03565
G1 X173.524 Y84.449 E.03562
G1 X174.313 Y85.27 E.03564
G1 X174.796 Y86.106 E.03022
G1 X175.112 Y87.2 E.03564
G1 X175.167 Y87.856 E.0206
G1 X175.167 Y205.675 E3.68723
G1 X175.112 Y212.812 E.22336
G1 X174.796 Y213.906 E.03564
G1 X174.313 Y214.742 E.03022
G1 X173.524 Y215.563 E.03564
G1 X172.55 Y216.152 E.03562
G1 X171.282 Y216.491 E.04108
G1 X129.116 Y216.518 E1.31962
G1 X128.354 Y216.439 E.02398
G1 X127.055 Y215.963 E.0433
G1 X126.291 Y215.424 E.02926
G1 X125.656 Y214.736 E.0293
G1 X125.042 Y213.583 E.04088
G1 X124.832 Y212.737 E.02728
G1 X124.783 Y212.106 E.01981
G1 X124.783 Y87.806 E3.89006
G1 X124.836 Y87.155 E.02044
G1 X125.142 Y86.074 E.03516
G1 X125.541 Y85.353 E.02579
G1 X125.844 Y85.521 F12000
G1 F3000
G1 X126.499 Y84.767 E.03126
G1 X127.261 Y84.231 E.02916
G1 X128.858 Y83.826 E.05156
G1 X150.999 Y83.826 E.69292
G1 X171.41 Y83.889 E.63878
G1 X172.416 Y84.182 E.03279
G1 X173.312 Y84.726 E.0328
G1 X174.037 Y85.482 E.03278
G1 X174.474 Y86.24 E.02738
G1 X174.767 Y87.245 E.03276
G1 X174.818 Y87.856 E.01919
G1 X174.819 Y205.675 E3.68723
G1 X174.767 Y212.767 E.22196
G1 X174.474 Y213.772 E.03276
G1 X174.037 Y214.529 E.02736
G1 X173.312 Y215.286 E.0328
G1 X172.416 Y215.83 E.0328
G1 X171.237 Y216.146 E.0382
G1 X129.116 Y216.169 E1.31821
G1 X128.426 Y216.098 E.02171
G1 X127.219 Y215.655 E.04024
G1 X126.524 Y215.165 E.02661
G1 X125.939 Y214.533 E.02695
G1 X125.368 Y213.46 E.03804
G1 X125.178 Y212.694 E.0247
G1 X125.131 Y212.106 E.01846
G1 X125.182 Y87.199 E3.90906
G1 X125.465 Y86.204 E.03237
G1 X125.815 Y85.573 E.02258
G1 E-.75
G1 X147.403 Y196.316 F12000
G1 E.75 F1800
;TYPE:Perimeter
;WIDTH:0.399999
G1 F3000
G1 X147.309 Y196.215 E.00432
G1 X147.251 Y195.961 E.00815
;WIDTH:0.438998
G1 X147.232 Y195.756 E.00716
;WIDTH:0.477997
G1 X147.212 Y195.551 E.00789
;WIDTH:0.516996
G1 X147.193 Y195.346 E.00861
;WIDTH:0.547546
G1 X147.178 Y195.278 E.0031
;WIDTH:0.578096
G1 X147.162 Y195.21 E.0033
G1 X147.092 Y195.331 E.00661
;WIDTH:0.533572
G1 X147.022 Y195.452 E.00605
;WIDTH:0.489048
G1 X146.952 Y195.573 E.00549
;WIDTH:0.444524
G1 X146.881 Y195.694 E.00495
;WIDTH:0.399999
G1 X146.556 Y196.147 E.01745
G1 X146.126 Y196.5 E.01741
G1 X145.618 Y196.729 E.01744
G1 X145.068 Y196.82 E.01745
G1 X144.514 Y196.765 E.01742
G1 X143.992 Y196.568 E.01746
G1 X143.54 Y196.243 E.01742
G1 X143.187 Y195.812 E.01744
G1 X142.957 Y195.305 E.01742
G1 X142.867 Y194.755 E.01744
G1 X142.922 Y194.2 E.01745
G1 X143.104 Y193.722 E.01601
G1 X143.428 Y193.248 E.01797
G1 X143.874 Y192.873 E.01824
G1 X144.382 Y192.644 E.01744
G1 X144.932 Y192.553 E.01745
G1 X145.486 Y192.608 E.01742
G1 X146.007 Y192.805 E.01743
G1 X146.46 Y193.13 E.01745
G1 X146.813 Y193.561 E.01744
;WIDTH:0.434331
G1 X146.906 Y193.724 E.00645
;WIDTH:0.468662
G1 X146.998 Y193.886 E.00698
;WIDTH:0.502993
G1 X147.09 Y194.049 E.00759
;WIDTH:0.538553
G1 X147.127 Y194.119 E.00346
;WIDTH:0.574112
G1 X147.164 Y194.189 E.00372
G1 X147.186 Y194.043 E.00693
;WIDTH:0.530584
G1 X147.208 Y193.897 E.00635
;WIDTH:0.487056
G1 X147.23 Y193.751 E.00578
;WIDTH:0.443528
G1 X147.251 Y193.605 E.00519
;WIDTH:0.399999
G1 X147.251 Y190.525 E.09639
G1 X147.316 Y190.274 E.00811
G1 X147.456 Y190.11 E.00675
G1 X147.707 Y190.007 E.00849
G1 X147.774 Y190.002 E.0021
G1 X151.226 Y190.002 E.10803
G1 X151.467 Y190.062 E.00777
G1 X151.669 Y190.249 E.00861
G1 X151.744 Y190.461 E.00704
G1 X151.748 Y193.604 E.09836
;WIDTH:0.442727
G1 X151.77 Y193.75 E.00519
;WIDTH:0.485455
G1 X151.791 Y193.896 E.00575
;WIDTH:0.528183
G1 X151.812 Y194.042 E.00631
;WIDTH:0.57091
G1 X151.834 Y194.188 E.00689
G1 X151.904 Y194.061 E.00676
;WIDTH:0.528183
G1 X151.975 Y193.933 E.00627
;WIDTH:0.485455
G1 X152.045 Y193.805 E.00569
;WIDTH:0.442727
G1 X152.116 Y193.677 E.00514
;WIDTH:0.399999
G1 X152.441 Y193.224 E.01745
G1 X152.873 Y192.87 E.01748
G1 X153.381 Y192.641 E.01744
G1 X153.932 Y192.55 E.01748
G1 X154.487 Y192.605 E.01745
G1 X155.009 Y192.802 E.01746
G1 X155.462 Y193.128 E.01747
G1 X155.816 Y193.559 E.01745
G1 X156.046 Y194.068 E.01748
G1 X156.136 Y194.618 E.01744
G1 X156.081 Y195.174 E.01749
G1 X155.884 Y195.696 E.01746
G1 X155.559 Y196.149 E.01745
G1 X155.127 Y196.503 E.01748
G1 X154.619 Y196.733 E.01745
G1 X154.068 Y196.823 E.01747
G1 X153.513 Y196.768 E.01745
G1 X152.991 Y196.571 E.01746
G1 X152.537 Y196.246 E.01747
G1 X152.193 Y195.826 E.01699
;WIDTH:0.43835
G1 X152.095 Y195.66 E.0067
;WIDTH:0.476701
G1 X151.998 Y195.494 E.00734
;WIDTH:0.515052
G1 X151.901 Y195.327 E.00804
;WIDTH:0.54497
G1 X151.868 Y195.269 E.00296
;WIDTH:0.574888
G1 X151.836 Y195.211 E.00311
G1 X151.814 Y195.35 E.00661
;WIDTH:0.531166
G1 X151.792 Y195.49 E.0061
;WIDTH:0.487444
G1 X151.77 Y195.629 E.00551
;WIDTH:0.443722
G1 X151.748 Y195.769 E.00499
;WIDTH:0.399999
G1 X151.748 Y195.977 E.00651
G1 X151.69 Y196.216 E.0077
G1 X151.495 Y196.425 E.00895
G1 X151.226 Y196.499 E.00873
G1 X147.774 Y196.499 E.10803
G1 X147.503 Y196.424 E.0088
G1 X147.444 Y196.36 E.00272
G1 X147.645 Y196.094 F12000
;TYPE:External perimeter
G1 F3000
G1 X147.6 Y195.961 E.00439
G1 X147.6 Y190.525 E.17012
G1 X147.668 Y190.387 E.00481
G1 X147.774 Y190.351 E.0035
G1 X151.226 Y190.351 E.10803
G1 X151.361 Y190.415 E.00468
G1 X151.4 Y190.525 E.00365
G1 X151.4 Y195.977 E.17062
G1 X151.355 Y196.094 E.00392
G1 X151.226 Y196.151 E.00441
G1 X147.774 Y196.151 E.10803
G1 X147.7 Y196.118 E.00254
G1 X147.508 Y196.123 F12000
G1 E-.75 F3000
G1 X143.279 Y194.202 F12000
G1 E.75 F1800
G1 F3000
G1 X143.419 Y193.873 E.01119
G1 X143.715 Y193.446 E.01626
G1 X144.114 Y193.133 E.01587
G1 X144.559 Y192.954 E.01501
G1 X145.023 Y192.899 E.01462
G1 X145.485 Y192.966 E.01461
G1 X145.913 Y193.15 E.01458
G1 X146.28 Y193.439 E.01462
G1 X146.559 Y193.812 E.01458
G1 X146.733 Y194.246 E.01463
G1 X146.788 Y194.709 E.01459
G1 X146.721 Y195.171 E.01461
G1 X146.527 Y195.612 E.01508
G1 X146.248 Y195.967 E.01413
G1 X145.874 Y196.246 E.0146
G1 X145.441 Y196.419 E.01459
G1 X144.977 Y196.474 E.01462
G1 X144.515 Y196.407 E.01461
G1 X144.086 Y196.223 E.01461
G1 X143.72 Y195.935 E.01458
G1 X143.44 Y195.561 E.01462
G1 X143.267 Y195.127 E.01462
G1 X143.212 Y194.664 E.01459
G1 X143.27 Y194.261 E.01274
G1 X143.029 Y193.946 F12000
G1 E-.75 F3000
G1 X147.164 Y194.189 F12000
G1 E.75 F1800
;TYPE:Perimeter
;WIDTH:0.574112
G1 F3000
G1 X147.178 Y194.476 E.01349
;WIDTH:0.546487
G1 X147.192 Y194.763 E.01277
;WIDTH:0.548479
G1 X147.177 Y194.986 E.00997
;WIDTH:0.578096
G1 X147.162 Y195.21 E.01062
G1 E-.75
G1 X155.562 Y193.811 F12000
G1 E.75 F1800
;TYPE:External perimeter
;WIDTH:0.399999
G1 F3000
G1 X155.736 Y194.245 E.01463
G1 X155.791 Y194.709 E.01462
G1 X155.724 Y195.172 E.01464
G1 X155.54 Y195.602 E.01464
G1 X155.25 Y195.969 E.01464
G1 X154.9 Y196.237 E.0138
G1 X154.441 Y196.422 E.01549
G1 X153.977 Y196.478 E.01463
G1 X153.514 Y196.411 E.01464
G1 X153.085 Y196.226 E.01462
G1 X152.717 Y195.937 E.01464
G1 X152.437 Y195.562 E.01465
G1 X152.264 Y195.128 E.01462
G1 X152.209 Y194.664 E.01462
G1 X152.276 Y194.201 E.01464
G1 X152.46 Y193.771 E.01464
G1 X152.75 Y193.404 E.01464
G1 X153.124 Y193.124 E.01462
G1 X153.558 Y192.951 E.01462
G1 X154.023 Y192.896 E.01465
G1 X154.516 Y192.975 E.01563
G1 X154.915 Y193.147 E.0136
G1 X155.282 Y193.436 E.01462
G1 X155.526 Y193.763 E.01277
G1 X155.962 Y193.816 F12000
G1 E-.75 F3000
G1 X151.836 Y195.211 F12000
G1 E.75 F1800
;TYPE:Perimeter
;WIDTH:0.574888
G1 F3000
G1 X151.82 Y194.949 E.01234
;WIDTH:0.542731
G1 X151.804 Y194.687 E.01158
;WIDTH:0.540742
G1 X151.819 Y194.437 E.011
;WIDTH:0.57091
G1 X151.834 Y194.188 E.01164
G1 E-.75
G1 X137.084 Y176.702 F12000
G1 E.75 F1800
;WIDTH:0.399999
G1 F3000
G1 X136.531 Y176.708 E.01731
G1 X136.235 Y176.62 E.00966
G1 X136.045 Y176.393 E.00926
G1 X136.002 Y176.185 E.00665
G1 X136.001 Y156.475 E.61684
G1 X136.072 Y156.211 E.00856
G1 X136.229 Y156.043 E.0072
G1 X136.481 Y155.954 E.00836
G1 X163.475 Y155.952 E.8448
G1 X163.742 Y156.025 E.00866
G1 X163.911 Y156.185 E.00728
G1 X163.992 Y156.398 E.00713
G1 X163.998 Y156.475 E.00242
G1 X163.997 Y176.185 E.61684
G1 X163.933 Y176.435 E.00808
G1 X163.764 Y176.62 E.00784
G1 X163.468 Y176.708 E.00966
G1 X162.915 Y176.702 E.01731
G1 X163.182 Y176.92 E.01079
G1 X163.528 Y177.396 E.01842
G1 X163.728 Y177.899 E.01694
G1 X163.8 Y178.461 E.01773
G1 X163.737 Y178.976 E.01624
G1 X163.529 Y179.524 E.01834
G1 X163.186 Y180 E.01836
G1 X162.732 Y180.372 E.01837
G1 X162.197 Y180.612 E.01835
G1 X161.618 Y180.707 E.01836
G1 X161.034 Y180.648 E.01837
G1 X160.486 Y180.44 E.01834
G1 X160.01 Y180.097 E.01836
G1 X159.639 Y179.643 E.01835
G1 X159.398 Y179.108 E.01836
G1 X159.304 Y178.529 E.01836
G1 X159.362 Y177.945 E.01837
G1 X159.571 Y177.396 E.01838
G1 X159.878 Y176.97 E.01643
G1 X160.194 Y176.694 E.01313
G1 X159.363 Y176.708 E.02601
G1 X140.249 Y176.708 E.59819
G1 X139.805 Y176.694 E.0139
G1 X140.121 Y176.97 E.01313
G1 X140.428 Y177.396 E.01643
G1 X140.637 Y177.945 E.01838
G1 X140.695 Y178.529 E.01837
G1 X140.601 Y179.108 E.01836
G1 X140.402 Y179.579 E.016
G1 X140.086 Y180 E.01647
G1 X139.632 Y180.371 E.01835
G1 X139.097 Y180.612 E.01836
G1 X138.518 Y180.707 E.01836
G1 X137.934 Y180.648 E.01837
G1 X137.386 Y180.44 E.01834
G1 X136.91 Y180.097 E.01836
G1 X136.539 Y179.643 E.01835
G1 X136.322 Y179.166 E.0164
G1 X136.206 Y178.545 E.01977
G1 X136.262 Y177.945 E.01886
G1 X136.471 Y177.396 E.01838
G1 X136.817 Y176.92 E.01842
G1 X137.038 Y176.74 E.00892
G1 X137.527 Y176.822 F12000
;TYPE:External perimeter
G1 F3000
G1 X137.54 Y176.812 E.00051
;WIDTH:0.403402
G1 X138.005 Y176.663 E.01543
G1 X138.892 Y176.665 E.02803
;WIDTH:0.400054
G1 X139.406 Y176.837 E.01697
G1 X139.832 Y177.167 E.01687
G1 X140.106 Y177.53 E.01424
G1 X140.291 Y177.991 E.01555
G1 X140.35 Y178.483 E.01551
G1 X140.279 Y178.974 E.01553
G1 X140.084 Y179.43 E.01552
G1 X139.777 Y179.82 E.01554
G1 X139.38 Y180.118 E.01554
G1 X138.963 Y180.29 E.01412
;WIDTH:0.399999
G1 X138.458 Y180.362 E.01596
G1 X137.958 Y180.298 E.01578
G1 X137.48 Y180.095 E.01625
G1 X137.09 Y179.788 E.01553
G1 X136.792 Y179.391 E.01554
G1 X136.633 Y178.994 E.01338
G1 X136.55 Y178.489 E.01602
G1 X136.608 Y177.991 E.01569
G1 X136.816 Y177.49 E.01698
G1 X137.128 Y177.099 E.01565
G1 X137.478 Y176.856 E.01333
G1 X137.525 Y176.806 F12000
G1 E-.75 F3000
G1 X162.915 Y179.773 F12000
G1 E.75 F1800
G1 F3000
G1 X162.877 Y179.82 E.00189
G1 X162.48 Y180.118 E.01554
G1 X162.019 Y180.302 E.01553
G1 X161.527 Y180.361 E.01551
G1 X161.036 Y180.29 E.01553
G1 X160.58 Y180.095 E.01552
G1 X160.19 Y179.788 E.01553
G1 X159.892 Y179.391 E.01554
G1 X159.708 Y178.93 E.01553
G1 X159.649 Y178.438 E.01551
G1 X159.72 Y177.947 E.01553
G1 X159.916 Y177.49 E.01556
G1 X160.228 Y177.099 E.01565
G1 X160.64 Y176.812 E.01571
;WIDTH:0.400154
G1 X161.105 Y176.665 E.01527
;WIDTH:0.403506
G1 X161.735 Y176.649 E.01992
;WIDTH:0.409507
G1 X162.038 Y176.669 E.00976
G1 X162.555 Y176.872 E.01786
;WIDTH:0.399999
G1 X162.906 Y177.134 E.01371
G1 X163.206 Y177.53 E.01555
G1 X163.391 Y177.991 E.01555
G1 X163.45 Y178.483 E.01551
G1 X163.379 Y178.974 E.01553
G1 X163.184 Y179.43 E.01552
G1 X162.952 Y179.725 E.01175
G1 X162.94 Y179.828 F12000
G1 E-.75 F3000
G1 X163.472 Y176.359 F12000
G1 E.75 F1800
G1 F3000
G1 X162.747 Y176.351 E.02269
;WIDTH:0.409507
G1 X161.513 Y176.3 E.03971
;WIDTH:0.40241
G1 X160.424 Y176.338 E.03434
;WIDTH:0.399999
G1 X159.756 Y176.36 E.02092
G1 X140.249 Y176.36 E.61048
G1 X139.575 Y176.338 E.0211
;WIDTH:0.407249
G1 X138.424 Y176.298 E.03679
;WIDTH:0.405572
G1 X137.32 Y176.347 E.03514
;WIDTH:0.399999
G1 X136.707 Y176.357 E.01919
G1 X136.428 Y176.33 E.00877
G1 X136.351 Y176.185 E.00514
G1 X136.349 Y156.475 E.61684
G1 X136.413 Y156.34 E.00468
G1 X136.524 Y156.301 E.00368
G1 X163.475 Y156.301 E.84345
G1 X163.606 Y156.36 E.0045
G1 X163.649 Y156.475 E.00384
G1 X163.648 Y176.185 E.61684
G1 X163.61 Y176.293 E.00358
G1 X163.526 Y176.334 E.00293
G1 X163.365 Y176.745 F12000
G1 E-.75 F3000
G1 X169.386 Y212.656 F12000
G1 E.75 F1800
;WIDTH:0.391504
G1 F3000
G1 X168.864 Y212.69 E.01597
G1 X168.32 Y212.656 E.01664
G1 E-.75
G1 X166.628 Y87.855 F12000
G1 E.75 F1800
;TYPE:Perimeter
;WIDTH:0.399999
G1 F3000
G1 X166.305 Y88.397 E.01975
G1 X166.18 Y88.892 E.01598
G1 X166.17 Y89.206 E.00983
G1 X166.207 Y89.729 E.01641
G1 X166.44 Y90.413 E.02261
G1 X166.791 Y90.945 E.01995
G1 X167.3 Y91.411 E.0216
G1 X167.939 Y91.742 E.02252
G1 X168.562 Y91.887 E.02002
G1 X169.245 Y91.873 E.02138
G1 X169.909 Y91.683 E.02161
G1 X170.388 Y91.41 E.01725
G1 X170.746 Y91.055 E.01578
G1 X170.722 Y91.835 E.02442
G1 X170.722 Y146.686 E1.7166
G1 X170.745 Y148.121 E.04492
G1 X170.274 Y147.722 E.01932
G1 X169.977 Y147.572 E.01041
G1 X169.472 Y147.383 E.01687
G1 X168.739 Y147.316 E.02304
G1 X168.086 Y147.42 E.02069
G1 X167.443 Y147.705 E.02201
G1 X167.012 Y148.036 E.01701
G1 X166.769 Y148.318 E.01165
G1 X166.465 Y148.756 E.01669
G1 X166.228 Y149.374 E.02071
G1 X166.154 Y150.074 E.02203
G1 X166.263 Y150.77 E.02205
G1 X166.549 Y151.413 E.02202
G1 X166.992 Y151.961 E.02205
G1 X167.561 Y152.375 E.02202
G1 X168.218 Y152.628 E.02203
G1 X168.918 Y152.702 E.02203
G1 X169.616 Y152.591 E.02212
G1 X170.274 Y152.29 E.02264
G1 X170.747 Y151.878 E.01963
G1 X170.723 Y152.555 E.0212
G1 X170.722 Y207.286 E1.71284
G1 X170.745 Y208.721 E.04492
G1 X170.274 Y208.322 E.01932
G1 X169.97 Y208.169 E.01065
G1 X169.472 Y207.983 E.01664
G1 X168.739 Y207.916 E.02304
G1 X168.086 Y208.02 E.02069
G1 X167.561 Y208.237 E.01778
G1 X167.376 Y208.356 E.00688
G1 X166.895 Y208.748 E.01942
G1 X166.481 Y209.317 E.02202
G1 X166.228 Y209.974 E.02203
G1 X166.155 Y210.678 E.02215
G1 X166.279 Y211.394 E.02274
G1 X166.512 Y211.87 E.01659
G1 X166.743 Y212.145 E.01124
G1 X166.363 Y212.099 E.01198
G1 X165.851 Y212.08 E.01603
G1 X135.058 Y212.073 E.96369
G1 X134.157 Y212.084 E.0282
G1 X133.264 Y212.139 E.028
G1 X133.469 Y211.908 E.00967
G1 X133.718 Y211.4 E.01771
G1 X133.78 Y211.145 E.00821
G1 X133.846 Y210.538 E.01911
G1 X133.736 Y209.842 E.02205
G1 X133.451 Y209.199 E.02201
G1 X133.008 Y208.651 E.02205
G1 X132.439 Y208.237 E.02202
G1 X131.772 Y207.983 E.02234
G1 X131.039 Y207.916 E.02304
G1 X130.385 Y208.02 E.02072
G1 X129.731 Y208.317 E.02248
G1 X129.208 Y208.773 E.02172
G1 X129.228 Y207.118 E.0518
G1 X129.228 Y153.428 E1.68026
G1 X129.206 Y151.77 E.05189
G1 X129.36 Y151.949 E.00739
G1 X129.943 Y152.366 E.02243
