; generated by PrusaSlicer 2.6.0-alpha6+win64 on 2023-08-17 at 12:54:04 UTC

; 

; external perimeters extrusion width = 0.38mm
; perimeters extrusion width = 0.38mm
; infill extrusion width = 0.45mm
; solid infill extrusion width = 0.45mm
; top infill extrusion width = 0.44mm
; support material extrusion width = 0.40mm
; first layer extrusion width = 0.40mm

M190 S55 ; set bed temperature and wait for it to be reached
M104 S210 ; set temperature
;TYPE:Custom
print_start EXTRUDER=210 BED=55
M109 S210 ; set temperature and wait for it to be reached
G21 ; set units to millimeters
G90 ; use absolute coordinates
M83 ; use relative distances for extrusion
;Filament gcode
M107
;LAYER_CHANGE
;Z:0.24
;HEIGHT:0.24
G1 Z.24 F12000
G1 E-.75 F3000
G1 X86.759 Y91.571 F12000
G1 E.75 F1800
M204 S4000
;TYPE:Skirt/Brim
;WIDTH:0.4
G1 F3000
G1 X87.836 Y90.976 E.03851
G1 X88.856 Y90.703 E.03305
G1 X89.557 Y90.645 E.02201
G1 X213.857 Y90.645 E3.89006
G1 X214.559 Y90.703 E.02204
G1 X215.579 Y90.976 E.03305
G1 X216.794 Y91.677 E.0439
G1 X217.647 Y92.563 E.03849
G1 X218.175 Y93.477 E.03303
G1 X218.515 Y94.659 E.03849
G1 X218.573 Y95.361 E.02204
G1 X218.568 Y137.045 E1.30453
G1 X218.471 Y137.925 E.02771
G1 X218.119 Y138.983 E.0349
G1 X217.492 Y139.977 E.03678
G1 X216.64 Y140.788 E.03681
G1 X215.525 Y141.401 E.03982
G1 X214.481 Y141.674 E.03377
G1 X213.807 Y141.726 E.02116
G1 X89.507 Y141.726 E3.89006
G1 X88.811 Y141.67 E.02185
G1 X87.865 Y141.43 E.03054
G1 X86.821 Y140.892 E.03676
G1 X85.939 Y140.115 E.03679
G1 X85.319 Y139.232 E.03377
G1 X84.83 Y137.302 E.06231
G1 X84.842 Y95.358 E1.31267
G1 X84.899 Y94.659 E.02195
G1 X85.173 Y93.639 E.03305
G1 X85.767 Y92.563 E.03846
G1 X86.717 Y91.613 E.04205
G1 X86.961 Y91.858 F12000
G1 F3000
G1 X87.969 Y91.298 E.03609
G1 X88.901 Y91.048 E.0302
G1 X89.557 Y90.994 E.0206
G1 X213.857 Y90.994 E3.89006
G1 X214.514 Y91.048 E.02063
G1 X215.445 Y91.298 E.03017
G1 X216.582 Y91.954 E.04108
G1 X217.37 Y92.775 E.03561
G1 X217.853 Y93.611 E.03022
G1 X218.17 Y94.704 E.03562
G1 X218.224 Y95.361 E.02063
G1 X218.219 Y137.045 E1.30453
G1 X218.13 Y137.853 E.02544
G1 X217.806 Y138.83 E.03221
G1 X217.226 Y139.753 E.03412
G1 X216.398 Y140.533 E.0356
G1 X215.284 Y141.119 E.03939
G1 X214.438 Y141.328 E.02727
G1 X213.807 Y141.378 E.01981
G1 X89.507 Y141.378 E3.89006
G1 X88.856 Y141.324 E.02044
G1 X87.991 Y141.105 E.02792
G1 X87.022 Y140.608 E.03408
G1 X86.204 Y139.888 E.0341
G1 X85.626 Y139.066 E.03145
G1 X85.178 Y137.302 E.05696
G1 X85.19 Y95.358 E1.31267
G1 X85.245 Y94.705 E.02051
G1 X85.495 Y93.772 E.03023
G1 X86.044 Y92.775 E.03562
G1 X86.919 Y91.9 E.03873
G1 X87.163 Y92.144 F12000
G1 F3000
G1 X88.103 Y91.62 E.03368
G1 X88.947 Y91.394 E.02734
G1 X89.557 Y91.342 E.01916
G1 X213.857 Y91.342 E3.89006
G1 X214.468 Y91.394 E.01919
G1 X215.312 Y91.62 E.02734
G1 X216.37 Y92.23 E.03822
G1 X217.094 Y92.987 E.03278
G1 X217.531 Y93.744 E.02736
G1 X217.824 Y94.75 E.03279
G1 X217.876 Y95.361 E.01919
G1 X217.871 Y137.045 E1.30453
G1 X217.789 Y137.782 E.02321
G1 X217.492 Y138.678 E.02954
G1 X216.96 Y139.528 E.03138
G1 X216.195 Y140.25 E.03292
G1 X215.161 Y140.793 E.03655
G1 X214.395 Y140.982 E.02469
G1 X213.807 Y141.029 E.01846
G1 X89.507 Y141.029 E3.89006
G1 X88.9 Y140.979 E.01906
G1 X88.117 Y140.78 E.02528
G1 X87.223 Y140.323 E.03142
G1 X86.469 Y139.661 E.0314
G1 X85.932 Y138.899 E.02917
G1 X85.527 Y137.302 E.05156
G1 X85.539 Y95.358 E1.31267
G1 X85.59 Y94.75 E.01909
G1 X85.816 Y93.906 E.02734
G1 X86.32 Y92.987 E.0328
G1 X87.121 Y92.187 E.03543
G1 E-.75
G1 X213.847 Y99.418 F12000
G1 E.75 F1800
;TYPE:Perimeter
;WIDTH:0.399999
G1 F3000
G1 X213.801 Y99.798 E.01198
G1 X213.782 Y100.309 E.016
G1 X213.778 Y131.033 E.96153
G1 X213.78 Y132.118 E.03396
G1 X213.851 Y132.91 E.02489
G1 X213.609 Y132.691 E.01021
G1 X212.933 Y132.392 E.02313
G1 X212.197 Y132.32 E.02314
G1 X211.544 Y132.424 E.02069
G1 X210.9 Y132.71 E.02205
G1 X210.347 Y133.16 E.02231
G1 X209.922 Y133.761 E.02304
G1 X209.685 Y134.379 E.02071
G1 X209.611 Y135.079 E.02203
G1 X209.722 Y135.776 E.02209
G1 X209.941 Y136.3 E.01777
G1 X210.05 Y136.468 E.00627
G1 X210.475 Y136.953 E.02018
G1 X209.814 Y136.933 E.0207
G1 X155.131 Y136.932 E1.71134
G1 X153.478 Y136.954 E.05174
G1 X153.655 Y136.801 E.00732
G1 X154.068 Y136.217 E.02239
G1 X154.299 Y135.551 E.02206
G1 X154.349 Y134.848 E.02206
G1 X154.216 Y134.157 E.02202
G1 X153.907 Y133.524 E.02204
G1 X153.481 Y133.031 E.02039
G1 X152.863 Y132.598 E.02362
G1 X152.197 Y132.368 E.02205
G1 X151.495 Y132.319 E.02202
G1 X150.855 Y132.441 E.02039
G1 X150.171 Y132.76 E.02362
G1 X149.732 Y133.122 E.01781
G1 X149.605 Y133.27 E.0061
G1 X149.245 Y133.805 E.02018
G1 X149.015 Y134.47 E.02202
G1 X148.965 Y135.173 E.02206
G1 X149.1 Y135.867 E.02213
G1 X149.424 Y136.511 E.02256
G1 X149.825 Y136.955 E.01872
G1 X148.912 Y136.932 E.02858
G1 X94.568 Y136.932 E1.70073
G1 X92.816 Y136.954 E.05483
G1 X93.052 Y136.75 E.00976
G1 X93.448 Y136.155 E.02237
G1 X93.662 Y135.484 E.02204
G1 X93.694 Y134.781 E.02202
G1 X93.543 Y134.094 E.02201
G1 X93.22 Y133.468 E.02205
G1 X92.745 Y132.948 E.02204
G1 X92.152 Y132.569 E.02202
G1 X91.48 Y132.356 E.02206
G1 X90.767 Y132.327 E.02233
G1 X90.092 Y132.502 E.02182
G1 X89.549 Y132.834 E.01992
G1 X89.621 Y131.891 E.0296
G1 X89.635 Y101.69 E.94516
G1 X89.635 Y100.79 E.02817
G1 X89.557 Y99.532 E.03945
G1 X90.099 Y99.855 E.01975
G1 X90.74 Y99.996 E.02054
G1 X91.431 Y99.954 E.02167
G1 X92.114 Y99.72 E.02259
G1 X92.647 Y99.37 E.01996
G1 X93.112 Y98.86 E.0216
G1 X93.443 Y98.221 E.02252
G1 X93.588 Y97.599 E.01999
G1 X93.574 Y96.915 E.02141
G1 X93.385 Y96.251 E.02161
G1 X93.111 Y95.772 E.01727
G1 X92.756 Y95.415 E.01576
G1 X93.539 Y95.439 E.02452
G1 X148.803 Y95.439 E1.72952
G1 X149.8 Y95.417 E.03121
G1 X149.788 Y95.452 E.00116
G1 X149.424 Y95.887 E.01775
G1 X149.279 Y96.172 E.01001
G1 X149.086 Y96.678 E.01695
G1 X149.011 Y97.379 E.02206
G1 X149.121 Y98.074 E.02202
G1 X149.407 Y98.718 E.02205
G1 X149.849 Y99.265 E.02201
G1 X150.418 Y99.679 E.02202
G1 X151.075 Y99.932 E.02203
G1 X151.775 Y100.006 E.02203
G1 X152.471 Y99.897 E.02205
G1 X153.114 Y99.611 E.02202
G1 X153.662 Y99.169 E.02203
G1 X154.076 Y98.599 E.02205
G1 X154.329 Y97.942 E.02203
G1 X154.403 Y97.242 E.02203
G1 X154.293 Y96.544 E.02211
G1 X153.991 Y95.887 E.02263
G1 X153.58 Y95.414 E.01961
G1 X154.266 Y95.437 E.02148
G1 X208.987 Y95.439 E1.71253
G1 X210.422 Y95.415 E.04492
G1 X210.024 Y95.887 E.01932
G1 X209.871 Y96.191 E.01065
G1 X209.686 Y96.678 E.0163
G1 X209.611 Y97.379 E.02206
G1 X209.721 Y98.074 E.02202
G1 X210.007 Y98.718 E.02205
G1 X210.449 Y99.265 E.02201
G1 X211.018 Y99.679 E.02202
G1 X211.676 Y99.932 E.02206
G1 X212.379 Y100.006 E.02212
G1 X213.096 Y99.881 E.02278
G1 X213.571 Y99.649 E.01654
G1 X213.801 Y99.456 E.0094
G1 E-.75
G1 X214.216 Y96.197 F12000
G1 E.75 F1800
;TYPE:External perimeter
;WIDTH:0.519736
G1 F3000
G1 X213.936 Y95.758 E.02189
G1 X213.693 Y95.544 E.01362
G1 X213.534 Y95.453 E.0077
;WIDTH:0.474395
G1 X213.376 Y95.362 E.00692
;WIDTH:0.429053
G1 X212.812 Y95.229 E.01965
;WIDTH:0.393926
G1 X212.31 Y95.182 E.0155
;WIDTH:0.395233
G1 X211.915 Y95.229 E.01228
;WIDTH:0.413649
G1 X211.189 Y95.359 E.02399
G1 X210.655 Y95.676 E.0202
;WIDTH:0.399999
G1 X210.264 Y96.155 E.01935
G1 X210.031 Y96.724 E.01924
G1 X209.957 Y97.333 E.0192
G1 X210.043 Y97.941 E.01922
G1 X210.283 Y98.505 E.01918
G1 X210.661 Y98.989 E.01922
G1 X211.152 Y99.357 E.0192
G1 X211.721 Y99.587 E.01921
G1 X212.331 Y99.661 E.01923
G1 X212.971 Y99.554 E.02031
G1 X213.511 Y99.274 E.01904
G1 X213.888 Y98.829 E.01825
G1 X214.179 Y98.365 E.01714
G1 X214.352 Y97.879 E.01614
G1 X214.325 Y98.806 E.02902
G1 X214.213 Y99.298 E.01579
G1 X214.149 Y99.811 E.01618
G1 X214.13 Y100.313 E.01572
G1 X214.126 Y131.034 E.96143
G1 X214.127 Y132.087 E.03295
G1 X214.188 Y132.765 E.0213
G1 X214.319 Y133.566 E.0254
G1 X214.35 Y134.444 E.02749
G1 X214.165 Y133.929 E.01713
G1 X213.872 Y133.474 E.01694
G1 X213.455 Y133.004 E.01966
G1 X212.891 Y132.738 E.01952
G1 X212.242 Y132.666 E.02044
G1 X211.677 Y132.746 E.01786
G1 X211.112 Y132.986 E.01921
G1 X210.627 Y133.367 E.0193
G1 X210.244 Y133.894 E.02039
G1 X210.031 Y134.424 E.01788
G1 X209.957 Y135.033 E.0192
G1 X210.043 Y135.641 E.01922
G1 X210.319 Y136.247 E.02084
G1 X210.694 Y136.688 E.01812
;WIDTH:0.418994
G1 X211.227 Y137.002 E.02042
G1 X211.777 Y137.11 E.0185
;WIDTH:0.397865
G1 X212.323 Y137.149 E.01703
;WIDTH:0.399665
G1 X212.869 Y137.105 E.01713
;WIDTH:0.438064
G1 X213.387 Y136.975 E.01854
;WIDTH:0.465479
G1 X213.461 Y136.941 E.00303
;WIDTH:0.492893
G1 X213.536 Y136.906 E.00328
;WIDTH:0.521461
G1 X213.936 Y136.563 E.02224
G1 X214.236 Y136.088 E.02371
G1 X214.256 Y136.503 E.01753
G1 X214.194 Y136.792 E.01247
G1 X214.085 Y137.054 E.01198
G1 X213.921 Y137.209 E.00952
;WIDTH:0.520301
G1 X213.694 Y137.281 E.01003
;WIDTH:0.479183
G1 X213.467 Y137.353 E.00915
;WIDTH:0.438064
G1 X212.783 Y137.465 E.02406
;WIDTH:0.399616
G1 X212.277 Y137.476 E.01582
;WIDTH:0.398209
G1 X211.696 Y137.448 E.01811
;WIDTH:0.401921
G1 X210.827 Y137.326 E.02761
G1 X210.317 Y137.291 E.01609
;WIDTH:0.399999
G1 X155.131 Y137.281 E1.72708
G1 X153.383 Y137.306 E.05471
;WIDTH:0.427347
G1 X152.871 Y137.35 E.01734
G1 X152.285 Y137.447 E.02005
;WIDTH:0.399164
G1 X151.707 Y137.478 E.01807
;WIDTH:0.39744
G1 X151.134 Y137.459 E.01781
;WIDTH:0.412765
G1 X149.783 Y137.302 E.04412
;WIDTH:0.399999
G1 X148.912 Y137.281 E.02727
G1 X92.978 Y137.291 E1.75049
;WIDTH:0.436337
G1 X92.296 Y137.335 E.02362
G1 X91.706 Y137.435 E.02068
;WIDTH:0.39767
G1 X91.106 Y137.476 E.0187
;WIDTH:0.402594
G1 X90.507 Y137.468 E.01889
;WIDTH:0.44724
G1 X90.036 Y137.375 E.01706
;WIDTH:0.491886
G1 X89.565 Y137.282 E.01899
;WIDTH:0.520921
G1 X89.255 Y137.101 E.01513
G1 X89.136 Y136.204 E.03814
G1 X89.475 Y136.657 E.02385
G1 X89.648 Y136.818 E.00996
;WIDTH:0.520527
G1 X89.852 Y136.917 E.00955
;WIDTH:0.471887
G1 X90.056 Y137.017 E.00858
;WIDTH:0.423247
G1 X90.601 Y137.125 E.01855
;WIDTH:0.398139
G1 X91.145 Y137.147 E.01695
;WIDTH:0.399246
G1 X91.687 Y137.088 E.01703
;WIDTH:0.436337
G1 X92.218 Y136.959 E.01888
G1 X92.33 Y136.882 E.0047
;WIDTH:0.419181
G1 X92.768 Y136.549 E.01817
;WIDTH:0.399999
G1 X93.119 Y136.041 E.01932
G1 X93.314 Y135.46 E.01918
G1 X93.352 Y134.847 E.01922
G1 X93.23 Y134.246 E.01919
G1 X92.956 Y133.697 E.0192
G1 X92.55 Y133.237 E.0192
G1 X92.038 Y132.898 E.01922
G1 X91.456 Y132.703 E.01921
G1 X90.84 Y132.668 E.01931
G1 X90.272 Y132.8 E.01825
G1 X89.756 Y133.111 E.01885
G1 X89.077 Y134.066 E.03667
G1 X89.083 Y133.367 E.02188
G1 X89.205 Y132.771 E.01904
G1 X89.273 Y131.891 E.02762
G1 X89.286 Y101.689 E.94519
G1 X89.285 Y100.772 E.0287
G1 X89.245 Y99.789 E.03079
G1 X89.089 Y98.823 E.03062
G1 X89.087 Y98.425 E.01246
G1 X89.676 Y99.194 E.03031
G1 X90.185 Y99.517 E.01887
G1 X90.728 Y99.648 E.01748
G1 X91.325 Y99.621 E.0187
G1 X91.93 Y99.424 E.01991
G1 X92.396 Y99.128 E.01728
G1 X92.806 Y98.693 E.01871
G1 X93.106 Y98.134 E.01985
G1 X93.239 Y97.597 E.01731
G1 X93.237 Y97.002 E.01862
G1 X93.1 Y96.467 E.01728
G1 X92.925 Y96.148 E.01139
G1 X92.707 Y95.841 E.01178
G1 X92.313 Y95.5 E.01631
;WIDTH:0.404782
G1 X91.765 Y95.291 E.01861
G1 X91.261 Y95.204 E.01623
;WIDTH:0.374678
G1 X90.714 Y95.188 E.01588
;WIDTH:0.398049
G1 X90.195 Y95.269 E.01635
;WIDTH:0.438448
G1 X89.92 Y95.374 E.01023
;WIDTH:0.478847
G1 X89.645 Y95.479 E.0113
;WIDTH:0.480694
G1 X89.287 Y95.837 E.01951
G1 X89.128 Y96.061 E.01059
G1 X89.173 Y95.467 E.02296
G1 X89.251 Y95.281 E.00777
G1 X89.39 Y95.134 E.0078
;WIDTH:0.479044
G1 X89.652 Y95.021 E.01095
;WIDTH:0.468442
G1 X89.919 Y94.974 E.01015
;WIDTH:0.429535
G1 X90.186 Y94.926 E.00921
;WIDTH:0.390627
G1 X90.755 Y94.874 E.0174
;WIDTH:0.377819
G1 X91.322 Y94.883 E.01662
;WIDTH:0.408419
G1 X92.529 Y95.05 E.03906
;WIDTH:0.399999
G1 X93.029 Y95.084 E.01568
G1 X93.537 Y95.09 E.0159
G1 X148.387 Y95.09 E1.71657
G1 X149.807 Y95.068 E.04445
;WIDTH:0.408471
G1 X150.316 Y95.019 E.01639
;WIDTH:0.413816
G1 X150.815 Y94.942 E.01643
G1 X151.272 Y94.907 E.01491
;WIDTH:0.388346
G1 X151.729 Y94.872 E.01386
;WIDTH:0.395062
G1 X152.316 Y94.896 E.01813
;WIDTH:0.399999
G1 X153.255 Y95.039 E.02973
G1 X153.764 Y95.078 E.01598
G1 X154.266 Y95.089 E.01571
G1 X208.987 Y95.09 E1.71253
G1 X210.516 Y95.054 E.04786
;WIDTH:0.414582
G1 X211.865 Y94.889 E.04431
;WIDTH:0.395233
G1 X212.329 Y94.872 E.01433
;WIDTH:0.39503
G1 X212.935 Y94.901 E.01872
;WIDTH:0.429053
G1 X213.454 Y94.994 E.01788
;WIDTH:0.474395
G1 X213.713 Y95.078 E.01034
;WIDTH:0.519736
G1 X213.971 Y95.162 E.01141
G1 X214.161 Y95.441 E.01419
G1 X214.267 Y95.896 E.01964
G1 X214.267 Y96.311 E.01745
G1 X214.24 Y96.251 E.00277
G1 X214.089 Y95.817 F12000
G1 X214.358 Y96.78
;WIDTH:0.391504
G1 F3000
G1 X214.391 Y97.296 E.01579
G1 X214.357 Y97.847 E.01686
G1 E-.75
G1 X198.161 Y114.301 F12000
G1 E.75 F1800
;TYPE:Perimeter
;WIDTH:0.399999
G1 F3000
G1 X198.218 Y114.353 E.00241
G1 X198.301 Y114.635 E.0092
G1 X198.301 Y118.686 E.12678
G1 X198.242 Y118.926 E.00773
G1 X198.062 Y119.125 E.0084
G1 X197.778 Y119.209 E.00927
G1 X191.726 Y119.209 E.1894
G1 X191.46 Y119.136 E.00863
G1 X191.269 Y118.939 E.00859
G1 X191.204 Y118.686 E.00817
G1 X191.204 Y114.635 E.12678
G1 X191.266 Y114.387 E.008
G1 X191.425 Y114.208 E.00749
G1 X191.668 Y114.115 E.00814
G1 X191.748 Y114.112 E.00251
G1 X197.778 Y114.112 E.18871
G1 X198.019 Y114.171 E.00776
G1 X198.117 Y114.26 E.00414
G1 X197.916 Y114.528 F12000
;TYPE:External perimeter
G1 F3000
G1 X197.952 Y114.635 E.00353
G1 X197.952 Y118.686 E.12678
G1 X197.889 Y118.821 E.00466
G1 X197.778 Y118.861 E.00369
G1 X191.726 Y118.861 E.1894
G1 X191.586 Y118.79 E.00491
G1 X191.552 Y118.686 E.00342
G1 X191.552 Y114.635 E.12678
G1 X191.608 Y114.507 E.00437
G1 X191.748 Y114.461 E.00461
G1 X197.778 Y114.461 E.18871
G1 X197.862 Y114.502 E.00293
G1 X198.026 Y114.504 F12000
G1 E-.75 F3000
G1 X214.355 Y134.481 F12000
G1 E.75 F1800
;WIDTH:0.391504
G1 F3000
G1 X214.388 Y134.997 E.01579
G1 X214.353 Y135.546 E.0168
G1 E-.75
G1 X149.563 Y133.949 F12000
G1 E.75 F1800
;WIDTH:0.399999
G1 F3000
G1 X149.889 Y133.472 E.01808
G1 X150.393 Y133.029 E.021
G1 X150.993 Y132.761 E.02057
G1 X151.553 Y132.662 E.0178
G1 X152.164 Y132.715 E.01919
G1 X152.741 Y132.925 E.01922
G1 X153.273 Y133.311 E.02057
G1 X153.639 Y133.746 E.01779
G1 X153.898 Y134.302 E.0192
G1 X154.005 Y134.906 E.0192
G1 X153.953 Y135.517 E.01919
G1 X153.742 Y136.094 E.01923
G1 X153.377 Y136.591 E.0193
;WIDTH:0.419179
G1 X152.869 Y136.949 E.02052
G1 X152.324 Y137.09 E.01859
;WIDTH:0.406871
G1 X151.744 Y137.149 E.0186
;WIDTH:0.396436
G1 X151.2 Y137.119 E.01688
;WIDTH:0.417568
G1 X150.651 Y137.026 E.0183
G1 X150.115 Y136.743 E.01993
;WIDTH:0.399999
G1 X149.684 Y136.279 E.01982
G1 X149.417 Y135.72 E.01939
G1 X149.309 Y135.115 E.01923
G1 X149.362 Y134.504 E.01919
G1 X149.543 Y134.005 E.01661
G1 X149.345 Y133.613 F12000
G1 E-.75 F3000
G1 X178.387 Y130.218 F12000
G1 E.75 F1800
;TYPE:Perimeter
G1 F3000
G1 X178.334 Y130.408 E.00617
G1 X178.182 Y130.568 E.00691
G1 X177.978 Y130.651 E.00689
G1 X177.888 Y130.659 E.00283
G1 X158.026 Y130.659 E.62159
G1 X157.804 Y130.61 E.00711
G1 X157.622 Y130.468 E.00722
G1 X157.522 Y130.273 E.00686
G1 X157.503 Y129.379 E.02798
G1 X157.503 Y102.185 E.85105
G1 X157.573 Y101.925 E.00843
G1 X157.753 Y101.739 E.0081
G1 X158.026 Y101.662 E.00888
G1 X177.888 Y101.663 E.62159
G1 X178.095 Y101.705 E.00661
G1 X178.302 Y101.867 E.00823
G1 X178.371 Y101.986 E.0043
G1 X178.409 Y102.421 E.01367
G1 X178.402 Y103.247 E.02585
G1 X178.621 Y102.979 E.01083
G1 X179.088 Y102.636 E.01813
G1 X179.591 Y102.434 E.01696
G1 X180.094 Y102.365 E.01589
G1 X180.677 Y102.424 E.01834
G1 X181.226 Y102.632 E.01837
G1 X181.702 Y102.975 E.01836
G1 X182.073 Y103.429 E.01835
G1 X182.314 Y103.964 E.01836
G1 X182.408 Y104.543 E.01836
G1 X182.349 Y105.126 E.01834
G1 X182.141 Y105.675 E.01837
G1 X181.798 Y106.151 E.01836
G1 X181.344 Y106.522 E.01835
G1 X180.809 Y106.763 E.01836
G1 X180.23 Y106.857 E.01836
G1 X179.646 Y106.798 E.01837
G1 X179.098 Y106.59 E.01834
G1 X178.621 Y106.243 E.01846
G1 X178.405 Y105.979 E.01068
G1 X178.41 Y125.911 E.62379
G1 X178.396 Y126.356 E.01393
G1 X178.672 Y126.039 E.01315
G1 X179.098 Y125.732 E.01643
G1 X179.646 Y125.524 E.01834
