; generated by PrusaSlicer 2.6.0-alpha6+win64 on 2023-08-17 at 16:42:44 UTC

; 

; external perimeters extrusion width = 0.38mm
; perimeters extrusion width = 0.38mm
; infill extrusion width = 0.45mm
; solid infill extrusion width = 0.45mm
; top infill extrusion width = 0.44mm
; support material extrusion width = 0.40mm
; first layer extrusion width = 0.40mm

M190 S55 ; set bed temperature and wait for it to be reached
M104 S210 ; set temperature
;TYPE:Custom
print_start EXTRUDER=210 BED=55
M109 S210 ; set temperature and wait for it to be reached
G21 ; set units to millimeters
G90 ; use absolute coordinates
M83 ; use relative distances for extrusion
;Filament gcode
M107
;LAYER_CHANGE
;Z:0.24
;HEIGHT:0.24
G1 Z.24 F12000
G1 E-.75 F3000
G1 X77.064 Y77.1 F12000
G1 E.75 F1800
M204 S4000
;TYPE:Skirt/Brim
;WIDTH:0.4
G1 F3000
G1 X78.435 Y76.309 E.04954
G1 X79.455 Y76.035 E.03305
G1 X80.246 Y75.966 E.02485
G1 X204.546 Y75.966 E3.89006
G1 X205.337 Y76.035 E.02485
G1 X206.357 Y76.309 E.03305
G1 X207.727 Y77.1 E.04951
G1 X208.617 Y78.034 E.04038
G1 X209.163 Y78.972 E.03397
G1 X209.538 Y80.237 E.04129
G1 X209.607 Y81.011 E.02432
G1 X209.678 Y106.7 E.80396
G1 X209.623 Y123.156 E.51501
G1 X209.315 Y124.439 E.04129
G1 X208.542 Y125.786 E.0486
G1 X207.567 Y126.717 E.04219
G1 X206.407 Y127.347 E.04131
G1 X205.387 Y127.62 E.03305
G1 X204.596 Y127.69 E.02485
G1 X80.296 Y127.69 E3.89006
G1 X79.504 Y127.62 E.02488
G1 X78.485 Y127.347 E.03301
G1 X77.325 Y126.717 E.04131
G1 X76.368 Y125.809 E.04129
G1 X75.577 Y124.439 E.04951
G1 X75.303 Y123.419 E.03305
G1 X75.234 Y122.644 E.02435
G1 X75.184 Y81.011 E1.30294
G1 X75.253 Y80.237 E.02432
G1 X75.527 Y79.217 E.03305
G1 X76.156 Y78.057 E.0413
G1 X77.023 Y77.143 E.03943
G1 X77.273 Y77.38 F12000
G1 F3000
G1 X78.568 Y76.631 E.04682
G1 X79.5 Y76.381 E.0302
G1 X80.246 Y76.315 E.02344
G1 X204.546 Y76.315 E3.89006
G1 X205.292 Y76.381 E.02344
G1 X206.224 Y76.631 E.0302
G1 X207.515 Y77.376 E.04665
G1 X208.341 Y78.246 E.03754
G1 X208.841 Y79.105 E.03111
G1 X209.193 Y80.282 E.03845
G1 X209.259 Y81.013 E.02297
G1 X209.309 Y122.633 E1.30253
G1 X209.243 Y123.373 E.02325
G1 X208.993 Y124.306 E.03023
G1 X208.409 Y125.387 E.03845
G1 X207.565 Y126.279 E.03843
G1 X206.274 Y127.025 E.04666
G1 X205.341 Y127.275 E.03023
G1 X204.596 Y127.341 E.02341
G1 X80.296 Y127.341 E3.89006
G1 X79.55 Y127.275 E.02344
G1 X78.618 Y127.025 E.0302
G1 X77.537 Y126.441 E.03845
G1 X76.644 Y125.597 E.03845
G1 X75.899 Y124.306 E.04665
G1 X75.649 Y123.373 E.03023
G1 X75.583 Y122.643 E.02294
G1 X75.533 Y81.013 E1.30284
G1 X75.599 Y80.282 E.02297
G1 X75.849 Y79.35 E.0302
G1 X76.433 Y78.269 E.03845
G1 X77.232 Y77.423 E.03642
G1 X77.483 Y77.659 F12000
G1 F3000
G1 X78.701 Y76.953 E.04406
G1 X79.546 Y76.726 E.02738
G1 X80.246 Y76.663 E.022
G1 X204.546 Y76.663 E3.89006
G1 X205.246 Y76.726 E.022
G1 X206.09 Y76.953 E.02735
G1 X207.303 Y77.653 E.04383
G1 X208.064 Y78.458 E.03467
G1 X208.519 Y79.238 E.02826
G1 X208.847 Y80.328 E.03562
G1 X208.91 Y81.014 E.02156
G1 X208.961 Y122.632 E1.30247
G1 X208.897 Y123.328 E.02187
G1 X208.671 Y124.172 E.02734
G1 X208.132 Y125.174 E.03561
G1 X207.353 Y126.003 E.0356
G1 X206.14 Y126.703 E.04383
G1 X205.296 Y126.929 E.02734
G1 X204.596 Y126.993 E.022
G1 X80.296 Y126.993 E3.89006
G1 X79.595 Y126.929 E.02203
G1 X78.751 Y126.703 E.02734
G1 X77.749 Y126.165 E.03559
G1 X76.921 Y125.385 E.0356
G1 X76.221 Y124.172 E.04383
G1 X75.994 Y123.328 E.02735
G1 X75.931 Y122.642 E.02156
G1 X75.881 Y81.014 E1.30278
G1 X75.944 Y80.328 E.02156
G1 X76.171 Y79.483 E.02738
G1 X76.709 Y78.481 E.03559
G1 X77.442 Y77.703 E.03345
G1 E-.75
G1 X204.826 Y122.728 F12000
G1 E.75 F1800
;TYPE:Perimeter
;WIDTH:0.399999
G1 F3000
G1 X204.753 Y122.833 E.004
G1 X204.547 Y122.896 E.00674
G1 X80.368 Y122.896 E3.88627
G1 X80.228 Y122.88 E.00441
G1 X80.09 Y122.786 E.00523
G1 X80.028 Y122.578 E.00679
G1 X80.025 Y108.602 E.43739
G1 X79.983 Y108.526 E.00272
G1 X79.978 Y81.099 E.85835
G1 X79.993 Y80.96 E.00438
G1 X80.088 Y80.822 E.00524
G1 X80.295 Y80.76 E.00676
G1 X204.474 Y80.76 E3.88627
G1 X204.613 Y80.775 E.00438
G1 X204.751 Y80.87 E.00524
G1 X204.814 Y81.077 E.00677
G1 X204.826 Y106.504 E.79576
G1 X204.827 Y106.54 E.00113
G1 X204.881 Y106.613 E.00284
G1 X204.862 Y107.859 E.039
G1 X204.864 Y122.556 E.45995
G1 X204.85 Y122.675 E.00375
G1 X205.126 Y122.934 F12000
;TYPE:External perimeter
G1 F3000
G1 X204.902 Y123.159 E.00994
G1 X204.57 Y123.244 E.01073
G1 X80.322 Y123.244 E3.88842
G1 X79.989 Y123.159 E.01076
G1 X79.765 Y122.934 E.00994
G1 X79.679 Y122.601 E.01076
G1 X79.677 Y108.602 E.43811
G1 X79.634 Y108.55 E.00211
G1 X79.629 Y81.1 E.85907
G1 X79.654 Y80.869 E.00727
G1 X79.715 Y80.721 E.00501
G1 X79.939 Y80.497 E.00991
G1 X80.272 Y80.412 E.01076
G1 X204.52 Y80.412 E3.88842
G1 X204.852 Y80.497 E.01073
G1 X205.076 Y80.721 E.00991
G1 X205.162 Y81.054 E.01076
G1 X205.174 Y106.504 E.79647
G1 X205.23 Y106.573 E.00278
G1 X205.21 Y107.855 E.04013
G1 X205.212 Y122.602 E.46152
G1 X205.141 Y122.876 E.00886
G1 X204.809 Y122.934 F12000
G1 E-.75 F3000
G1 X204.709 Y81.624 F12000
G1 E.75 F1800
;TYPE:Solid infill
;WIDTH:0.400766
G1 F3000
G1 X204.118 Y81.032 E.02624
G1 X203.624 Y81.032 E.01549
G1 X204.553 Y81.961 E.04121
G1 X204.553 Y82.455 E.01549
G1 X203.13 Y81.032 E.06312
G1 X202.636 Y81.032 E.01549
G1 X204.553 Y82.949 E.08503
G1 X204.553 Y83.443 E.01549
G1 X202.142 Y81.032 E.10694
G1 X201.648 Y81.032 E.01549
G1 X204.554 Y83.938 E.1289
G1 X204.554 Y84.432 E.01549
G1 X201.154 Y81.032 E.15081
G1 X200.66 Y81.032 E.01549
G1 X204.554 Y84.926 E.17272
G1 X204.554 Y85.42 E.01549
G1 X200.166 Y81.032 E.19463
G1 X199.672 Y81.032 E.01549
G1 X204.555 Y85.914 E.21657
G1 X204.555 Y86.408 E.01549
G1 X199.178 Y81.032 E.23848
G1 X198.684 Y81.032 E.01549
G1 X204.555 Y86.903 E.26042
G1 X204.555 Y87.397 E.01549
G1 X198.19 Y81.032 E.28233
G1 X197.696 Y81.032 E.01549
G1 X204.556 Y87.891 E.30426
G1 X204.556 Y88.385 E.01549
G1 X197.202 Y81.032 E.32617
G1 X196.708 Y81.031 E.01549
G1 X204.556 Y88.879 E.34811
G1 X204.556 Y89.374 E.01553
G1 X196.214 Y81.031 E.37004
G1 X195.72 Y81.031 E.01549
G1 X204.557 Y89.868 E.39198
G1 X204.557 Y90.362 E.01549
G1 X195.226 Y81.031 E.41389
G1 X194.732 Y81.031 E.01549
G1 X204.557 Y90.856 E.4358
G1 X204.557 Y91.35 E.01549
G1 X194.238 Y81.031 E.45771
G1 X193.744 Y81.031 E.01549
G1 X204.557 Y91.844 E.47962
G1 X204.558 Y92.339 E.01553
G1 X193.25 Y81.031 E.50158
G1 X192.756 Y81.031 E.01549
G1 X204.558 Y92.833 E.52349
G1 X204.558 Y93.327 E.01549
G1 X192.262 Y81.031 E.5454
G1 X191.768 Y81.031 E.01549
G1 X204.558 Y93.821 E.56732
G1 X204.559 Y94.315 E.01549
G1 X191.274 Y81.031 E.58925
G1 X190.78 Y81.031 E.01549
G1 X204.559 Y94.809 E.61116
G1 X204.559 Y95.304 E.01553
G1 X190.286 Y81.031 E.6331
G1 X189.792 Y81.031 E.01549
G1 X204.559 Y95.798 E.65501
G1 X204.56 Y96.292 E.01549
G1 X189.298 Y81.031 E.67694
G1 X188.804 Y81.031 E.01549
G1 X204.56 Y96.786 E.69885
G1 X204.56 Y97.28 E.01549
G1 X188.31 Y81.031 E.72077
G1 X187.816 Y81.031 E.01549
G1 X204.56 Y97.774 E.74268
G1 X204.561 Y98.269 E.01553
G1 X187.322 Y81.03 E.76466
G1 X186.828 Y81.03 E.01549
G1 X204.561 Y98.763 E.78657
G1 X204.561 Y99.257 E.01549
G1 X186.334 Y81.03 E.80848
G1 X185.84 Y81.03 E.01549
G1 X204.561 Y99.751 E.83039
G1 X204.562 Y100.245 E.01549
G1 X185.347 Y81.03 E.8523
G1 X184.853 Y81.03 E.01549
G1 X204.562 Y100.739 E.87422
G1 X204.562 Y101.234 E.01553
G1 X184.359 Y81.03 E.89615
G1 X183.865 Y81.03 E.01549
G1 X204.562 Y101.728 E.91806
G1 X204.563 Y102.222 E.01549
G1 X183.371 Y81.03 E.94
G1 X182.877 Y81.03 E.01549
G1 X204.563 Y102.716 E.96191
G1 X204.563 Y103.21 E.01549
G1 X182.383 Y81.03 E.98382
G1 X181.889 Y81.03 E.01549
G1 X204.563 Y103.705 E1.00575
G1 X204.563 Y104.199 E.01549
G1 X181.395 Y81.03 E1.02767
G1 X180.901 Y81.03 E.01549
G1 X204.564 Y104.693 E1.0496
G1 X204.564 Y105.187 E.01549
G1 X180.407 Y81.03 E1.07151
G1 X179.913 Y81.03 E.01549
G1 X204.564 Y105.681 E1.09342
G1 X204.564 Y106.175 E.01549
G1 X179.419 Y81.03 E1.11534
G1 X178.925 Y81.03 E.01549
G1 X204.62 Y106.724 E1.13971
G1 X204.618 Y107.217 E.01546
G1 X178.431 Y81.03 E1.16156
G1 X177.937 Y81.029 E.01549
G1 X204.617 Y107.71 E1.18344
G1 X204.6 Y108.187 E.01497
G1 X177.443 Y81.029 E1.2046
G1 X176.949 Y81.029 E.01549
G1 X204.6 Y108.68 E1.22649
G1 X204.599 Y109.174 E.01549
G1 X176.455 Y81.029 E1.24838
G1 X175.961 Y81.029 E.01549
G1 X204.599 Y109.668 E1.27029
G1 X204.599 Y110.161 E.01546
G1 X175.467 Y81.029 E1.29218
G1 X174.973 Y81.029 E.01549
G1 X204.599 Y110.655 E1.3141
G1 X204.598 Y111.148 E.01546
G1 X174.479 Y81.029 E1.33596
G1 X173.985 Y81.029 E.01549
G1 X204.598 Y111.642 E1.35788
G1 X204.598 Y112.136 E.01549
G1 X173.491 Y81.029 E1.37979
G1 X172.997 Y81.029 E.01549
G1 X204.597 Y112.629 E1.40166
G1 X204.597 Y113.123 E.01549
G1 X172.503 Y81.029 E1.42357
G1 X172.009 Y81.029 E.01549
G1 X204.597 Y113.617 E1.44548
G1 X204.596 Y114.11 E.01546
G1 X171.515 Y81.029 E1.46735
G1 X171.021 Y81.029 E.01549
G1 X204.596 Y114.604 E1.48926
G1 X204.596 Y115.098 E.01549
G1 X170.527 Y81.029 E1.51117
G1 X170.033 Y81.029 E.01549
G1 X204.596 Y115.591 E1.53306
G1 X204.595 Y116.085 E.01549
G1 X169.539 Y81.029 E1.55495
G1 X169.045 Y81.029 E.01549
G1 X204.595 Y116.578 E1.57684
G1 X204.595 Y117.072 E.01549
G1 X168.551 Y81.028 E1.59877
G1 X168.057 Y81.028 E.01549
G1 X204.594 Y117.566 E1.62066
G1 X204.594 Y118.059 E.01546
G1 X167.563 Y81.028 E1.64255
G1 X167.069 Y81.028 E.01549
G1 X204.594 Y118.553 E1.66447
G1 X204.593 Y119.047 E.01549
G1 X166.575 Y81.028 E1.68636
G1 X166.081 Y81.028 E.01549
G1 X204.593 Y119.54 E1.70825
G1 X204.593 Y120.034 E.01549
G1 X165.587 Y81.028 E1.73016
G1 X165.093 Y81.028 E.01549
G1 X204.593 Y120.527 E1.75205
G1 X204.592 Y121.021 E.01549
G1 X164.599 Y81.028 E1.77394
G1 X164.105 Y81.028 E.01549
G1 X204.592 Y121.515 E1.79585
G1 X204.592 Y122.008 E.01546
G1 X163.611 Y81.028 E1.81774
G1 X163.117 Y81.028 E.01549
G1 X204.591 Y122.502 E1.83963
G1 X204.591 Y122.622 E.00376
G1 X204.23 Y122.634 E.01133
G1 X162.623 Y81.028 E1.84551
G1 X162.129 Y81.028 E.01549
G1 X203.736 Y122.634 E1.84551
G1 X203.242 Y122.634 E.01549
G1 X161.635 Y81.028 E1.84551
G1 X161.141 Y81.028 E.01549
G1 X202.748 Y122.634 E1.84551
G1 X202.254 Y122.634 E.01549
G1 X160.647 Y81.028 E1.84551
G1 X160.153 Y81.028 E.01549
G1 X201.76 Y122.634 E1.84551
G1 X201.266 Y122.634 E.01549
G1 X159.659 Y81.028 E1.84551
G1 X159.165 Y81.028 E.01549
G1 X200.772 Y122.634 E1.84551
G1 X200.278 Y122.634 E.01549
G1 X158.671 Y81.027 E1.84553
G1 X158.177 Y81.027 E.01549
G1 X199.784 Y122.634 E1.84553
G1 X199.29 Y122.634 E.01549
G1 X157.683 Y81.027 E1.84553
G1 X157.189 Y81.027 E.01549
G1 X198.796 Y122.634 E1.84553
G1 X198.302 Y122.634 E.01549
G1 X156.696 Y81.027 E1.84551
G1 X156.202 Y81.027 E.01549
G1 X197.809 Y122.634 E1.84553
G1 X197.315 Y122.634 E.01549
G1 X155.708 Y81.027 E1.84553
G1 X155.214 Y81.027 E.01549
G1 X196.821 Y122.634 E1.84553
G1 X196.327 Y122.634 E.01549
G1 X154.72 Y81.027 E1.84553
G1 X154.226 Y81.027 E.01549
G1 X195.833 Y122.634 E1.84553
G1 X195.339 Y122.634 E.01549
G1 X153.732 Y81.027 E1.84553
G1 X153.238 Y81.027 E.01549
G1 X194.845 Y122.634 E1.84553
G1 X194.351 Y122.634 E.01549
G1 X152.744 Y81.027 E1.84553
G1 X152.25 Y81.027 E.01549
G1 X193.857 Y122.634 E1.84553
G1 X193.363 Y122.634 E.01549
G1 X151.756 Y81.027 E1.84553
G1 X151.262 Y81.027 E.01549
G1 X192.869 Y122.634 E1.84553
G1 X192.375 Y122.634 E.01549
G1 X150.768 Y81.027 E1.84553
G1 X150.274 Y81.027 E.01549
G1 X191.881 Y122.634 E1.84553
G1 X191.387 Y122.634 E.01549
G1 X149.78 Y81.027 E1.84553
G1 X149.286 Y81.026 E.01549
G1 X190.893 Y122.634 E1.84555
G1 X190.4 Y122.634 E.01546
G1 X148.792 Y81.026 E1.84557
G1 X148.298 Y81.026 E.01549
G1 X189.906 Y122.634 E1.84557
G1 X189.412 Y122.634 E.01549
G1 X147.804 Y81.026 E1.84557
G1 X147.31 Y81.026 E.01549
G1 X188.918 Y122.634 E1.84557
G1 X188.424 Y122.634 E.01549
G1 X146.816 Y81.026 E1.84557
G1 X146.322 Y81.026 E.01549
G1 X187.93 Y122.634 E1.84557
G1 X187.436 Y122.634 E.01549
G1 X145.828 Y81.026 E1.84557
G1 X145.334 Y81.026 E.01549
G1 X186.942 Y122.634 E1.84557
G1 X186.448 Y122.634 E.01549
G1 X144.84 Y81.026 E1.84557
G1 X144.346 Y81.026 E.01549
G1 X185.954 Y122.634 E1.84557
G1 X185.46 Y122.634 E.01549
G1 X143.852 Y81.026 E1.84557
G1 X143.358 Y81.026 E.01549
G1 X184.966 Y122.634 E1.84557
G1 X184.472 Y122.634 E.01549
G1 X142.864 Y81.026 E1.84557
G1 X142.37 Y81.026 E.01549
G1 X183.978 Y122.634 E1.84557
G1 X183.485 Y122.634 E.01546
G1 X141.876 Y81.026 E1.84559
G1 X141.382 Y81.026 E.01549
G1 X182.991 Y122.634 E1.84559
G1 X182.497 Y122.634 E.01549
G1 X140.888 Y81.026 E1.84559
G1 X140.394 Y81.026 E.01549
G1 X182.003 Y122.634 E1.84559
G1 X181.509 Y122.634 E.01549
G1 X139.9 Y81.025 E1.84562
G1 X139.406 Y81.025 E.01549
G1 X181.015 Y122.634 E1.84562
G1 X180.521 Y122.634 E.01549
G1 X138.912 Y81.025 E1.84562
G1 X138.418 Y81.025 E.01549
G1 X180.027 Y122.634 E1.84562
G1 X179.533 Y122.634 E.01549
G1 X137.924 Y81.025 E1.84562
G1 X137.43 Y81.025 E.01549
G1 X179.039 Y122.634 E1.84562
G1 X178.545 Y122.634 E.01549
G1 X136.936 Y81.025 E1.84562
G1 X136.442 Y81.025 E.01549
G1 X178.051 Y122.634 E1.84562
G1 X177.557 Y122.634 E.01549
G1 X135.948 Y81.025 E1.84562
G1 X135.454 Y81.025 E.01549
G1 X177.063 Y122.634 E1.84562
G1 X176.569 Y122.634 E.01549
G1 X134.96 Y81.025 E1.84562
G1 X134.466 Y81.025 E.01549
G1 X176.076 Y122.634 E1.84564
G1 X175.582 Y122.634 E.01549
G1 X133.972 Y81.025 E1.84564
G1 X133.478 Y81.025 E.01549
G1 X175.088 Y122.634 E1.84564
G1 X174.594 Y122.634 E.01549
G1 X132.984 Y81.025 E1.84564
G1 X132.49 Y81.025 E.01549
G1 X174.1 Y122.634 E1.84564
G1 X173.606 Y122.634 E.01549
G1 X131.996 Y81.025 E1.84564
G1 X131.502 Y81.025 E.01549
G1 X173.112 Y122.634 E1.84564
G1 X172.618 Y122.634 E.01549
G1 X131.008 Y81.025 E1.84564
G1 X130.514 Y81.024 E.01549
G1 X172.124 Y122.634 E1.84566
G1 X171.63 Y122.634 E.01549
G1 X130.02 Y81.024 E1.84566
G1 X129.526 Y81.024 E.01549
G1 X171.136 Y122.634 E1.84566
G1 X170.642 Y122.634 E.01549
G1 X129.032 Y81.024 E1.84566
G1 X128.538 Y81.024 E.01549
G1 X170.148 Y122.634 E1.84566
G1 X169.654 Y122.634 E.01549
G1 X128.044 Y81.024 E1.84566
G1 X127.551 Y81.024 E.01546
G1 X169.161 Y122.634 E1.84566
G1 X168.667 Y122.634 E.01549
G1 X127.057 Y81.024 E1.84566
G1 X126.563 Y81.024 E.01549
G1 X168.173 Y122.634 E1.84566
G1 X167.679 Y122.634 E.01549
G1 X126.069 Y81.024 E1.84566
G1 X125.575 Y81.024 E.01549
G1 X167.185 Y122.634 E1.84566
G1 X166.691 Y122.634 E.01549
G1 X125.081 Y81.024 E1.84566
G1 X124.587 Y81.024 E.01549
G1 X166.197 Y122.634 E1.84566
G1 X165.703 Y122.634 E.01549
G1 X124.093 Y81.024 E1.84566
G1 X123.599 Y81.024 E.01549
G1 X165.209 Y122.634 E1.84566
G1 X164.715 Y122.634 E.01549
G1 X123.105 Y81.024 E1.84566
G1 X122.611 Y81.024 E.01549
G1 X164.221 Y122.634 E1.84566
G1 X163.727 Y122.634 E.01549
G1 X122.117 Y81.024 E1.84566
G1 X121.623 Y81.024 E.01549
G1 X163.233 Y122.634 E1.84566
G1 X162.739 Y122.634 E.01549
G1 X121.129 Y81.024 E1.84566
G1 X120.635 Y81.023 E.01549
G1 X162.245 Y122.634 E1.84568
G1 X161.752 Y122.634 E.01546
G1 X120.141 Y81.023 E1.8457
G1 X119.647 Y81.023 E.01549
G1 X161.258 Y122.634 E1.8457
G1 X160.764 Y122.634 E.01549
G1 X119.153 Y81.023 E1.8457
G1 X118.659 Y81.023 E.01549
G1 X160.27 Y122.634 E1.8457
G1 X159.776 Y122.634 E.01549
G1 X118.165 Y81.023 E1.8457
G1 X117.671 Y81.023 E.01549
G1 X159.282 Y122.634 E1.8457
G1 X158.788 Y122.634 E.01549
G1 X117.177 Y81.023 E1.8457
G1 X116.683 Y81.023 E.01549
G1 X158.294 Y122.634 E1.8457
G1 X157.8 Y122.634 E.01549
G1 X116.189 Y81.023 E1.8457
G1 X115.695 Y81.023 E.01549
G1 X157.306 Y122.634 E1.8457
G1 X156.812 Y122.634 E.01549
G1 X115.201 Y81.023 E1.8457
G1 X114.707 Y81.023 E.01549
G1 X156.318 Y122.634 E1.8457
G1 X155.824 Y122.634 E.01549
G1 X114.213 Y81.023 E1.8457
G1 X113.719 Y81.023 E.01549
G1 X155.33 Y122.634 E1.8457
G1 X154.837 Y122.634 E.01546
G1 X113.225 Y81.023 E1.84573
G1 X112.731 Y81.023 E.01549
G1 X154.343 Y122.634 E1.84573
G1 X153.849 Y122.634 E.01549
G1 X112.237 Y81.023 E1.84573
G1 X111.743 Y81.023 E.01549
G1 X153.355 Y122.634 E1.84573
G1 X152.861 Y122.634 E.01549
G1 X111.249 Y81.022 E1.84575
G1 X110.755 Y81.022 E.01549
G1 X152.367 Y122.634 E1.84575
G1 X151.873 Y122.634 E.01549
G1 X110.261 Y81.022 E1.84575
