; generated by PrusaSlicer 2.6.0-alpha6+win64 on 2023-08-13 at 18:46:30 UTC

; 

; external perimeters extrusion width = 0.38mm
; perimeters extrusion width = 0.38mm
; infill extrusion width = 0.45mm
; solid infill extrusion width = 0.45mm
; top infill extrusion width = 0.44mm
; support material extrusion width = 0.40mm
; first layer extrusion width = 0.40mm

M190 S55 ; set bed temperature and wait for it to be reached
M104 S210 ; set temperature
;TYPE:Custom
print_start EXTRUDER=210 BED=55
M109 S210 ; set temperature and wait for it to be reached
G21 ; set units to millimeters
G90 ; use absolute coordinates
M83 ; use relative distances for extrusion
;Filament gcode
M107
;LAYER_CHANGE
;Z:0.24
;HEIGHT:0.24
G1 Z.24 F12000
G1 E-.75 F3000
G1 X125.254 Y84.71 F12000
G1 E.75 F1800
M204 S4000
;TYPE:Skirt/Brim
;WIDTH:0.4
G1 F3000
G1 X126.229 Y83.778 E.04221
G1 X127.389 Y83.148 E.04131
G1 X128.672 Y82.84 E.04129
G1 X169.5 Y82.75 E1.27775
G1 X171.591 Y82.825 E.06548
G1 X172.856 Y83.2 E.04129
G1 X173.981 Y83.89 E.0413
G1 X174.728 Y84.636 E.03304
G1 X175.417 Y85.761 E.04129
G1 X175.792 Y87.026 E.04129
G1 X175.862 Y87.817 E.02485
G1 X175.862 Y212.118 E3.89009
G1 X175.792 Y212.909 E.02485
G1 X175.519 Y213.929 E.03305
G1 X174.746 Y215.275 E.04858
G1 X173.771 Y216.207 E.04221
G1 X172.611 Y216.837 E.04131
G1 X171.591 Y217.11 E.03305
G1 X170.816 Y217.179 E.02435
G1 X129.195 Y217.229 E1.30256
G1 X128.409 Y217.16 E.02469
G1 X127.389 Y216.887 E.03305
G1 X126.042 Y216.113 E.04862
G1 X125.11 Y215.138 E.04221
G1 X124.481 Y213.979 E.04127
G1 X124.207 Y212.959 E.03305
G1 X124.138 Y212.168 E.02485
G1 X124.138 Y87.868 E3.89006
G1 X124.207 Y87.076 E.02488
G1 X124.481 Y86.056 E.03305
G1 X125.224 Y84.762 E.0467
G1 X125.523 Y84.934 F12000
G1 F3000
G1 X126.441 Y84.054 E.0398
G1 X127.522 Y83.47 E.03845
G1 X128.717 Y83.186 E.03844
G1 X169.499 Y83.099 E1.27631
G1 X171.545 Y83.17 E.06407
G1 X172.723 Y83.522 E.03848
G1 X173.769 Y84.166 E.03844
G1 X174.452 Y84.848 E.03021
G1 X175.096 Y85.895 E.03847
G1 X175.447 Y87.072 E.03844
G1 X175.513 Y87.817 E.02341
G1 X175.513 Y212.118 E3.89009
G1 X175.447 Y212.863 E.02341
G1 X175.197 Y213.795 E.0302
G1 X174.47 Y215.063 E.04574
G1 X173.558 Y215.931 E.0394
G1 X172.478 Y216.515 E.03842
G1 X171.546 Y216.764 E.03019
G1 X170.815 Y216.831 E.02297
G1 X129.195 Y216.881 E1.30253
G1 X128.454 Y216.814 E.02328
G1 X127.522 Y216.565 E.03019
G1 X126.254 Y215.837 E.04576
G1 X125.387 Y214.926 E.03936
G1 X124.803 Y213.845 E.03845
G1 X124.553 Y212.913 E.0302
G1 X124.487 Y212.168 E.02341
G1 X124.487 Y87.868 E3.89006
G1 X124.553 Y87.122 E.02344
G1 X124.803 Y86.19 E.0302
G1 X125.494 Y84.986 E.04344
G1 X125.793 Y85.158 F12000
G1 F3000
G1 X126.653 Y84.331 E.03734
G1 X127.655 Y83.792 E.03561
G1 X128.5 Y83.566 E.02737
G1 X129.186 Y83.503 E.02156
G1 X169.497 Y83.447 E1.26156
G1 X171.5 Y83.516 E.06272
G1 X172.59 Y83.844 E.03562
G1 X173.557 Y84.442 E.03558
G1 X174.175 Y85.06 E.02735
G1 X174.774 Y86.028 E.03563
G1 X175.101 Y87.117 E.03558
G1 X175.165 Y87.817 E.022
G1 X175.165 Y212.118 E3.89009
G1 X175.101 Y212.818 E.022
G1 X174.875 Y213.662 E.02734
G1 X174.175 Y214.875 E.04383
G1 X173.346 Y215.654 E.0356
G1 X172.344 Y216.193 E.03561
G1 X171.5 Y216.419 E.02734
G1 X170.814 Y216.482 E.02156
G1 X129.196 Y216.532 E1.30247
G1 X128.5 Y216.469 E.02187
G1 X127.655 Y216.243 E.02737
G1 X126.466 Y215.561 E.0429
G1 X125.663 Y214.714 E.03653
G1 X125.125 Y213.712 E.03559
G1 X124.898 Y212.868 E.02735
G1 X124.835 Y212.168 E.022
G1 X124.835 Y87.868 E3.89006
G1 X124.898 Y87.167 E.02203
G1 X125.125 Y86.323 E.02735
G1 X125.763 Y85.21 E.04015
G1 E-.75
G1 X129.1 Y212.398 F12000
G1 E.75 F1800
;TYPE:Perimeter
;WIDTH:0.399999
G1 F3000
G1 X128.994 Y212.325 E.00403
G1 X128.932 Y212.118 E.00676
G1 X128.932 Y87.939 E3.88627
G1 X128.947 Y87.8 E.00438
G1 X129.042 Y87.662 E.00524
G1 X129.249 Y87.6 E.00676
G1 X143.226 Y87.597 E.43742
G1 X143.302 Y87.555 E.00272
G1 X170.728 Y87.55 E.85832
G1 X170.868 Y87.565 E.00441
G1 X171.026 Y87.687 E.00625
G1 X171.068 Y87.889 E.00646
G1 X171.068 Y212.046 E3.88558
G1 X171.052 Y212.185 E.00438
G1 X170.958 Y212.323 E.00523
G1 X170.75 Y212.385 E.00679
G1 X145.324 Y212.398 E.79572
G1 X145.288 Y212.399 E.00113
G1 X145.214 Y212.453 E.00287
G1 X143.969 Y212.433 E.03897
G1 X129.271 Y212.435 E.45998
G1 X129.153 Y212.422 E.00372
G1 X128.893 Y212.698 F12000
;TYPE:External perimeter
G1 F3000
G1 X128.669 Y212.474 E.00991
G1 X128.584 Y212.141 E.01076
G1 X128.584 Y87.894 E3.88839
G1 X128.669 Y87.561 E.01076
G1 X128.893 Y87.337 E.00991
G1 X129.227 Y87.251 E.01079
G1 X143.226 Y87.249 E.43811
G1 X143.277 Y87.206 E.00209
G1 X170.728 Y87.201 E.8591
G1 X170.958 Y87.226 E.00724
G1 X171.233 Y87.384 E.00993
G1 X171.361 Y87.585 E.00746
G1 X171.416 Y87.889 E.00967
G1 X171.416 Y212.091 E3.88699
G1 X171.331 Y212.424 E.01076
G1 X171.106 Y212.648 E.00994
G1 X170.773 Y212.734 E.01076
G1 X145.324 Y212.746 E.79644
G1 X145.255 Y212.802 E.00278
G1 X143.972 Y212.782 E.04016
G1 X129.226 Y212.784 E.46149
G1 X128.952 Y212.713 E.00886
G1 X128.894 Y212.381 F12000
G1 X129.037 Y211.571
;TYPE:Solid infill
;WIDTH:0.400904
G1 F3000
G1 X129.629 Y212.163 E.02627
G1 X130.123 Y212.164 E.0155
G1 X129.194 Y211.234 E.04125
G1 X129.194 Y210.74 E.0155
G1 X130.617 Y212.164 E.06317
G1 X131.112 Y212.164 E.01553
G1 X129.194 Y210.246 E.08511
G1 X129.194 Y209.752 E.0155
G1 X131.606 Y212.164 E.10703
G1 X132.101 Y212.165 E.01553
G1 X129.194 Y209.258 E.12899
G1 X129.194 Y208.764 E.0155
G1 X132.595 Y212.165 E.15091
G1 X133.09 Y212.165 E.01553
G1 X129.194 Y208.27 E.17286
G1 X129.194 Y207.775 E.01553
G1 X133.584 Y212.166 E.19482
G1 X134.078 Y212.166 E.0155
G1 X129.194 Y207.281 E.21674
G1 X129.194 Y206.787 E.0155
G1 X134.573 Y212.166 E.23869
G1 X135.067 Y212.167 E.0155
G1 X129.194 Y206.293 E.26063
G1 X129.194 Y205.799 E.0155
G1 X135.562 Y212.167 E.28257
G1 X136.056 Y212.167 E.0155
G1 X129.194 Y205.305 E.30449
G1 X129.194 Y204.811 E.0155
G1 X136.551 Y212.167 E.32644
G1 X137.045 Y212.168 E.0155
G1 X129.194 Y204.317 E.34838
G1 X129.194 Y203.823 E.0155
G1 X137.539 Y212.168 E.3703
G1 X138.034 Y212.168 E.01553
G1 X129.194 Y203.329 E.39224
G1 X129.194 Y202.835 E.0155
G1 X138.528 Y212.169 E.41418
G1 X139.023 Y212.169 E.01553
G1 X129.194 Y202.341 E.43613
G1 X129.194 Y201.847 E.0155
G1 X139.517 Y212.169 E.45805
G1 X140.012 Y212.17 E.01553
G1 X129.194 Y201.352 E.48003
G1 X129.194 Y200.858 E.0155
G1 X140.506 Y212.17 E.50196
G1 X141 Y212.17 E.0155
G1 X129.195 Y200.364 E.52385
G1 X129.195 Y199.87 E.0155
G1 X141.495 Y212.171 E.54582
G1 X141.989 Y212.171 E.0155
G1 X129.195 Y199.376 E.56774
G1 X129.195 Y198.882 E.0155
G1 X142.484 Y212.171 E.58968
G1 X142.978 Y212.171 E.0155
G1 X129.195 Y198.388 E.6116
G1 X129.195 Y197.894 E.0155
G1 X143.473 Y212.172 E.63357
G1 X143.967 Y212.172 E.0155
G1 X129.195 Y197.4 E.65549
G1 X129.195 Y196.906 E.0155
G1 X144.479 Y212.19 E.67821
G1 X144.974 Y212.191 E.01553
G1 X129.195 Y196.412 E.70017
G1 X129.195 Y195.918 E.0155
G1 X145.414 Y212.136 E.71967
G1 X145.908 Y212.136 E.0155
G1 X129.195 Y195.423 E.74162
G1 X129.195 Y194.929 E.0155
G1 X146.401 Y212.136 E.76352
G1 X146.895 Y212.136 E.0155
G1 X129.195 Y194.435 E.78544
G1 X129.195 Y193.941 E.0155
G1 X147.389 Y212.135 E.80734
G1 X147.883 Y212.135 E.0155
G1 X129.195 Y193.447 E.82926
G1 X129.195 Y192.953 E.0155
G1 X148.377 Y212.135 E.85118
G1 X148.871 Y212.135 E.0155
G1 X129.195 Y192.459 E.8731
G1 X129.195 Y191.965 E.0155
G1 X149.365 Y212.134 E.895
G1 X149.859 Y212.134 E.0155
G1 X129.195 Y191.471 E.91692
G1 X129.195 Y190.977 E.0155
G1 X150.353 Y212.134 E.93884
G1 X150.846 Y212.134 E.01547
G1 X129.195 Y190.483 E.96074
G1 X129.195 Y189.989 E.0155
G1 X151.34 Y212.133 E.98263
G1 X151.834 Y212.133 E.0155
G1 X129.195 Y189.494 E1.00458
G1 X129.195 Y189 E.0155
G1 X152.328 Y212.133 E1.0265
G1 X152.822 Y212.133 E.0155
G1 X129.196 Y188.506 E1.0484
G1 X129.196 Y188.012 E.0155
G1 X153.316 Y212.132 E1.07029
G1 X153.81 Y212.132 E.0155
G1 X129.196 Y187.518 E1.09221
G1 X129.196 Y187.024 E.0155
G1 X154.304 Y212.132 E1.11413
G1 X154.798 Y212.132 E.0155
G1 X129.196 Y186.53 E1.13606
G1 X129.196 Y186.036 E.0155
G1 X155.291 Y212.131 E1.15793
G1 X155.785 Y212.131 E.0155
G1 X129.196 Y185.542 E1.17985
G1 X129.196 Y185.048 E.0155
G1 X156.279 Y212.131 E1.20177
G1 X156.773 Y212.131 E.0155
G1 X129.196 Y184.554 E1.22369
G1 X129.196 Y184.06 E.0155
G1 X157.267 Y212.131 E1.24561
G1 X157.761 Y212.13 E.0155
G1 X129.196 Y183.565 E1.26753
G1 X129.196 Y183.071 E.0155
G1 X158.255 Y212.13 E1.28946
G1 X158.749 Y212.13 E.0155
G1 X129.196 Y182.577 E1.31138
G1 X129.196 Y182.083 E.0155
G1 X159.242 Y212.13 E1.33327
G1 X159.736 Y212.129 E.0155
G1 X129.196 Y181.589 E1.35517
G1 X129.196 Y181.095 E.0155
G1 X160.23 Y212.129 E1.37709
G1 X160.724 Y212.129 E.0155
G1 X129.196 Y180.601 E1.39901
G1 X129.196 Y180.107 E.0155
G1 X161.218 Y212.129 E1.42093
G1 X161.712 Y212.128 E.0155
G1 X129.196 Y179.613 E1.44283
G1 X129.196 Y179.119 E.0155
G1 X162.206 Y212.128 E1.46475
G1 X162.7 Y212.128 E.0155
G1 X129.196 Y178.625 E1.48667
G1 X129.196 Y178.131 E.0155
G1 X163.194 Y212.128 E1.50859
G1 X163.687 Y212.127 E.01547
G1 X129.196 Y177.636 E1.53049
G1 X129.197 Y177.142 E.0155
G1 X164.181 Y212.127 E1.55239
G1 X164.675 Y212.127 E.0155
G1 X129.197 Y176.648 E1.57431
G1 X129.197 Y176.154 E.0155
G1 X165.169 Y212.127 E1.59623
G1 X165.663 Y212.126 E.0155
G1 X129.197 Y175.66 E1.61813
G1 X129.197 Y175.166 E.0155
G1 X166.157 Y212.126 E1.64005
G1 X166.651 Y212.126 E.0155
G1 X129.197 Y174.672 E1.66197
G1 X129.197 Y174.178 E.0155
G1 X167.145 Y212.126 E1.68389
G1 X167.639 Y212.125 E.0155
G1 X129.197 Y173.684 E1.70579
G1 X129.197 Y173.19 E.0155
G1 X168.132 Y212.125 E1.72769
G1 X168.626 Y212.125 E.0155
G1 X129.197 Y172.696 E1.74961
G1 X129.197 Y172.202 E.0155
G1 X169.12 Y212.125 E1.77153
G1 X169.614 Y212.125 E.0155
G1 X129.197 Y171.707 E1.79347
G1 X129.197 Y171.213 E.0155
G1 X170.108 Y212.124 E1.81537
G1 X170.602 Y212.124 E.0155
G1 X129.197 Y170.719 E1.83729
G1 X129.197 Y170.225 E.0155
G1 X170.795 Y211.823 E1.84586
G1 X170.795 Y211.329 E.0155
G1 X129.197 Y169.731 E1.84586
G1 X129.197 Y169.237 E.0155
G1 X170.796 Y210.835 E1.84588
G1 X170.796 Y210.341 E.0155
G1 X129.197 Y168.743 E1.84588
G1 X129.197 Y168.249 E.0155
G1 X170.796 Y209.847 E1.84588
G1 X170.796 Y209.353 E.0155
G1 X129.197 Y167.755 E1.84588
G1 X129.197 Y167.261 E.0155
G1 X170.796 Y208.859 E1.84588
G1 X170.796 Y208.365 E.0155
G1 X129.197 Y166.767 E1.84588
G1 X129.197 Y166.273 E.0155
G1 X170.796 Y207.871 E1.84588
G1 X170.796 Y207.377 E.0155
G1 X129.198 Y165.778 E1.84588
G1 X129.198 Y165.284 E.0155
G1 X170.796 Y206.883 E1.84588
G1 X170.796 Y206.389 E.0155
G1 X129.198 Y164.79 E1.84588
G1 X129.198 Y164.296 E.0155
G1 X170.796 Y205.894 E1.84586
G1 X170.796 Y205.4 E.0155
G1 X129.198 Y163.802 E1.84586
G1 X129.198 Y163.308 E.0155
G1 X170.796 Y204.906 E1.84586
G1 X170.796 Y204.412 E.0155
G1 X129.198 Y162.814 E1.84586
G1 X129.198 Y162.32 E.0155
G1 X170.796 Y203.918 E1.84586
G1 X170.796 Y203.424 E.0155
G1 X129.198 Y161.826 E1.84586
G1 X129.198 Y161.332 E.0155
G1 X170.796 Y202.93 E1.84586
G1 X170.796 Y202.436 E.0155
G1 X129.198 Y160.838 E1.84586
G1 X129.198 Y160.344 E.0155
G1 X170.796 Y201.942 E1.84586
G1 X170.796 Y201.448 E.0155
G1 X129.198 Y159.849 E1.84588
G1 X129.198 Y159.355 E.0155
G1 X170.796 Y200.954 E1.84588
G1 X170.796 Y200.46 E.0155
G1 X129.198 Y158.861 E1.84588
G1 X129.198 Y158.367 E.0155
G1 X170.796 Y199.965 E1.84586
G1 X170.797 Y199.471 E.0155
G1 X129.198 Y157.873 E1.84588
G1 X129.198 Y157.379 E.0155
G1 X170.797 Y198.977 E1.84588
G1 X170.797 Y198.483 E.0155
G1 X129.198 Y156.885 E1.84588
G1 X129.198 Y156.391 E.0155
G1 X170.797 Y197.989 E1.84588
G1 X170.797 Y197.495 E.0155
G1 X129.198 Y155.897 E1.84588
G1 X129.198 Y155.403 E.0155
G1 X170.797 Y197.001 E1.84588
G1 X170.797 Y196.507 E.0155
G1 X129.198 Y154.909 E1.84588
G1 X129.199 Y154.415 E.0155
G1 X170.797 Y196.013 E1.84586
G1 X170.797 Y195.519 E.0155
G1 X129.199 Y153.92 E1.84588
G1 X129.199 Y153.426 E.0155
G1 X170.797 Y195.025 E1.84588
G1 X170.797 Y194.531 E.0155
G1 X129.199 Y152.932 E1.84588
G1 X129.199 Y152.438 E.0155
G1 X170.797 Y194.036 E1.84586
G1 X170.797 Y193.542 E.0155
G1 X129.199 Y151.944 E1.84586
G1 X129.199 Y151.45 E.0155
G1 X170.797 Y193.048 E1.84586
G1 X170.797 Y192.554 E.0155
G1 X129.199 Y150.956 E1.84586
G1 X129.199 Y150.462 E.0155
G1 X170.797 Y192.06 E1.84586
G1 X170.797 Y191.566 E.0155
G1 X129.199 Y149.968 E1.84586
G1 X129.199 Y149.474 E.0155
G1 X170.797 Y191.072 E1.84586
G1 X170.797 Y190.578 E.0155
G1 X129.199 Y148.98 E1.84586
G1 X129.199 Y148.486 E.0155
G1 X170.797 Y190.084 E1.84586
G1 X170.797 Y189.59 E.0155
G1 X129.199 Y147.991 E1.84588
G1 X129.199 Y147.497 E.0155
G1 X170.797 Y189.096 E1.84588
G1 X170.797 Y188.602 E.0155
G1 X129.199 Y147.003 E1.84588
G1 X129.199 Y146.509 E.0155
G1 X170.798 Y188.107 E1.84588
G1 X170.798 Y187.613 E.0155
G1 X129.199 Y146.015 E1.84588
G1 X129.199 Y145.521 E.0155
G1 X170.798 Y187.119 E1.84588
G1 X170.798 Y186.625 E.0155
G1 X129.199 Y145.027 E1.84588
G1 X129.199 Y144.533 E.0155
G1 X170.798 Y186.131 E1.84588
G1 X170.798 Y185.637 E.0155
G1 X129.199 Y144.039 E1.84588
G1 X129.199 Y143.545 E.0155
G1 X170.798 Y185.143 E1.84588
G1 X170.798 Y184.649 E.0155
G1 X129.2 Y143.051 E1.84586
G1 X129.2 Y142.557 E.0155
G1 X170.798 Y184.155 E1.84586
G1 X170.798 Y183.661 E.0155
G1 X129.2 Y142.062 E1.84588
G1 X129.2 Y141.568 E.0155
G1 X170.798 Y183.167 E1.84588
G1 X170.798 Y182.673 E.0155
G1 X129.2 Y141.074 E1.84588
G1 X129.2 Y140.58 E.0155
G1 X170.798 Y182.179 E1.84588
G1 X170.798 Y181.684 E.01553
G1 X129.2 Y140.086 E1.84586
G1 X129.2 Y139.592 E.0155
G1 X170.798 Y181.19 E1.84586
G1 X170.798 Y180.696 E.0155
G1 X129.2 Y139.098 E1.84586
G1 X129.2 Y138.604 E.0155
G1 X170.798 Y180.202 E1.84586
G1 X170.798 Y179.708 E.0155
G1 X129.2 Y138.11 E1.84586
G1 X129.2 Y137.616 E.0155
G1 X170.798 Y179.214 E1.84586
G1 X170.798 Y178.72 E.0155
G1 X129.2 Y137.122 E1.84586
G1 X129.2 Y136.628 E.0155
G1 X170.798 Y178.226 E1.84586
G1 X170.798 Y177.732 E.0155
G1 X129.2 Y136.133 E1.84588
G1 X129.2 Y135.639 E.0155
G1 X170.798 Y177.238 E1.84588
G1 X170.799 Y176.744 E.0155
G1 X129.2 Y135.145 E1.8459
G1 X129.2 Y134.651 E.0155
G1 X170.799 Y176.25 E1.8459
G1 X170.799 Y175.755 E.01553
G1 X129.2 Y134.157 E1.84588
G1 X129.2 Y133.663 E.0155
G1 X170.799 Y175.261 E1.84588
G1 X170.799 Y174.767 E.0155
G1 X129.2 Y133.169 E1.84588
G1 X129.2 Y132.675 E.0155
G1 X170.799 Y174.273 E1.84588
G1 X170.799 Y173.779 E.0155
G1 X129.2 Y132.181 E1.84588
G1 X129.201 Y131.687 E.0155
G1 X170.799 Y173.285 E1.84586
G1 X170.799 Y172.791 E.0155
G1 X129.201 Y131.193 E1.84586
G1 X129.201 Y130.699 E.0155
G1 X170.799 Y172.297 E1.84586
G1 X170.799 Y171.803 E.0155
G1 X129.201 Y130.204 E1.84588
G1 X129.201 Y129.71 E.0155
G1 X170.799 Y171.309 E1.84588
G1 X170.799 Y170.815 E.0155
G1 X129.201 Y129.216 E1.84588
G1 X129.201 Y128.722 E.0155
G1 X170.799 Y170.321 E1.84588
G1 X170.799 Y169.826 E.01553
G1 X129.201 Y128.228 E1.84586
G1 X129.201 Y127.734 E.0155
G1 X170.799 Y169.332 E1.84586
G1 X170.799 Y168.838 E.0155
G1 X129.201 Y127.24 E1.84586
G1 X129.201 Y126.746 E.0155
G1 X170.799 Y168.344 E1.84586
G1 X170.799 Y167.85 E.0155
G1 X129.201 Y126.252 E1.84586
G1 X129.201 Y125.758 E.0155
G1 X170.799 Y167.356 E1.84586
G1 X170.799 Y166.862 E.0155
G1 X129.201 Y125.264 E1.84586
G1 X129.201 Y124.77 E.0155
G1 X170.799 Y166.368 E1.84586
G1 X170.799 Y165.874 E.0155
G1 X129.201 Y124.275 E1.84588
G1 X129.201 Y123.781 E.0155
G1 X170.799 Y165.38 E1.84588
G1 X170.8 Y164.886 E.0155
G1 X129.201 Y123.287 E1.8459
G1 X129.201 Y122.793 E.0155
G1 X170.8 Y164.392 E1.8459
G1 X170.8 Y163.897 E.01553
G1 X129.201 Y122.299 E1.84588
G1 X129.201 Y121.805 E.0155
G1 X170.8 Y163.403 E1.84588
G1 X170.8 Y162.909 E.0155
G1 X129.201 Y121.311 E1.84588
G1 X129.201 Y120.817 E.0155
G1 X170.8 Y162.415 E1.84588
G1 X170.8 Y161.921 E.0155
G1 X129.202 Y120.323 E1.84586
G1 X129.202 Y119.829 E.0155
G1 X170.8 Y161.427 E1.84586
G1 X170.8 Y160.933 E.0155
G1 X129.202 Y119.335 E1.84586
G1 X129.202 Y118.841 E.0155
G1 X170.8 Y160.439 E1.84586
G1 X170.8 Y159.945 E.0155
G1 X129.202 Y118.346 E1.84588
G1 X129.202 Y117.852 E.0155
G1 X170.8 Y159.451 E1.84588
G1 X170.8 Y158.957 E.0155
G1 X129.202 Y117.358 E1.84588
