; generated by PrusaSlicer 2.6.0-alpha6+win64 on 2023-08-07 at 19:23:12 UTC

; 

; external perimeters extrusion width = 0.38mm
; perimeters extrusion width = 0.38mm
; infill extrusion width = 0.45mm
; solid infill extrusion width = 0.45mm
; top infill extrusion width = 0.44mm
; support material extrusion width = 0.40mm
; first layer extrusion width = 0.40mm

M190 S55 ; set bed temperature and wait for it to be reached
M104 S210 ; set temperature
;TYPE:Custom
print_start EXTRUDER=210 BED=55
M109 S210 ; set temperature and wait for it to be reached
G21 ; set units to millimeters
G90 ; use absolute coordinates
M83 ; use relative distances for extrusion
;Filament gcode
M107
;LAYER_CHANGE
;Z:0.24
;HEIGHT:0.24
G1 Z.24 F12000
G1 E-.75 F3000
G1 X136.429 Y113.145 F12000
G1 E.75 F1800
M204 S4000
;TYPE:Skirt/Brim
;WIDTH:0.4
G1 F3000
G1 X137.265 Y112.315 E.03687
G1 X138.287 Y111.729 E.03687
G1 X139.427 Y111.428 E.0369
G1 X160.574 Y111.428 E.66181
G1 X161.742 Y111.741 E.03784
G1 X162.76 Y112.334 E.03687
G1 X163.571 Y113.145 E.03589
G1 X164.175 Y114.192 E.03783
G1 X164.472 Y115.3 E.0359
G1 X164.514 Y115.905 E.01898
G1 X164.514 Y184.096 E2.13409
G1 X164.472 Y184.7 E.01895
G1 X164.175 Y185.808 E.0359
G1 X163.59 Y186.83 E.03685
G1 X162.76 Y187.667 E.03689
G1 X161.713 Y188.271 E.03783
G1 X160.574 Y188.572 E.03687
G1 X140 Y188.609 E.64388
G1 X139.395 Y188.568 E.01898
G1 X138.287 Y188.271 E.0359
G1 X137.24 Y187.667 E.03783
G1 X136.41 Y186.83 E.03689
G1 X135.825 Y185.808 E.03685
G1 X135.528 Y184.7 E.0359
G1 X135.486 Y184.096 E.01895
G1 X135.486 Y115.905 E2.13409
G1 X135.528 Y115.3 E.01898
G1 X135.825 Y114.192 E.0359
G1 X136.399 Y113.197 E.03595
G1 X136.698 Y113.37 F12000
G1 F3000
G1 X137.477 Y112.591 E.03448
G1 X138.421 Y112.051 E.03404
G1 X139.472 Y111.774 E.03402
G1 X160.528 Y111.774 E.65896
G1 X161.608 Y112.063 E.03499
G1 X162.548 Y112.61 E.03404
G1 X163.295 Y113.357 E.03306
G1 X163.853 Y114.325 E.03497
G1 X164.127 Y115.346 E.03308
G1 X164.166 Y115.905 E.01754
G1 X164.166 Y184.096 E2.13409
G1 X164.127 Y184.654 E.01751
G1 X163.853 Y185.675 E.03308
G1 X163.314 Y186.618 E.03399
G1 X162.547 Y187.39 E.03406
G1 X161.579 Y187.949 E.03498
G1 X160.528 Y188.226 E.03402
G1 X140 Y188.261 E.64244
G1 X139.441 Y188.222 E.01754
G1 X138.421 Y187.949 E.03305
G1 X137.453 Y187.39 E.03498
G1 X136.686 Y186.618 E.03406
G1 X136.147 Y185.675 E.03399
G1 X135.873 Y184.654 E.03308
G1 X135.834 Y184.096 E.01751
G1 X135.834 Y115.905 E2.13409
G1 X135.873 Y115.346 E.01754
G1 X136.147 Y114.325 E.03308
G1 X136.668 Y113.422 E.03263
G1 X136.967 Y113.594 F12000
G1 F3000
G1 X137.689 Y112.868 E.03204
G1 X138.554 Y112.373 E.03119
G1 X139.517 Y112.119 E.03117
G1 X160.483 Y112.119 E.65615
G1 X161.475 Y112.385 E.03214
G1 X162.336 Y112.887 E.03119
G1 X163.018 Y113.569 E.03018
G1 X163.532 Y114.459 E.03216
G1 X163.781 Y115.391 E.03019
G1 X163.817 Y115.905 E.01613
G1 X163.817 Y184.096 E2.13409
G1 X163.781 Y184.609 E.01609
G1 X163.532 Y185.541 E.03019
G1 X163.037 Y186.406 E.03119
G1 X162.335 Y187.114 E.0312
G1 X161.446 Y187.627 E.03212
G1 X160.483 Y187.881 E.03117
G1 X140 Y187.912 E.64103
G1 X139.486 Y187.877 E.01612
G1 X138.554 Y187.627 E.0302
G1 X137.665 Y187.114 E.03212
G1 X136.963 Y186.406 E.0312
G1 X136.468 Y185.541 E.03119
G1 X136.219 Y184.609 E.03019
G1 X136.183 Y184.096 E.01609
G1 X136.183 Y115.905 E2.13409
G1 X136.219 Y115.391 E.01613
G1 X136.468 Y114.459 E.03019
G1 X136.937 Y113.646 E.02937
G1 X137.237 Y113.819 F12000
G1 F3000
G1 X137.901 Y113.144 E.02963
G1 X138.687 Y112.695 E.02833
G1 X139.563 Y112.465 E.02834
G1 X160.437 Y112.465 E.65327
G1 X161.341 Y112.707 E.02929
G1 X162.123 Y113.163 E.02833
G1 X162.742 Y113.781 E.02737
G1 X163.21 Y114.592 E.0293
G1 X163.436 Y115.437 E.02737
G1 X163.469 Y115.905 E.01468
G1 X163.469 Y184.096 E2.13409
G1 X163.436 Y184.563 E.01465
G1 X163.21 Y185.408 E.02737
G1 X162.761 Y186.194 E.02833
G1 X162.123 Y186.837 E.02835
G1 X161.313 Y187.305 E.02928
G1 X160.437 Y187.535 E.02834
G1 X140 Y187.564 E.63959
G1 X139.532 Y187.531 E.01468
G1 X138.687 Y187.305 E.02737
G1 X137.877 Y186.837 E.02928
G1 X137.239 Y186.194 E.02835
G1 X136.79 Y185.408 E.02833
G1 X136.564 Y184.563 E.02737
G1 X136.531 Y184.096 E.01465
G1 X136.531 Y115.905 E2.13409
G1 X136.564 Y115.437 E.01468
G1 X136.79 Y114.592 E.02737
G1 X137.207 Y113.871 E.02607
G1 E-.75
G1 X140.618 Y156.479 F12000
G1 E.75 F1800
;TYPE:Perimeter
;WIDTH:0.363671
G1 F3000
G1 X140.605 Y155.936 E.01523
;WIDTH:0.371526
G1 X140.614 Y155.407 E.0152
G1 X140.674 Y155.565 E.00486
;WIDTH:0.36366
G1 X140.856 Y155.823 E.00885
;WIDTH:0.353739
G1 X141.041 Y155.934 E.00586
G1 X140.902 Y156.018 E.00441
;WIDTH:0.363671
G1 X140.668 Y156.304 E.01036
G1 X140.635 Y156.421 E.00341
G1 X140.654 Y158.921 F12000
;WIDTH:0.424688
G1 F3000
G1 X140.643 Y157.988 E.03127
G1 X140.863 Y158.244 E.01131
G1 X141.21 Y158.455 E.01361
G1 X140.865 Y158.648 E.01325
G1 X140.691 Y158.873 E.00953
G1 X140.616 Y161.6 F12000
;WIDTH:0.375908
G1 F3000
G1 X140.612 Y161.161 E.01279
;WIDTH:0.40092
G1 X140.629 Y160.523 E.02003
G1 X140.833 Y160.831 E.01159
;WIDTH:0.367203
G1 X141.075 Y160.981 E.00807
G1 X140.872 Y161.103 E.00671
;WIDTH:0.36918
G1 X140.703 Y161.321 E.00787
;WIDTH:0.375908
G1 X140.634 Y161.543 E.00677
G1 X140.63 Y162.835 F12000
;WIDTH:0.379294
G1 F3000
G1 X140.61 Y162.446 E.01147
;WIDTH:0.394338
G1 X140.626 Y161.873 E.01765
G1 X140.854 Y162.201 E.0123
;WIDTH:0.363672
G1 X141.024 Y162.305 E.00559
G1 X140.925 Y162.388 E.00362
;WIDTH:0.379294
G1 X140.678 Y162.693 E.01155
G1 X140.65 Y162.778 E.00263
G1 X142.047 Y163.326 F12000
;TYPE:External perimeter
;WIDTH:0.464706
G1 F3000
G1 X142.077 Y163.174 E.00575
;WIDTH:0.501075
G1 X142.509 Y163.079 E.01786
;WIDTH:0.537788
G1 X142.609 Y163.099 E.00445
;WIDTH:0.5745
G1 X142.708 Y163.119 E.00474
;WIDTH:0.611212
G1 X142.807 Y163.138 E.00507
G1 X142.742 Y163.19 E.00418
;WIDTH:0.5745
G1 X142.676 Y163.241 E.00392
;WIDTH:0.537788
G1 X142.61 Y163.292 E.00364
;WIDTH:0.501075
G1 X142.482 Y163.531 E.01095
;WIDTH:0.464706
G1 X142.049 Y163.493 E.01613
G1 X142.048 Y163.386 E.00397
G1 X141.428 Y164.549 F12000
;WIDTH:0.537482
G1 F3000
G1 X142.892 Y164.549 E.06389
;WIDTH:0.541164
G1 X142.934 Y164.547 E.00185
G1 X143.012 Y162.153 F12000
;WIDTH:0.57539
G1 F3000
G1 X143.365 Y162.17 E.01663
G1 E-.75
G1 X149.975 Y163.056 F12000
G1 E.75 F1800
;TYPE:Perimeter
;WIDTH:0.399999
G1 F3000
G1 X150.376 Y163.404 E.01662
G1 X150.481 Y163.603 E.00704
G1 X150.607 Y164.074 E.01526
G1 X150.628 Y164.689 E.01926
G1 X150.529 Y165.104 E.01335
G1 X150.401 Y165.317 E.00778
G1 X150.166 Y165.509 E.0095
G1 X149.7 Y165.633 E.01509
G1 X149.252 Y165.527 E.01441
G1 X148.95 Y165.266 E.01249
G1 X148.815 Y165.026 E.00862
G1 X148.752 Y164.713 E.00999
G1 X148.75 Y164.463 E.00782
G1 X148.012 Y164.463 E.0231
G1 X147.985 Y164.865 E.01261
G1 X147.858 Y165.219 E.01177
G1 X147.559 Y165.501 E.01286
G1 X147.109 Y165.631 E.01466
G1 X146.772 Y165.563 E.01076
G1 X146.472 Y165.426 E.01032
G1 X146.217 Y165.093 E.01313
G1 X146.134 Y164.69 E.01288
G1 X146.154 Y164.074 E.01929
G1 X146.286 Y163.587 E.01579
G1 X146.343 Y163.463 E.00427
G1 X146.51 Y163.259 E.00825
G1 X146.787 Y163.071 E.01048
G1 X146.389 Y162.725 E.0165
G1 X146.285 Y162.538 E.0067
G1 X146.154 Y162.046 E.01593
G1 X146.133 Y161.138 E.02842
G1 X146.169 Y160.933 E.00651
G1 X146.374 Y160.498 E.01505
G1 X146.673 Y160.296 E.01129
G1 X146.908 Y160.23 E.00764
G1 X147.508 Y160.207 E.01879
G1 X149.711 Y160.207 E.06894
G1 X150.114 Y160.311 E.01303
G1 X150.352 Y160.471 E.00898
G1 X150.557 Y160.778 E.01155
G1 X150.629 Y161.137 E.01146
G1 X150.608 Y162.046 E.02846
G1 X150.478 Y162.537 E.0159
G1 X150.291 Y162.823 E.01069
G1 X150.028 Y163.028 E.01044
G1 X149.252 Y163.031 F12000
;TYPE:External perimeter
;WIDTH:0.521935
G1 F3000
G1 X149.154 Y163.075 E.00454
G1 X149.362 Y163.163 E.00954
;WIDTH:0.48129
G1 X149.57 Y163.251 E.00872
;WIDTH:0.440645
G1 X149.778 Y163.338 E.00788
;WIDTH:0.399999
G1 X150.135 Y163.669 E.01524
G1 X150.259 Y164.086 E.01362
G1 X150.28 Y164.701 E.01926
G1 X150.168 Y165.055 E.01162
G1 X149.95 Y165.224 E.00863
G1 X149.648 Y165.279 E.00961
G1 X149.352 Y165.177 E.0098
G1 X149.154 Y164.941 E.00964
G1 X149.101 Y164.71 E.00742
G1 X149.096 Y164.127 E.01825
G1 X147.691 Y164.115 E.04397
G1 X147.661 Y164.709 E.01861
G1 X147.541 Y165.064 E.01173
G1 X147.33 Y165.224 E.00829
G1 X147.019 Y165.276 E.00987
G1 X146.673 Y165.137 E.01167
G1 X146.534 Y164.942 E.00749
G1 X146.486 Y164.582 E.01137
G1 X146.503 Y164.083 E.01563
G1 X146.638 Y163.649 E.01422
G1 X146.857 Y163.429 E.00971
;WIDTH:0.421149
G1 X147.313 Y163.182 E.01721
;WIDTH:0.457636
G1 X147.411 Y163.14 E.00389
;WIDTH:0.494123
G1 X147.508 Y163.098 E.0042
;WIDTH:0.53061
G1 X147.606 Y163.056 E.00459
G1 X147.399 Y162.967 E.00969
;WIDTH:0.487073
G1 X147.191 Y162.878 E.00885
;WIDTH:0.443536
G1 X146.984 Y162.789 E.00793
;WIDTH:0.399999
G1 X146.624 Y162.45 E.01548
G1 X146.502 Y162.038 E.01345
G1 X146.481 Y161.13 E.02842
G1 X146.636 Y160.727 E.01351
G1 X146.921 Y160.578 E.01006
G1 X147.501 Y160.555 E.01817
G1 X149.711 Y160.555 E.06916
G1 X150.072 Y160.681 E.01197
G1 X150.226 Y160.889 E.0081
G1 X150.281 Y161.129 E.00771
G1 X150.26 Y162.038 E.02846
G1 X150.111 Y162.497 E.0151
G1 X149.903 Y162.7 E.0091
;WIDTH:0.413654
G1 X149.448 Y162.942 E.01676
;WIDTH:0.449748
G1 X149.35 Y162.986 E.00384
;WIDTH:0.485842
G1 X149.307 Y163.006 E.00185
G1 X149.111 Y163.064 F12000
;WIDTH:0.539338
G1 F3000
G1 X147.63 Y163.064 E.06488
G1 E-.75
G1 X150.22 Y156.159 F12000
G1 E.75 F1800
;TYPE:Perimeter
;WIDTH:0.399999
G1 F3000
G1 X150.488 Y156.511 E.01385
G1 X150.529 Y156.858 E.01094
G1 X150.439 Y157.08 E.0075
G1 X150.268 Y157.315 E.0091
G1 X150.051 Y157.456 E.0081
G1 X149.823 Y157.534 E.00754
G1 X150.126 Y157.632 E.00997
G1 X150.445 Y157.888 E.0128
G1 X150.616 Y158.346 E.0153
G1 X150.611 Y158.549 E.00635
G1 X150.516 Y158.891 E.01111
G1 X150.205 Y159.229 E.01437
G1 X149.84 Y159.358 E.01212
G1 X149.494 Y159.351 E.01083
G1 X146.771 Y158.454 E.08972
G1 X146.454 Y158.274 E.01141
G1 X146.207 Y157.933 E.01318
G1 X146.128 Y157.558 E.01199
G1 X146.212 Y157.18 E.01212
G1 X146.439 Y156.865 E.01215
G1 X146.778 Y156.669 E.01225
G1 X147.064 Y156.578 E.00939
G1 X146.594 Y156.282 E.01738
G1 X146.296 Y155.869 E.01594
G1 X146.214 Y155.674 E.00662
G1 X146.133 Y155.098 E.0182
G1 X146.134 Y154.585 E.01605
G1 X146.21 Y154.252 E.01069
G1 X146.421 Y153.935 E.01192
G1 X146.66 Y153.779 E.00893
G1 X147.101 Y153.678 E.01416
G1 X147.467 Y153.765 E.01177
G1 X147.695 Y153.912 E.00849
G1 X147.805 Y154.039 E.00526
G1 X148.005 Y153.835 E.00894
G1 X148.377 Y153.698 E.01241
G1 X148.903 Y153.671 E.01648
G1 X149.711 Y153.67 E.02529
G1 X150.1 Y153.758 E.01248
G1 X150.274 Y153.874 E.00654
G1 X150.536 Y154.188 E.0128
G1 X150.627 Y154.603 E.0133
G1 X150.612 Y155.022 E.01312
G1 X150.515 Y155.72 E.02205
G1 X150.369 Y156.016 E.01033
G1 X150.263 Y156.117 E.00458
G1 X149.497 Y155.961 F12000
;TYPE:External perimeter
G1 F3000
G1 X149.335 Y155.831 E.0065
;WIDTH:0.421553
G1 X149.283 Y155.536 E.00995
G1 X149.251 Y155.138 E.01327
;WIDTH:0.409067
G1 X148.941 Y155.106 E.01001
;WIDTH:0.416616
G1 X148.894 Y155.589 E.01591
G1 X148.691 Y155.962 E.01392
;WIDTH:0.399999
G1 X148.345 Y156.219 E.01349
;WIDTH:0.404172
G1 X147.974 Y156.315 E.01214
G1 X147.617 Y156.34 E.01133
;WIDTH:0.399999
G1 X147.178 Y156.257 E.01398
G1 X146.804 Y155.995 E.01429
G1 X146.556 Y155.608 E.01438
G1 X146.481 Y155.099 E.0161
G1 X146.483 Y154.586 E.01605
G1 X146.58 Y154.283 E.00996
G1 X146.764 Y154.112 E.00786
G1 X147.114 Y154.031 E.01124
G1 X147.384 Y154.113 E.00883
;WIDTH:0.40283
G1 X147.524 Y154.243 E.00603
;WIDTH:0.41879
G1 X147.623 Y154.466 E.00805
G1 X147.638 Y155.024 E.01841
;WIDTH:0.378277
G1 X147.669 Y155.185 E.00481
G1 X147.953 Y155.168 E.00835
;WIDTH:0.41879
G1 X147.989 Y154.469 E.02309
G1 X148.051 Y154.285 E.0064
;WIDTH:0.399999
G1 X148.277 Y154.084 E.00947
G1 X148.503 Y154.03 E.00727
G1 X149.756 Y154.024 E.03921
G1 X150.027 Y154.119 E.00899
G1 X150.226 Y154.355 E.00966
G1 X150.278 Y154.593 E.00762
G1 X150.193 Y155.508 E.02876
G1 X150.121 Y155.771 E.00853
G1 X149.869 Y155.968 E.01001
;WIDTH:0.384065
G1 X149.658 Y156.001 E.00638
;WIDTH:0.390297
G1 X149.555 Y155.975 E.00323
G1 X148.269 Y157.567 F12000
;WIDTH:0.399999
G1 F3000
G1 X148.93 Y157.761 E.02156
G1 X149.853 Y157.89 E.02917
G1 X150.163 Y158.093 E.0116
G1 X150.275 Y158.449 E.01168
G1 X150.18 Y158.767 E.01039
G1 X149.949 Y158.969 E.0096
G1 X149.707 Y159.027 E.00779
G1 X149.511 Y158.999 E.0062
G1 X146.881 Y158.123 E.08675
G1 X146.654 Y157.982 E.00836
G1 X146.528 Y157.792 E.00713
G1 X146.482 Y157.519 E.00866
G1 X146.56 Y157.265 E.00832
G1 X146.708 Y157.097 E.00701
G1 X147.085 Y156.937 E.01282
G1 X148.434 Y156.554 E.04389
G1 X149.128 Y156.384 E.02236
G1 X149.653 Y156.315 E.01657
G1 X149.954 Y156.386 E.00968
G1 X150.162 Y156.641 E.0103
G1 X150.172 Y156.848 E.00649
G1 X149.967 Y157.114 E.01051
G1 X149.412 Y157.306 E.01838
G1 X148.911 Y157.369 E.0158
G1 X148.326 Y157.55 E.01916
G1 X148.666 Y157.613 F12000
G1 X149.08 Y156.005
;TYPE:Perimeter
;WIDTH:0.400034
G1 F3000
G1 X149.014 Y156.042 E.00237
G1 X149.08 Y156.08 E.00238
G1 X149.101 Y156.042 E.00136
G1 E-.75
G1 X143.333 Y154.426 F12000
G1 E.75 F1800
;WIDTH:0.381847
G1 F3000
G1 X142.667 Y154.358 E.01986
G1 X142.164 Y154.424 E.01505
G1 X142.292 Y154.054 E.01161
G1 X143.162 Y154.054 E.02581
G1 X143.308 Y154.372 E.01038
G1 E-.75
G1 X145.272 Y147.444 F12000
G1 E.75 F1800
;WIDTH:0.399999
G1 F3000
G1 X145.874 Y147.403 E.01888
G1 X149.369 Y147.436 E.10938
G1 X149.556 Y147.472 E.00596
G1 X149.978 Y147.673 E.01463
G1 X150.309 Y148.057 E.01587
G1 X150.431 Y148.38 E.01081
G1 X150.434 Y148.881 E.01568
G1 X150.224 Y149.348 E.01602
G1 X149.843 Y149.681 E.01584
G1 X149.657 Y149.771 E.00647
G1 X149.32 Y149.841 E.01077
G1 X145.86 Y149.826 E.10828
G1 X145.251 Y149.763 E.01916
G1 X145.576 Y150.156 E.01596
G1 X145.68 Y150.605 E.01442
G1 X145.623 Y151.034 E.01354
G1 X145.41 Y151.423 E.01388
G1 X145.067 Y151.704 E.01388
G1 X144.679 Y151.835 E.01282
;WIDTH:0.436979
G1 X144.443 Y151.851 E.00819
;WIDTH:0.473959
G1 X144.208 Y151.866 E.00893
G1 X143.908 Y151.731 E.01248
;WIDTH:0.439533
G1 X143.535 Y151.421 E.0169
;WIDTH:0.399999
G1 X142.654 Y150.568 E.03838
G1 X141.498 Y149.45 E.05033
;WIDTH:0.434271
G1 X141.375 Y149.268 E.00755
;WIDTH:0.468543
G1 X141.251 Y149.085 E.00828
;WIDTH:0.502815
G1 X141.128 Y148.903 E.0089
G1 X141.099 Y148.535 E.01496
;WIDTH:0.481645
G1 X141.2 Y148.271 E.01092
;WIDTH:0.440822
G1 X141.301 Y148.006 E.00991
;WIDTH:0.399999
G1 X141.429 Y147.811 E.0073
G1 X143.721 Y145.638 E.09884
G1 X143.996 Y145.473 E.01004
G1 X144.505 Y145.381 E.01619
G1 X144.741 Y145.409 E.00744
G1 X145.165 Y145.582 E.01433
G1 X145.488 Y145.909 E.01438
G1 X145.66 Y146.364 E.01522
G1 X145.679 Y146.619 E.008
G1 X145.598 Y147.02 E.0128
G1 X145.309 Y147.396 E.01484
G1 X144.034 Y147.925 F12000
;TYPE:External perimeter
G1 F3000
G1 X144.673 Y147.908 E.02001
G1 X145.167 Y147.8 E.01583
G1 X145.898 Y147.751 E.02293
G1 X149.369 Y147.784 E.10863
G1 X149.747 Y147.934 E.01273
G1 X150.024 Y148.266 E.01353
G1 X150.091 Y148.474 E.00684
G1 X150.075 Y148.868 E.01234
G1 X149.887 Y149.209 E.01219
G1 X149.57 Y149.434 E.01217
G1 X149.322 Y149.493 E.00798
G1 X145.862 Y149.477 E.10828
G1 X145.197 Y149.407 E.02093
G1 X144.639 Y149.299 E.01779
G1 X144.019 Y149.272 E.01942
G1 X144.454 Y149.676 E.01858
G1 X145 Y150 E.01987
G1 X145.272 Y150.33 E.01338
G1 X145.336 Y150.742 E.01305
G1 X145.265 Y151 E.00837
G1 X145.125 Y151.218 E.00811
G1 X144.925 Y151.385 E.00815
G1 X144.664 Y151.487 E.00877
G1 X144.272 Y151.483 E.01227
G1 X144.002 Y151.362 E.00926
G1 X143.778 Y151.17 E.00923
G1 X141.741 Y149.2 E.08868
G1 X141.52 Y148.823 E.01368
G1 X141.499 Y148.475 E.01091
G1 X141.671 Y148.062 E.014
G1 X143.959 Y145.893 E.09867
G1 X144.218 Y145.764 E.00906
G1 X144.622 Y145.736 E.01267
G1 X144.986 Y145.886 E.01232
G1 X145.221 Y146.149 E.01104
G1 X145.336 Y146.559 E.01333
G1 X145.249 Y146.933 E.01202
G1 X144.983 Y147.238 E.01267
G1 X144.506 Y147.517 E.01729
G1 X144.079 Y147.886 E.01766
G1 X144.424 Y147.835 F12000
G1 E-.75 F3000
G1 X148.663 Y128.343 F12000
G1 E.75 F1800
;TYPE:Perimeter
G1 F3000
G1 X149.012 Y128.164 E.01228
