; generated by PrusaSlicer 2.6.0-alpha6+win64 on 2023-08-07 at 19:47:28 UTC

; 

; external perimeters extrusion width = 0.38mm
; perimeters extrusion width = 0.38mm
; infill extrusion width = 0.45mm
; solid infill extrusion width = 0.45mm
; top infill extrusion width = 0.44mm
; support material extrusion width = 0.40mm
; first layer extrusion width = 0.40mm

M190 S55 ; set bed temperature and wait for it to be reached
M104 S210 ; set temperature
;TYPE:Custom
print_start EXTRUDER=210 BED=55
M109 S210 ; set temperature and wait for it to be reached
G21 ; set units to millimeters
G90 ; use absolute coordinates
M83 ; use relative distances for extrusion
;Filament gcode
M107
;LAYER_CHANGE
;Z:0.24
;HEIGHT:0.24
G1 Z.24 F12000
G1 E-.75 F3000
G1 X136.429 Y113.145 F12000
G1 E.75 F1800
M204 S4000
;TYPE:Skirt/Brim
;WIDTH:0.4
G1 F3000
G1 X137.265 Y112.315 E.03687
G1 X138.287 Y111.729 E.03687
G1 X139.427 Y111.428 E.0369
G1 X160.574 Y111.428 E.66181
G1 X161.742 Y111.741 E.03784
G1 X162.76 Y112.334 E.03687
G1 X163.571 Y113.145 E.03589
G1 X164.175 Y114.192 E.03783
G1 X164.472 Y115.3 E.0359
G1 X164.514 Y115.905 E.01898
G1 X164.514 Y184.096 E2.13409
G1 X164.472 Y184.7 E.01895
G1 X164.175 Y185.808 E.0359
G1 X163.59 Y186.83 E.03685
G1 X162.76 Y187.667 E.03689
G1 X161.713 Y188.271 E.03783
G1 X160.574 Y188.572 E.03687
G1 X140 Y188.609 E.64388
G1 X139.395 Y188.568 E.01898
G1 X138.287 Y188.271 E.0359
G1 X137.24 Y187.667 E.03783
G1 X136.41 Y186.83 E.03689
G1 X135.825 Y185.808 E.03685
G1 X135.528 Y184.7 E.0359
G1 X135.486 Y184.096 E.01895
G1 X135.486 Y115.905 E2.13409
G1 X135.528 Y115.3 E.01898
G1 X135.825 Y114.192 E.0359
G1 X136.399 Y113.197 E.03595
G1 X136.698 Y113.37 F12000
G1 F3000
G1 X137.477 Y112.591 E.03448
G1 X138.421 Y112.051 E.03404
G1 X139.472 Y111.774 E.03402
G1 X160.528 Y111.774 E.65896
G1 X161.608 Y112.063 E.03499
G1 X162.548 Y112.61 E.03404
G1 X163.295 Y113.357 E.03306
G1 X163.853 Y114.325 E.03497
G1 X164.127 Y115.346 E.03308
G1 X164.166 Y115.905 E.01754
G1 X164.166 Y184.096 E2.13409
G1 X164.127 Y184.654 E.01751
G1 X163.853 Y185.675 E.03308
G1 X163.314 Y186.618 E.03399
G1 X162.547 Y187.39 E.03406
G1 X161.579 Y187.949 E.03498
G1 X160.528 Y188.226 E.03402
G1 X140 Y188.261 E.64244
G1 X139.441 Y188.222 E.01754
G1 X138.421 Y187.949 E.03305
G1 X137.453 Y187.39 E.03498
G1 X136.686 Y186.618 E.03406
G1 X136.147 Y185.675 E.03399
G1 X135.873 Y184.654 E.03308
G1 X135.834 Y184.096 E.01751
G1 X135.834 Y115.905 E2.13409
G1 X135.873 Y115.346 E.01754
G1 X136.147 Y114.325 E.03308
G1 X136.668 Y113.422 E.03263
G1 X136.967 Y113.594 F12000
G1 F3000
G1 X137.689 Y112.868 E.03204
G1 X138.554 Y112.373 E.03119
G1 X139.517 Y112.119 E.03117
G1 X160.483 Y112.119 E.65615
G1 X161.475 Y112.385 E.03214
G1 X162.336 Y112.887 E.03119
G1 X163.018 Y113.569 E.03018
G1 X163.532 Y114.459 E.03216
G1 X163.781 Y115.391 E.03019
G1 X163.817 Y115.905 E.01613
G1 X163.817 Y184.096 E2.13409
G1 X163.781 Y184.609 E.01609
G1 X163.532 Y185.541 E.03019
G1 X163.037 Y186.406 E.03119
G1 X162.335 Y187.114 E.0312
G1 X161.446 Y187.627 E.03212
G1 X160.483 Y187.881 E.03117
G1 X140 Y187.912 E.64103
G1 X139.486 Y187.877 E.01612
G1 X138.554 Y187.627 E.0302
G1 X137.665 Y187.114 E.03212
G1 X136.963 Y186.406 E.0312
G1 X136.468 Y185.541 E.03119
G1 X136.219 Y184.609 E.03019
G1 X136.183 Y184.096 E.01609
G1 X136.183 Y115.905 E2.13409
G1 X136.219 Y115.391 E.01613
G1 X136.468 Y114.459 E.03019
G1 X136.937 Y113.646 E.02937
G1 X137.237 Y113.819 F12000
G1 F3000
G1 X137.901 Y113.144 E.02963
G1 X138.687 Y112.695 E.02833
G1 X139.563 Y112.465 E.02834
G1 X160.437 Y112.465 E.65327
G1 X161.341 Y112.707 E.02929
G1 X162.123 Y113.163 E.02833
G1 X162.742 Y113.781 E.02737
G1 X163.21 Y114.592 E.0293
G1 X163.436 Y115.437 E.02737
G1 X163.469 Y115.905 E.01468
G1 X163.469 Y184.096 E2.13409
G1 X163.436 Y184.563 E.01465
G1 X163.21 Y185.408 E.02737
G1 X162.761 Y186.194 E.02833
G1 X162.123 Y186.837 E.02835
G1 X161.313 Y187.305 E.02928
G1 X160.437 Y187.535 E.02834
G1 X140 Y187.564 E.63959
G1 X139.532 Y187.531 E.01468
G1 X138.687 Y187.305 E.02737
G1 X137.877 Y186.837 E.02928
G1 X137.239 Y186.194 E.02835
G1 X136.79 Y185.408 E.02833
G1 X136.564 Y184.563 E.02737
G1 X136.531 Y184.096 E.01465
G1 X136.531 Y115.905 E2.13409
G1 X136.564 Y115.437 E.01468
G1 X136.79 Y114.592 E.02737
G1 X137.207 Y113.871 E.02607
G1 E-.75
G1 X152.726 Y126.537 F12000
G1 E.75 F1800
;TYPE:Perimeter
;WIDTH:0.399999
G1 F3000
G1 X152.412 Y126.95 E.01624
G1 X151.962 Y127.363 E.01912
G1 X151.457 Y127.676 E.01859
G1 X150.911 Y127.89 E.01835
G1 X150.717 Y127.947 E.00633
G1 X150.339 Y128.007 E.01198
G1 X150.901 Y128.125 E.01797
G1 X151.386 Y128.346 E.01668
G1 X151.797 Y128.643 E.01587
G1 X152.19 Y129.062 E.01798
G1 X152.487 Y129.554 E.01799
G1 X152.675 Y130.096 E.01795
G1 X152.747 Y130.666 E.01798
G1 X152.698 Y131.239 E.018
G1 X152.532 Y131.788 E.01795
G1 X152.254 Y132.291 E.01799
G1 X151.879 Y132.726 E.01797
G1 X151.421 Y133.072 E.01796
G1 X150.901 Y133.316 E.01798
G1 X150.341 Y133.447 E.018
G1 X149.767 Y133.458 E.01797
G1 X149.203 Y133.35 E.01797
G1 X148.674 Y133.127 E.01797
G1 X148.203 Y132.799 E.01796
G1 X147.81 Y132.38 E.01798
G1 X147.513 Y131.888 E.01799
G1 X147.319 Y131.304 E.01926
G1 X147.253 Y130.776 E.01665
G1 X147.302 Y130.203 E.018
G1 X147.468 Y129.654 E.01795
G1 X147.746 Y129.151 E.01799
G1 X148.076 Y128.767 E.01585
G1 X148.501 Y128.426 E.01705
G1 X149.012 Y128.164 E.01797
G1 X149.489 Y128.035 E.01546
;WIDTH:0.391454
G1 X149.66 Y128 E.00533
;WIDTH:0.399999
G1 X149.078 Y127.887 E.01855
G1 X148.508 Y127.657 E.01924
G1 X147.966 Y127.306 E.02021
G1 X147.478 Y126.826 E.02142
G1 X147.174 Y126.37 E.01715
G1 X146.931 Y125.823 E.01873
G1 X146.781 Y125.182 E.0206
G1 X146.763 Y124.553 E.01969
G1 X146.864 Y123.946 E.01926
G1 X147.075 Y123.375 E.01905
G1 X147.388 Y122.856 E.01897
G1 X147.793 Y122.403 E.01902
G1 X148.333 Y121.992 E.02124
G1 X148.839 Y121.751 E.01754
G1 X149.489 Y121.573 E.02109
G1 X150.071 Y121.536 E.01825
G1 X150.711 Y121.612 E.02017
G1 X151.301 Y121.804 E.01942
G1 X151.843 Y122.106 E.01942
G1 X152.316 Y122.503 E.01933
G1 X152.705 Y122.982 E.01931
G1 X152.996 Y123.527 E.01934
G1 X153.176 Y124.107 E.01901
G1 X153.246 Y124.715 E.01915
G1 X153.199 Y125.334 E.01943
G1 X153.033 Y125.94 E.01966
G1 X152.761 Y126.489 E.01917
G1 X152.432 Y126.356 F12000
;TYPE:External perimeter
G1 F3000
G1 X152.138 Y126.734 E.01499
G1 X151.734 Y127.099 E.01704
G1 X151.283 Y127.375 E.01655
G1 X150.797 Y127.561 E.01629
G1 X150.292 Y127.656 E.01608
G1 X149.783 Y127.661 E.01593
G1 X149.288 Y127.579 E.0157
G1 X148.821 Y127.417 E.01547
G1 X148.399 Y127.186 E.01506
G1 X148.035 Y126.905 E.01439
G1 X147.71 Y126.56 E.01483
G1 X147.43 Y126.123 E.01624
G1 X147.222 Y125.613 E.01724
G1 X147.123 Y125.116 E.01586
G1 X147.111 Y124.553 E.01762
G1 X147.206 Y124.012 E.01719
G1 X147.399 Y123.505 E.01698
G1 X147.682 Y123.044 E.01693
G1 X148.046 Y122.643 E.01695
G1 X148.536 Y122.276 E.01916
G1 X149.036 Y122.044 E.01725
G1 X149.571 Y121.911 E.01725
G1 X150.087 Y121.884 E.01617
G1 X150.665 Y121.957 E.01823
G1 X151.187 Y122.134 E.01725
G1 X151.669 Y122.408 E.01735
G1 X152.088 Y122.766 E.01725
G1 X152.431 Y123.198 E.01726
G1 X152.686 Y123.686 E.01723
G1 X152.842 Y124.205 E.01696
G1 X152.899 Y124.748 E.01709
G1 X152.852 Y125.301 E.01737
G1 X152.699 Y125.842 E.0176
G1 X152.463 Y126.305 E.01626
G1 X152.617 Y126.71 F12000
G1 E-.75 F3000
G1 X148.498 Y128.863 F12000
G1 E.75 F1800
G1 F3000
G1 X148.784 Y128.651 E.01114
G1 X149.241 Y128.444 E.0157
G1 X149.731 Y128.336 E.0157
G1 X150.233 Y128.332 E.01571
G1 X150.724 Y128.432 E.01568
G1 X151.184 Y128.633 E.01571
G1 X151.593 Y128.925 E.01573
G1 X151.931 Y129.295 E.01568
G1 X152.185 Y129.728 E.01571
G1 X152.344 Y130.204 E.01571
G1 X152.4 Y130.703 E.01571
G1 X152.352 Y131.202 E.01569
G1 X152.2 Y131.681 E.01573
G1 X151.953 Y132.117 E.01568
G1 X151.62 Y132.493 E.01572
G1 X151.216 Y132.791 E.01571
G1 X150.759 Y132.998 E.0157
G1 X150.269 Y133.106 E.0157
G1 X149.767 Y133.11 E.01571
G1 X149.276 Y133.009 E.01569
G1 X148.816 Y132.809 E.0157
G1 X148.407 Y132.517 E.01573
G1 X148.069 Y132.147 E.01568
G1 X147.815 Y131.714 E.01571
G1 X147.652 Y131.201 E.01685
G1 X147.6 Y130.703 E.01567
G1 X147.648 Y130.24 E.01457
G1 X147.8 Y129.761 E.01573
G1 X148.047 Y129.325 E.01568
G1 X148.38 Y128.949 E.01572
G1 X148.449 Y128.898 E.00269
G1 X148.439 Y128.512 F12000
G1 X149.703 Y127.997
;TYPE:Perimeter
;WIDTH:0.38104
G1 F3000
G1 X150.233 Y128 E.01568
G1 E-.75
G1 X154.398 Y122.252 F12000
G1 E.75 F1800
;WIDTH:0.399999
G1 F3000
G1 X154.669 Y122.834 E.02009
G1 X155.031 Y123.291 E.01825
G1 X155.483 Y123.659 E.01824
G1 X156.004 Y123.922 E.01826
G1 X156.523 Y124.061 E.01681
G1 X157.04 Y124.091 E.01621
G1 X157.617 Y124.009 E.01824
G1 X158.163 Y123.805 E.01824
G1 X158.653 Y123.487 E.01828
G1 X159.063 Y123.073 E.01823
G1 X159.372 Y122.583 E.01813
G1 X159.372 Y180.427 E1.81027
G1 X159.063 Y179.937 E.01813
G1 X158.653 Y179.523 E.01823
G1 X158.163 Y179.205 E.01828
G1 X157.609 Y179 E.01849
G1 X157.004 Y178.921 E.01909
G1 X156.458 Y178.962 E.01714
G1 X155.899 Y179.13 E.01827
G1 X155.39 Y179.414 E.01824
G1 X154.953 Y179.801 E.01827
G1 X154.61 Y180.273 E.01826
G1 X154.376 Y180.807 E.01825
G1 X154.263 Y181.379 E.01825
G1 X154.275 Y181.963 E.01828
G1 X154.415 Y182.533 E.01837
G1 X154.689 Y183.072 E.01892
G1 X155.064 Y183.494 E.01767
G1 X153.658 Y183.467 E.04401
G1 X145.496 Y183.471 E.25544
G1 X144.939 Y183.491 E.01744
G1 X145.008 Y183.431 E.00286
G1 X145.384 Y182.959 E.01889
G1 X145.623 Y182.422 E.0184
G1 X145.737 Y181.85 E.01825
G1 X145.725 Y181.267 E.01825
G1 X145.554 Y180.627 E.02073
G1 X145.331 Y180.176 E.01575
G1 X144.969 Y179.719 E.01825
G1 X144.517 Y179.351 E.01824
G1 X143.996 Y179.088 E.01826
G1 X143.422 Y178.944 E.01852
G1 X142.918 Y178.924 E.01579
G1 X142.383 Y179.001 E.01692
G1 X141.837 Y179.205 E.01824
G1 X141.347 Y179.523 E.01828
G1 X140.937 Y179.937 E.01823
G1 X140.628 Y180.427 E.01813
G1 X140.628 Y171.543 E.27803
;WIDTH:0.43915
G1 X140.648 Y171.206 E.01175
;WIDTH:0.478301
G1 X140.668 Y170.868 E.01298
G1 X140.663 Y170.351 E.01982
;WIDTH:0.469179
G1 X140.646 Y170.056 E.01108
;WIDTH:0.434589
G1 X140.628 Y169.761 E.01017
;WIDTH:0.399999
G1 X140.628 Y160.796 E.28057
;WIDTH:0.418961
G1 X140.638 Y160.237 E.01845
;WIDTH:0.444163
G1 X140.65 Y159.88 E.0126
;WIDTH:0.469364
G1 X140.663 Y159.522 E.01344
G1 X140.646 Y159.199 E.01214
;WIDTH:0.434682
G1 X140.628 Y158.876 E.01113
;WIDTH:0.399999
G1 X140.628 Y149.577 E.29102
;WIDTH:0.434271
G1 X140.646 Y149.365 E.00731
;WIDTH:0.468543
G1 X140.663 Y149.154 E.00793
;WIDTH:0.502815
G1 X140.68 Y148.942 E.00862
G1 X140.669 Y148.535 E.0165
;WIDTH:0.481645
G1 X140.649 Y148.211 E.01254
;WIDTH:0.440822
G1 X140.628 Y147.886 E.01139
;WIDTH:0.399999
G1 X140.628 Y122.561 E.79256
G1 X140.768 Y122.834 E.0096
G1 X141.131 Y123.291 E.01826
G1 X141.583 Y123.659 E.01824
G1 X142.104 Y123.922 E.01826
G1 X142.669 Y124.066 E.01825
G1 X143.252 Y124.085 E.01826
G1 X143.826 Y123.979 E.01827
G1 X144.363 Y123.752 E.01825
G1 X144.839 Y123.414 E.01827
G1 X145.231 Y122.983 E.01823
G1 X145.523 Y122.472 E.01842
G1 X145.697 Y121.906 E.01853
G1 X145.745 Y121.321 E.01837
G1 X145.668 Y120.751 E.018
G1 X145.474 Y120.212 E.01793
G1 X145.163 Y119.718 E.01827
G1 X144.753 Y119.304 E.01823
G1 X144.263 Y118.986 E.01828
G1 X143.709 Y118.781 E.01849
G1 X143.133 Y118.701 E.0182
G1 X142.607 Y118.732 E.01649
G1 X142.104 Y118.869 E.01632
G1 X141.583 Y119.132 E.01826
G1 X141.131 Y119.5 E.01824
G1 X140.768 Y119.957 E.01826
G1 X140.628 Y120.23 E.0096
G1 X140.628 Y116.533 E.1157
G1 X159.372 Y116.533 E.58661
G1 X159.372 Y117.719 E.03712
G1 X159.372 Y120.208 E.07789
G1 X159.063 Y119.718 E.01813
G1 X158.653 Y119.304 E.01823
G1 X158.163 Y118.986 E.01828
G1 X157.609 Y118.781 E.01849
G1 X157.004 Y118.702 E.01909
G1 X156.458 Y118.743 E.01714
G1 X155.899 Y118.911 E.01827
G1 X155.39 Y119.195 E.01824
G1 X154.953 Y119.582 E.01827
G1 X154.61 Y120.054 E.01826
G1 X154.376 Y120.588 E.01825
G1 X154.263 Y121.16 E.01825
G1 X154.275 Y121.743 E.01825
G1 X154.384 Y122.193 E.01449
G1 X154.717 Y122.113 F12000
;TYPE:External perimeter
G1 F3000
G1 X154.616 Y121.668 E.01428
G1 X154.612 Y121.16 E.0159
G1 X154.717 Y120.663 E.0159
G1 X154.927 Y120.2 E.01591
G1 X155.231 Y119.793 E.0159
G1 X155.616 Y119.461 E.01591
G1 X156.063 Y119.219 E.01591
G1 X156.551 Y119.079 E.01589
G1 X157.058 Y119.051 E.01589
G1 X157.558 Y119.125 E.01582
G1 X158.034 Y119.31 E.01598
G1 X158.457 Y119.592 E.01591
G1 X158.81 Y119.958 E.01591
G1 X159.075 Y120.392 E.01591
;WIDTH:0.447808
G1 X159.264 Y120.864 E.01809
G1 X159.318 Y121.375 E.01829
;WIDTH:0.436216
G1 X159.319 Y121.395 E.00069
;WIDTH:0.463639
G1 X159.279 Y121.899 E.01871
G1 X159.185 Y122.132 E.0093
;WIDTH:0.431819
G1 X159.091 Y122.365 E.00858
;WIDTH:0.399999
G1 X158.833 Y122.803 E.01591
G1 X158.486 Y123.175 E.01592
G1 X158.068 Y123.463 E.01589
G1 X157.597 Y123.655 E.01592
G1 X157.096 Y123.741 E.01591
G1 X156.588 Y123.718 E.01591
G1 X156.098 Y123.586 E.01588
G1 X155.647 Y123.351 E.01592
G1 X155.257 Y123.025 E.01591
G1 X154.946 Y122.623 E.01591
G1 X154.732 Y122.171 E.01565
G1 X154.325 Y122.035 F12000
G1 E-.75 F3000
G1 X143.156 Y123.74 F12000
G1 E.75 F1800
G1 F3000
G1 X142.688 Y123.718 E.01466
G1 X142.197 Y123.586 E.01591
G1 X141.747 Y123.351 E.01589
G1 X141.357 Y123.025 E.01591
G1 X141.026 Y122.591 E.01708
G1 X140.817 Y122.128 E.0159
;WIDTH:0.441463
G1 X140.691 Y121.631 E.01796
;WIDTH:0.446075
G1 X140.693 Y121.118 E.01818
G1 X140.829 Y120.627 E.01805
;WIDTH:0.399999
G1 X141.046 Y120.168 E.01589
G1 X141.357 Y119.766 E.01591
G1 X141.747 Y119.44 E.01591
G1 X142.197 Y119.205 E.01589
G1 X142.688 Y119.073 E.01591
G1 X143.158 Y119.051 E.01473
G1 X143.658 Y119.125 E.01582
G1 X144.134 Y119.31 E.01598
G1 X144.557 Y119.592 E.01591
G1 X144.91 Y119.958 E.01591
G1 X145.175 Y120.392 E.01591
G1 X145.341 Y120.872 E.01589
G1 X145.4 Y121.377 E.01591
G1 X145.349 Y121.882 E.01588
G1 X145.192 Y122.361 E.01578
G1 X144.932 Y122.803 E.01605
G1 X144.586 Y123.175 E.0159
G1 X144.167 Y123.463 E.01591
G1 X143.697 Y123.655 E.01589
G1 X143.216 Y123.738 E.01528
G1 X142.977 Y124.097 F12000
G1 E-.75 F3000
G1 X145.251 Y149.763 F12000
G1 E.75 F1800
;TYPE:Perimeter
G1 F3000
G1 X145.576 Y150.156 E.01596
G1 X145.68 Y150.605 E.01442
G1 X145.623 Y151.034 E.01354
G1 X145.401 Y151.434 E.01432
G1 X145.067 Y151.704 E.01344
G1 X144.694 Y151.834 E.01236
G1 X144.196 Y151.824 E.01559
G1 X143.776 Y151.627 E.01452
G1 X143.535 Y151.421 E.00992
G1 X141.498 Y149.45 E.08871
;WIDTH:0.434271
G1 X141.375 Y149.268 E.00755
;WIDTH:0.468543
G1 X141.251 Y149.085 E.00828
;WIDTH:0.502815
G1 X141.128 Y148.903 E.0089
G1 X141.099 Y148.535 E.01496
;WIDTH:0.481645
G1 X141.2 Y148.271 E.01092
;WIDTH:0.440822
G1 X141.301 Y148.006 E.00991
;WIDTH:0.399999
G1 X141.429 Y147.811 E.0073
G1 X143.721 Y145.638 E.09884
G1 X143.996 Y145.473 E.01004
G1 X144.505 Y145.381 E.01619
G1 X144.741 Y145.409 E.00744
G1 X145.165 Y145.582 E.01433
G1 X145.488 Y145.909 E.01438
G1 X145.66 Y146.364 E.01522
G1 X145.679 Y146.619 E.008
G1 X145.598 Y147.02 E.0128
G1 X145.272 Y147.444 E.01674
G1 X145.874 Y147.403 E.01888
G1 X149.369 Y147.436 E.10938
G1 X149.556 Y147.472 E.00596
G1 X149.978 Y147.673 E.01463
G1 X150.309 Y148.057 E.01587
G1 X150.431 Y148.38 E.01081
G1 X150.434 Y148.881 E.01568
G1 X150.206 Y149.374 E.017
G1 X149.792 Y149.715 E.01679
G1 X149.394 Y149.836 E.01302
G1 X145.86 Y149.826 E.1106
G1 X145.31 Y149.769 E.0173
G1 X144.019 Y149.272 F12000
;TYPE:External perimeter
G1 F3000
G1 X144.454 Y149.676 E.01858
G1 X145 Y150 E.01987
G1 X145.272 Y150.33 E.01338
G1 X145.336 Y150.742 E.01305
G1 X145.265 Y151 E.00837
G1 X145.125 Y151.218 E.00811
G1 X144.925 Y151.385 E.00815
G1 X144.664 Y151.487 E.00877
G1 X144.272 Y151.483 E.01227
G1 X144.002 Y151.362 E.00926
G1 X143.778 Y151.17 E.00923
G1 X141.741 Y149.2 E.08868
G1 X141.52 Y148.823 E.01368
G1 X141.499 Y148.475 E.01091
G1 X141.671 Y148.062 E.014
G1 X143.959 Y145.893 E.09867
G1 X144.218 Y145.764 E.00906
G1 X144.622 Y145.736 E.01267
G1 X144.986 Y145.886 E.01232
G1 X145.221 Y146.149 E.01104
G1 X145.336 Y146.559 E.01333
G1 X145.249 Y146.933 E.01202
G1 X144.983 Y147.238 E.01267
G1 X144.506 Y147.517 E.01729
G1 X144.034 Y147.925 E.01953
