; generated by PrusaSlicer 2.6.0-alpha6+win64 on 2023-08-07 at 20:06:18 UTC

; 

; external perimeters extrusion width = 0.38mm
; perimeters extrusion width = 0.38mm
; infill extrusion width = 0.45mm
; solid infill extrusion width = 0.45mm
; top infill extrusion width = 0.44mm
; support material extrusion width = 0.40mm
; first layer extrusion width = 0.40mm

M190 S55 ; set bed temperature and wait for it to be reached
M104 S210 ; set temperature
;TYPE:Custom
print_start EXTRUDER=210 BED=55
M109 S210 ; set temperature and wait for it to be reached
G21 ; set units to millimeters
G90 ; use absolute coordinates
M83 ; use relative distances for extrusion
;Filament gcode
M107
;LAYER_CHANGE
;Z:0.24
;HEIGHT:0.24
G1 Z.24 F12000
G1 E-.75 F3000
G1 X136.131 Y112.998 F12000
G1 E.75 F1800
M204 S4000
;TYPE:Skirt/Brim
;WIDTH:0.4
G1 F3000
G1 X137.007 Y112.079 E.03973
G1 X138.354 Y111.338 E.04811
G1 X139.161 Y111.125 E.02612
G1 X140 Y111.044 E.02638
G1 X160 Y111.044 E.62591
G1 X161.211 Y111.215 E.03828
G1 X161.451 Y111.283 E.00781
G1 X163.347 Y112.4 E.06887
G1 X163.504 Y112.558 E.00697
G1 X164.612 Y114.422 E.06786
G1 X164.858 Y115.888 E.04652
G1 X164.864 Y184.118 E2.13531
G1 X164.666 Y185.423 E.04131
G1 X163.869 Y187.002 E.05535
G1 X162.993 Y187.922 E.03976
G1 X161.419 Y188.738 E.05549
G1 X160.839 Y188.875 E.01865
G1 X160 Y188.956 E.02638
G1 X140 Y188.956 E.62591
G1 X138.549 Y188.717 E.04602
G1 X136.653 Y187.6 E.06887
G1 X136.495 Y187.442 E.00699
G1 X135.388 Y185.578 E.06785
G1 X135.142 Y184.112 E.04652
G1 X135.136 Y115.882 E2.13531
G1 X135.334 Y114.577 E.04131
G1 X136.104 Y113.052 E.05346
G1 X136.405 Y113.214 F12000
G1 F3000
G1 X137.224 Y112.352 E.03721
G1 X138.466 Y111.668 E.04437
G1 X139.228 Y111.467 E.02466
G1 X140 Y111.393 E.02427
G1 X160 Y111.393 E.62591
G1 X161.115 Y111.55 E.03524
G1 X161.355 Y111.618 E.00781
G1 X163.1 Y112.646 E.06338
G1 X163.258 Y112.804 E.00699
G1 X164.278 Y114.521 E.0625
G1 X164.509 Y115.888 E.04339
G1 X164.515 Y184.118 E2.13531
G1 X164.333 Y185.319 E.03802
G1 X163.595 Y186.786 E.05139
G1 X162.776 Y187.648 E.03721
G1 X161.325 Y188.403 E.05119
G1 X160.772 Y188.533 E.01778
G1 X160 Y188.607 E.02427
G1 X140 Y188.607 E.62591
G1 X138.645 Y188.382 E.04299
G1 X136.9 Y187.354 E.06338
G1 X136.742 Y187.196 E.00699
G1 X135.722 Y185.479 E.0625
G1 X135.491 Y184.112 E.04339
G1 X135.485 Y115.882 E2.13531
G1 X135.667 Y114.681 E.03802
G1 X136.378 Y113.268 E.0495
G1 X136.678 Y113.43 F12000
G1 F3000
G1 X137.44 Y112.625 E.03469
G1 X138.578 Y111.998 E.04066
G1 X139.294 Y111.809 E.02318
G1 X140 Y111.741 E.0222
G1 X160 Y111.741 E.62591
G1 X161.019 Y111.884 E.0322
G1 X161.259 Y111.953 E.00782
G1 X163.012 Y113.05 E.06472
G1 X163.944 Y114.619 E.05711
G1 X164.161 Y115.888 E.04029
G1 X164.167 Y184.118 E2.13531
G1 X164 Y185.216 E.03476
G1 X163.322 Y186.57 E.04739
G1 X162.56 Y187.375 E.03469
G1 X161.23 Y188.067 E.04692
G1 X160.706 Y188.191 E.01685
G1 X160 Y188.259 E.0222
G1 X140 Y188.259 E.62591
G1 X138.741 Y188.047 E.03996
G1 X137.146 Y187.107 E.05794
G1 X136.988 Y186.949 E.00699
G1 X136.056 Y185.381 E.05709
G1 X135.839 Y184.112 E.04029
G1 X135.833 Y115.882 E2.13531
G1 X136 Y114.784 E.03476
G1 X136.651 Y113.484 E.0455
G1 X136.952 Y113.646 F12000
G1 F3000
G1 X137.657 Y112.898 E.03217
G1 X138.69 Y112.328 E.03692
G1 X139.361 Y112.151 E.02172
G1 X140 Y112.09 E.02009
G1 X160 Y112.09 E.62591
G1 X160.923 Y112.219 E.02917
G1 X161.163 Y112.288 E.00782
G1 X162.765 Y113.297 E.05925
G1 X163.609 Y114.718 E.05172
G1 X163.812 Y115.888 E.03716
G1 X163.818 Y184.118 E2.13531
G1 X163.667 Y185.112 E.03146
G1 X163.048 Y186.354 E.04343
G1 X162.343 Y187.102 E.03217
G1 X161.135 Y187.732 E.04264
G1 X160.639 Y187.849 E.01595
G1 X160 Y187.91 E.02009
G1 X140 Y187.91 E.62591
G1 X138.837 Y187.712 E.03692
G1 X137.235 Y186.703 E.05925
G1 X136.391 Y185.282 E.05172
G1 X136.188 Y184.112 E.03716
G1 X136.182 Y115.882 E2.13531
G1 X136.333 Y114.888 E.03146
G1 X136.925 Y113.7 E.04154
G1 E-.75
G1 X140.282 Y183.813 F12000
G1 E.75 F1800
;TYPE:Perimeter
;WIDTH:0.399999
G1 F3000
G1 X140.282 Y116.187 E2.1164
G1 X159.718 Y116.187 E.60826
G1 X159.718 Y183.813 E2.1164
G1 X140.342 Y183.813 E.60638
G1 X139.98 Y184.141 F12000
;TYPE:External perimeter
G1 F3000
G1 X139.934 Y184.044 E.00336
G1 X139.934 Y115.954 E2.13092
G1 X140.041 Y115.838 E.00494
G1 X159.929 Y115.838 E.62241
G1 X160.02 Y115.859 E.00292
G1 X160.066 Y115.975 E.00391
G1 X160.066 Y184.046 E2.13033
G1 X159.959 Y184.162 E.00494
G1 X140.039 Y184.154 E.62341
G1 X140.004 Y184.036 F12000
G1 X140.387 Y183
;TYPE:Solid infill
;WIDTH:0.40188
G1 F3000
G1 X140.938 Y183.552 E.02454
G1 X141.434 Y183.552 E.01561
G1 X140.543 Y182.662 E.03963
G1 X140.543 Y182.166 E.01561
G1 X141.929 Y183.552 E.06167
G1 X142.425 Y183.552 E.01561
G1 X140.543 Y181.671 E.08372
G1 X140.543 Y181.175 E.01561
G1 X142.92 Y183.552 E.10577
G1 X143.416 Y183.552 E.01561
G1 X140.543 Y180.68 E.12782
G1 X140.543 Y180.184 E.01561
G1 X143.911 Y183.552 E.14987
G1 X144.407 Y183.552 E.01561
G1 X140.543 Y179.689 E.17192
G1 X140.543 Y179.193 E.01561
G1 X144.902 Y183.552 E.19397
G1 X145.398 Y183.552 E.01561
G1 X140.543 Y178.697 E.21604
G1 X140.543 Y178.202 E.01557
G1 X145.893 Y183.552 E.23806
G1 X146.389 Y183.552 E.01561
G1 X140.543 Y177.706 E.26013
G1 X140.543 Y177.211 E.01557
G1 X146.884 Y183.552 E.28216
G1 X147.38 Y183.552 E.01561
G1 X140.543 Y176.715 E.30423
G1 X140.543 Y176.22 E.01557
G1 X147.875 Y183.552 E.32626
G1 X148.371 Y183.552 E.01561
G1 X140.543 Y175.724 E.34833
G1 X140.543 Y175.229 E.01557
G1 X148.866 Y183.552 E.37035
G1 X149.362 Y183.552 E.01561
G1 X140.543 Y174.733 E.39242
G1 X140.543 Y174.238 E.01557
G1 X149.857 Y183.552 E.41445
G1 X150.353 Y183.552 E.01561
G1 X140.543 Y173.742 E.43652
G1 X140.543 Y173.247 E.01557
G1 X150.848 Y183.552 E.45855
G1 X151.344 Y183.552 E.01561
G1 X140.543 Y172.751 E.48062
G1 X140.543 Y172.256 E.01557
G1 X151.839 Y183.552 E.50265
G1 X152.335 Y183.552 E.01561
G1 X140.543 Y171.76 E.52472
G1 X140.543 Y171.265 E.01557
G1 X152.831 Y183.552 E.54676
G1 X153.326 Y183.552 E.01557
G1 X140.543 Y170.769 E.56881
G1 X140.543 Y170.274 E.01557
G1 X153.822 Y183.552 E.59086
G1 X154.317 Y183.552 E.01557
G1 X140.543 Y169.778 E.61291
G1 X140.543 Y169.283 E.01557
G1 X154.813 Y183.552 E.63496
G1 X155.308 Y183.552 E.01557
G1 X140.543 Y168.787 E.65701
G1 X140.543 Y168.292 E.01557
G1 X155.804 Y183.552 E.67906
G1 X156.299 Y183.552 E.01557
G1 X140.543 Y167.796 E.70111
G1 X140.543 Y167.301 E.01557
G1 X156.795 Y183.552 E.72315
G1 X157.29 Y183.552 E.01557
G1 X140.543 Y166.805 E.7452
G1 X140.543 Y166.31 E.01557
G1 X157.786 Y183.552 E.76725
G1 X158.281 Y183.552 E.01557
G1 X140.543 Y165.814 E.7893
G1 X140.543 Y165.319 E.01557
G1 X158.777 Y183.552 E.81135
G1 X159.272 Y183.552 E.01557
G1 X140.543 Y164.823 E.8334
G1 X140.543 Y164.328 E.01557
G1 X159.457 Y183.241 E.84161
G1 X159.457 Y182.745 E.01561
G1 X140.543 Y163.832 E.84161
G1 X140.543 Y163.337 E.01557
G1 X159.457 Y182.25 E.84161
G1 X159.457 Y181.754 E.01561
G1 X140.543 Y162.841 E.84161
G1 X140.543 Y162.346 E.01557
G1 X159.457 Y181.259 E.84161
G1 X159.457 Y180.763 E.01561
G1 X140.543 Y161.85 E.84161
G1 X140.543 Y161.355 E.01557
G1 X159.457 Y180.268 E.84161
G1 X159.457 Y179.772 E.01561
G1 X140.543 Y160.859 E.84161
G1 X140.543 Y160.364 E.01557
G1 X159.457 Y179.277 E.84161
G1 X159.457 Y178.781 E.01561
G1 X140.543 Y159.868 E.84161
G1 X140.543 Y159.373 E.01557
G1 X159.457 Y178.286 E.84161
G1 X159.457 Y177.79 E.01561
G1 X140.543 Y158.877 E.84161
G1 X140.543 Y158.382 E.01557
G1 X159.457 Y177.295 E.84161
G1 X159.457 Y176.799 E.01561
G1 X140.543 Y157.886 E.84161
G1 X140.543 Y157.391 E.01557
G1 X159.457 Y176.304 E.84161
G1 X159.457 Y175.808 E.01561
G1 X140.543 Y156.895 E.84161
G1 X140.543 Y156.4 E.01557
G1 X159.457 Y175.313 E.84161
G1 X159.457 Y174.817 E.01561
G1 X140.543 Y155.904 E.84161
G1 X140.543 Y155.409 E.01557
G1 X159.457 Y174.322 E.84161
G1 X159.457 Y173.826 E.01561
G1 X140.543 Y154.913 E.84161
G1 X140.543 Y154.418 E.01557
G1 X159.457 Y173.331 E.84161
G1 X159.457 Y172.835 E.01561
G1 X140.543 Y153.922 E.84161
G1 X140.543 Y153.427 E.01557
G1 X159.457 Y172.34 E.84161
G1 X159.457 Y171.844 E.01561
G1 X140.543 Y152.931 E.84161
G1 X140.543 Y152.436 E.01557
G1 X159.457 Y171.349 E.84161
G1 X159.457 Y170.853 E.01561
G1 X140.543 Y151.94 E.84161
G1 X140.543 Y151.445 E.01557
G1 X159.457 Y170.358 E.84161
G1 X159.457 Y169.862 E.01561
G1 X140.543 Y150.949 E.84161
G1 X140.543 Y150.454 E.01557
G1 X159.457 Y169.367 E.84161
G1 X159.457 Y168.871 E.01561
G1 X140.543 Y149.958 E.84161
G1 X140.543 Y149.463 E.01557
G1 X159.457 Y168.376 E.84161
G1 X159.457 Y167.88 E.01561
G1 X140.543 Y148.967 E.84161
G1 X140.543 Y148.472 E.01557
G1 X159.457 Y167.385 E.84161
G1 X159.457 Y166.889 E.01561
G1 X140.543 Y147.976 E.84161
G1 X140.543 Y147.481 E.01557
G1 X159.457 Y166.394 E.84161
G1 X159.457 Y165.898 E.01561
G1 X140.543 Y146.985 E.84161
G1 X140.543 Y146.49 E.01557
G1 X159.457 Y165.403 E.84161
G1 X159.457 Y164.907 E.01561
G1 X140.543 Y145.994 E.84161
G1 X140.543 Y145.499 E.01557
G1 X159.457 Y164.412 E.84161
G1 X159.457 Y163.916 E.01561
G1 X140.543 Y145.003 E.84161
G1 X140.543 Y144.508 E.01557
G1 X159.457 Y163.421 E.84161
G1 X159.457 Y162.925 E.01561
G1 X140.543 Y144.012 E.84161
G1 X140.543 Y143.517 E.01557
G1 X159.457 Y162.43 E.84161
G1 X159.457 Y161.934 E.01561
G1 X140.543 Y143.021 E.84161
G1 X140.543 Y142.526 E.01557
G1 X159.457 Y161.439 E.84161
G1 X159.457 Y160.943 E.01561
G1 X140.543 Y142.03 E.84161
G1 X140.543 Y141.535 E.01557
G1 X159.457 Y160.448 E.84161
G1 X159.457 Y159.952 E.01561
G1 X140.543 Y141.039 E.84161
G1 X140.543 Y140.543 E.01561
G1 X159.457 Y159.456 E.84161
G1 X159.457 Y158.961 E.01557
G1 X140.543 Y140.048 E.84161
G1 X140.543 Y139.552 E.01561
G1 X159.457 Y158.465 E.84161
G1 X159.457 Y157.97 E.01557
G1 X140.543 Y139.057 E.84161
G1 X140.543 Y138.561 E.01561
G1 X159.457 Y157.474 E.84161
G1 X159.457 Y156.979 E.01557
G1 X140.543 Y138.066 E.84161
G1 X140.543 Y137.57 E.01561
G1 X159.457 Y156.483 E.84161
G1 X159.457 Y155.988 E.01557
G1 X140.543 Y137.075 E.84161
G1 X140.543 Y136.579 E.01561
G1 X159.457 Y155.492 E.84161
G1 X159.457 Y154.997 E.01557
G1 X140.543 Y136.084 E.84161
G1 X140.543 Y135.588 E.01561
G1 X159.457 Y154.501 E.84161
G1 X159.457 Y154.006 E.01557
G1 X140.543 Y135.093 E.84161
G1 X140.543 Y134.597 E.01561
G1 X159.457 Y153.51 E.84161
G1 X159.457 Y153.015 E.01557
G1 X140.543 Y134.102 E.84161
G1 X140.543 Y133.606 E.01561
G1 X159.457 Y152.519 E.84161
G1 X159.457 Y152.024 E.01557
G1 X140.543 Y133.111 E.84161
G1 X140.543 Y132.615 E.01561
G1 X159.457 Y151.528 E.84161
G1 X159.457 Y151.033 E.01557
G1 X140.543 Y132.12 E.84161
G1 X140.543 Y131.624 E.01561
G1 X159.457 Y150.537 E.84161
G1 X159.457 Y150.042 E.01557
G1 X140.543 Y131.129 E.84161
G1 X140.543 Y130.633 E.01561
G1 X159.457 Y149.546 E.84161
G1 X159.457 Y149.051 E.01557
G1 X140.543 Y130.138 E.84161
G1 X140.543 Y129.642 E.01561
G1 X159.457 Y148.555 E.84161
G1 X159.457 Y148.06 E.01557
G1 X140.543 Y129.147 E.84161
G1 X140.543 Y128.651 E.01561
G1 X159.457 Y147.564 E.84161
G1 X159.457 Y147.069 E.01557
G1 X140.543 Y128.156 E.84161
G1 X140.543 Y127.66 E.01561
G1 X159.457 Y146.573 E.84161
G1 X159.457 Y146.078 E.01557
G1 X140.543 Y127.165 E.84161
G1 X140.543 Y126.669 E.01561
G1 X159.457 Y145.582 E.84161
G1 X159.457 Y145.087 E.01557
G1 X140.543 Y126.174 E.84161
G1 X140.543 Y125.678 E.01561
G1 X159.457 Y144.591 E.84161
G1 X159.457 Y144.096 E.01557
G1 X140.543 Y125.183 E.84161
G1 X140.543 Y124.687 E.01561
G1 X159.457 Y143.6 E.84161
G1 X159.457 Y143.105 E.01557
G1 X140.543 Y124.192 E.84161
G1 X140.543 Y123.696 E.01561
G1 X159.457 Y142.609 E.84161
G1 X159.457 Y142.114 E.01557
G1 X140.543 Y123.201 E.84161
G1 X140.543 Y122.705 E.01561
G1 X159.457 Y141.618 E.84161
G1 X159.457 Y141.123 E.01557
G1 X140.543 Y122.21 E.84161
G1 X140.543 Y121.714 E.01561
G1 X159.457 Y140.627 E.84161
G1 X159.457 Y140.132 E.01557
G1 X140.543 Y121.219 E.84161
G1 X140.543 Y120.723 E.01561
G1 X159.457 Y139.636 E.84161
G1 X159.457 Y139.141 E.01557
G1 X140.543 Y120.228 E.84161
G1 X140.543 Y119.732 E.01561
G1 X159.457 Y138.645 E.84161
G1 X159.457 Y138.15 E.01557
G1 X140.543 Y119.237 E.84161
G1 X140.543 Y118.741 E.01561
G1 X159.457 Y137.654 E.84161
G1 X159.457 Y137.159 E.01557
G1 X140.543 Y118.246 E.84161
G1 X140.543 Y117.75 E.01561
G1 X159.457 Y136.663 E.84161
G1 X159.457 Y136.168 E.01557
G1 X140.543 Y117.255 E.84161
G1 X140.543 Y116.759 E.01561
G1 X159.457 Y135.672 E.84161
G1 X159.457 Y135.177 E.01557
G1 X140.728 Y116.448 E.8334
G1 X141.223 Y116.448 E.01557
G1 X159.457 Y134.681 E.81135
G1 X159.457 Y134.186 E.01557
G1 X141.719 Y116.448 E.7893
G1 X142.214 Y116.448 E.01557
G1 X159.457 Y133.69 E.76725
G1 X159.457 Y133.195 E.01557
G1 X142.71 Y116.448 E.7452
G1 X143.205 Y116.448 E.01557
G1 X159.457 Y132.699 E.72315
G1 X159.457 Y132.204 E.01557
G1 X143.701 Y116.448 E.70111
G1 X144.196 Y116.448 E.01557
G1 X159.457 Y131.708 E.67906
G1 X159.457 Y131.213 E.01557
G1 X144.692 Y116.448 E.65701
G1 X145.187 Y116.448 E.01557
G1 X159.457 Y130.717 E.63496
G1 X159.457 Y130.222 E.01557
G1 X145.683 Y116.448 E.61291
G1 X146.179 Y116.448 E.01561
G1 X159.457 Y129.726 E.59084
G1 X159.457 Y129.231 E.01557
G1 X146.674 Y116.448 E.56881
G1 X147.17 Y116.448 E.01561
G1 X159.457 Y128.735 E.54674
G1 X159.457 Y128.24 E.01557
G1 X147.665 Y116.448 E.52472
G1 X148.161 Y116.448 E.01561
G1 X159.457 Y127.744 E.50265
G1 X159.457 Y127.249 E.01557
G1 X148.656 Y116.448 E.48062
G1 X149.152 Y116.448 E.01561
G1 X159.457 Y126.753 E.45855
G1 X159.457 Y126.258 E.01557
G1 X149.647 Y116.448 E.43652
G1 X150.143 Y116.448 E.01561
G1 X159.457 Y125.762 E.41445
G1 X159.457 Y125.267 E.01557
G1 X150.638 Y116.448 E.39242
G1 X151.134 Y116.448 E.01561
G1 X159.457 Y124.771 E.37035
G1 X159.457 Y124.276 E.01557
G1 X151.629 Y116.448 E.34833
G1 X152.125 Y116.448 E.01561
G1 X159.457 Y123.78 E.32626
G1 X159.457 Y123.285 E.01557
G1 X152.62 Y116.448 E.30423
G1 X153.116 Y116.448 E.01561
G1 X159.457 Y122.789 E.28216
G1 X159.457 Y122.294 E.01557
G1 X153.611 Y116.448 E.26013
G1 X154.107 Y116.448 E.01561
G1 X159.457 Y121.798 E.23806
G1 X159.457 Y121.302 E.01561
G1 X154.602 Y116.448 E.21601
G1 X155.098 Y116.448 E.01561
G1 X159.457 Y120.807 E.19397
G1 X159.457 Y120.311 E.01561
G1 X155.593 Y116.448 E.17192
G1 X156.089 Y116.448 E.01561
G1 X159.457 Y119.816 E.14987
G1 X159.457 Y119.32 E.01561
G1 X156.584 Y116.448 E.12782
G1 X157.08 Y116.448 E.01561
G1 X159.457 Y118.825 E.10577
G1 X159.457 Y118.329 E.01561
G1 X157.575 Y116.448 E.08372
G1 X158.071 Y116.448 E.01561
G1 X159.457 Y117.834 E.06167
G1 X159.457 Y117.338 E.01561
G1 X158.566 Y116.448 E.03963
G1 X159.062 Y116.448 E.01561
G1 X159.613 Y117 E.02454
;LAYER_CHANGE
;Z:0.44
;HEIGHT:0.2
G1 Z.44 F12000
M104 S200 ; set temperature
G1 X160.131 Y184.254
;TYPE:Perimeter
;WIDTH:0.379999
G1 F4800
G1 X159.953 Y184.312 E.00472
G1 X140.042 Y184.312 E.50226
G1 X139.948 Y184.303 E.00238
G1 X139.825 Y184.212 E.00386
G1 X139.784 Y184.067 E.0038
G1 X139.782 Y115.941 E1.71851
G1 X139.869 Y115.746 E.00539
G1 X140.047 Y115.688 E.00472
G1 X159.958 Y115.688 E.50226
G1 X160.045 Y115.696 E.0022
G1 X160.175 Y115.788 E.00402
G1 X160.216 Y115.946 E.00412
G1 X160.218 Y184.059 E1.71818
G1 X160.155 Y184.199 E.00387
G1 X160.268 Y184.565 F12000
;TYPE:External perimeter
G1 F4800
G1 X159.983 Y184.649 E.0075
G1 X140.042 Y184.649 E.50302
G1 X139.958 Y184.643 E.00212
G1 X139.683 Y184.546 E.00736
G1 X139.509 Y184.335 E.0069
G1 X139.447 Y184.085 E.0065
G1 X139.445 Y115.979 E1.718
G1 X139.469 Y115.801 E.00453
G1 X139.57 Y115.585 E.00601
G1 X139.732 Y115.435 E.00557
G1 X140.017 Y115.351 E.0075
G1 X159.958 Y115.351 E.50302
G1 X160.14 Y115.366 E.00461
G1 X160.385 Y115.521 E.00731
G1 X160.536 Y115.755 E.00703
G1 X160.553 Y115.946 E.00484
G1 X160.555 Y184.021 E1.71722
G1 X160.531 Y184.199 E.00453
G1 X160.43 Y184.415 E.00601
G1 X160.312 Y184.524 E.00405
G1 X160.013 Y184.412 F12000
G1 X159.29 Y184.207
;TYPE:Solid infill
;WIDTH:0.450294
G1 F4800
G1 X159.93 Y183.567 E.02759
G1 X159.93 Y182.991 E.01756
G1 X158.897 Y184.024 E.04454
G1 X158.321 Y184.024 E.01756
G1 X159.93 Y182.415 E.06937
G1 X159.93 Y181.838 E.01759
G1 X157.745 Y184.023 E.0942
G1 X157.169 Y184.023 E.01756
