; generated by PrusaSlicer 2.6.0-alpha6+win64 on 2023-08-12 at 12:24:20 UTC

; 

; external perimeters extrusion width = 0.38mm
; perimeters extrusion width = 0.38mm
; infill extrusion width = 0.45mm
; solid infill extrusion width = 0.45mm
; top infill extrusion width = 0.44mm
; support material extrusion width = 0.40mm
; first layer extrusion width = 0.40mm

M190 S55 ; set bed temperature and wait for it to be reached
M104 S210 ; set temperature
;TYPE:Custom
print_start EXTRUDER=210 BED=55
M109 S210 ; set temperature and wait for it to be reached
G21 ; set units to millimeters
G90 ; use absolute coordinates
M83 ; use relative distances for extrusion
;Filament gcode
M107
;LAYER_CHANGE
;Z:0.24
;HEIGHT:0.24
G1 Z.24 F12000
G1 E-.75 F3000
G1 X69.244 Y83.939 F12000
G1 E.75 F1800
M204 S4000
;TYPE:Skirt/Brim
;WIDTH:0.4
G1 F3000
G1 X70.614 Y83.148 E.04951
G1 X71.634 Y82.875 E.03305
G1 X72.408 Y82.806 E.02432
G1 X226.275 Y82.75 E4.81538
G1 X228.366 Y82.825 E.06548
G1 X229.631 Y83.2 E.04129
G1 X230.756 Y83.889 E.04129
G1 X231.646 Y84.823 E.04038
G1 X232.193 Y85.761 E.03398
G1 X232.567 Y87.026 E.04128
G1 X232.637 Y87.817 E.02485
G1 X232.637 Y212.118 E3.89009
G1 X232.567 Y212.909 E.02485
G1 X232.192 Y214.174 E.04129
G1 X231.503 Y215.299 E.04129
G1 X230.756 Y216.046 E.03306
G1 X229.386 Y216.837 E.04951
G1 X228.366 Y217.11 E.03305
G1 X227.591 Y217.179 E.02435
G1 X72.42 Y217.229 E4.85619
G1 X71.634 Y217.16 E.02469
G1 X70.369 Y216.785 E.04129
G1 X69.454 Y216.257 E.03306
G1 X68.497 Y215.349 E.04129
G1 X67.706 Y213.979 E.04951
G1 X67.432 Y212.959 E.03305
G1 X67.363 Y212.167 E.02488
G1 X67.363 Y87.868 E3.89003
G1 X67.432 Y87.076 E.02488
G1 X67.807 Y85.811 E.04129
G1 X68.479 Y84.71 E.04037
G1 X69.201 Y83.982 E.03209
G1 X69.446 Y84.225 F12000
G1 F3000
G1 X70.747 Y83.47 E.04708
G1 X71.679 Y83.221 E.03019
G1 X72.41 Y83.154 E.02297
G1 X226.274 Y83.099 E4.81529
G1 X228.321 Y83.171 E.0641
G1 X229.498 Y83.522 E.03844
G1 X230.544 Y84.166 E.03844
G1 X231.37 Y85.035 E.03752
G1 X231.871 Y85.895 E.03115
G1 X232.222 Y87.072 E.03844
G1 X232.288 Y87.817 E.02341
G1 X232.288 Y212.118 E3.89009
G1 X232.222 Y212.863 E.02341
G1 X231.87 Y214.041 E.03848
G1 X231.227 Y215.087 E.03843
G1 X230.544 Y215.769 E.03021
G1 X229.252 Y216.515 E.04669
G1 X228.32 Y216.765 E.0302
G1 X227.59 Y216.831 E.02294
G1 X72.421 Y216.881 E4.85613
G1 X71.679 Y216.814 E.02332
G1 X70.502 Y216.463 E.03844
G1 X69.666 Y215.981 E.0302
G1 X68.773 Y215.137 E.03845
G1 X68.028 Y213.845 E.04667
G1 X67.778 Y212.913 E.0302
G1 X67.712 Y212.167 E.02344
G1 X67.712 Y87.868 E3.89003
G1 X67.778 Y87.122 E.02344
G1 X68.129 Y85.945 E.03844
G1 X68.755 Y84.922 E.03753
G1 X69.404 Y84.268 E.02883
G1 X69.649 Y84.511 F12000
G1 F3000
G1 X70.88 Y83.792 E.04462
G1 X71.725 Y83.566 E.02737
G1 X72.411 Y83.503 E.02156
G1 X226.272 Y83.447 E4.81519
G1 X228.275 Y83.516 E.06272
G1 X229.364 Y83.844 E.03559
G1 X230.332 Y84.442 E.03561
G1 X231.112 Y85.271 E.03562
G1 X231.549 Y86.028 E.02736
G1 X231.876 Y87.117 E.03558
G1 X231.94 Y87.817 E.022
G1 X231.94 Y212.118 E3.89009
G1 X231.876 Y212.818 E.022
G1 X231.548 Y213.907 E.03559
G1 X230.95 Y214.875 E.03561
G1 X230.332 Y215.493 E.02735
G1 X229.119 Y216.193 E.04383
G1 X228.275 Y216.419 E.02734
G1 X227.589 Y216.482 E.02156
G1 X72.421 Y216.532 E4.8561
G1 X71.725 Y216.469 E.02187
G1 X70.635 Y216.141 E.03562
G1 X69.878 Y215.704 E.02736
G1 X69.05 Y214.925 E.03558
G1 X68.35 Y213.712 E.04383
G1 X68.123 Y212.868 E.02735
G1 X68.06 Y212.167 E.02203
G1 X68.06 Y87.868 E3.89003
G1 X68.123 Y87.167 E.02203
G1 X68.451 Y86.078 E.03559
G1 X69.032 Y85.134 E.03469
G1 X69.607 Y84.554 E.02556
G1 E-.75
G1 X226.999 Y212.386 F12000
G1 E.75 F1800
;TYPE:Perimeter
;WIDTH:0.399999
G1 F3000
G1 X87.912 Y212.449 E4.35282
G1 X87.194 Y212.433 E.02248
G1 X72.496 Y212.435 E.45998
G1 X72.357 Y212.42 E.00438
G1 X72.219 Y212.325 E.00524
G1 X72.157 Y212.118 E.00676
G1 X72.157 Y87.939 E3.88627
G1 X72.172 Y87.8 E.00438
G1 X72.267 Y87.662 E.00524
G1 X72.474 Y87.6 E.00676
G1 X227.105 Y87.548 E4.83928
G1 X227.687 Y87.584 E.01825
G1 X227.813 Y87.715 E.00569
G1 X227.843 Y87.867 E.00485
G1 X227.843 Y212.046 E3.88627
G1 X227.827 Y212.185 E.00438
G1 X227.733 Y212.323 E.00523
G1 X227.525 Y212.385 E.00679
G1 X227.059 Y212.386 E.01458
G1 X226.999 Y212.734 F12000
;TYPE:External perimeter
G1 F3000
G1 X87.912 Y212.797 E4.35282
G1 X87.194 Y212.782 E.02248
G1 X72.451 Y212.784 E.46139
G1 X72.118 Y212.698 E.01076
G1 X71.894 Y212.474 E.00991
G1 X71.809 Y212.141 E.01076
G1 X71.809 Y87.894 E3.88839
G1 X71.894 Y87.561 E.01076
G1 X72.118 Y87.337 E.00991
G1 X72.452 Y87.251 E.01079
G1 X227.131 Y87.199 E4.84078
G1 X227.74 Y87.228 E.01908
G1 X228.008 Y87.384 E.0097
G1 X228.135 Y87.582 E.00736
G1 X228.191 Y87.844 E.00838
G1 X228.191 Y212.091 E3.88839
G1 X228.106 Y212.424 E.01076
G1 X227.881 Y212.648 E.00994
G1 X227.548 Y212.734 E.01076
G1 X227.059 Y212.734 E.0153
G1 X226.788 Y212.394 F12000
G1 E-.75 F3000
G1 X227.738 Y88.414 F12000
G1 E.75 F1800
;TYPE:Solid infill
;WIDTH:0.400164
G1 F3000
G1 X227.135 Y87.81 E.02672
G1 X226.641 Y87.81 E.01547
G1 X227.581 Y88.75 E.04162
G1 X227.581 Y89.243 E.01544
G1 X226.149 Y87.81 E.06343
G1 X225.656 Y87.81 E.01544
G1 X227.581 Y89.736 E.08526
G1 X227.581 Y90.229 E.01544
G1 X225.163 Y87.811 E.10707
G1 X224.67 Y87.811 E.01544
G1 X227.581 Y90.722 E.1289
G1 X227.581 Y91.215 E.01544
G1 X224.177 Y87.811 E.15073
G1 X223.684 Y87.811 E.01544
G1 X227.581 Y91.708 E.17256
G1 X227.581 Y92.201 E.01544
G1 X223.191 Y87.811 E.19439
G1 X222.698 Y87.811 E.01544
G1 X227.581 Y92.695 E.21624
G1 X227.581 Y93.188 E.01544
G1 X222.205 Y87.812 E.23805
G1 X221.712 Y87.812 E.01544
G1 X227.581 Y93.681 E.25988
G1 X227.581 Y94.174 E.01544
G1 X221.219 Y87.812 E.28171
G1 X220.726 Y87.812 E.01544
G1 X227.581 Y94.667 E.30354
G1 X227.581 Y95.16 E.01544
G1 X220.234 Y87.812 E.32535
G1 X219.741 Y87.812 E.01544
G1 X227.581 Y95.653 E.34718
G1 X227.581 Y96.146 E.01544
G1 X219.248 Y87.813 E.36898
G1 X218.755 Y87.813 E.01544
G1 X227.581 Y96.639 E.39081
G1 X227.581 Y97.132 E.01544
G1 X218.262 Y87.813 E.41264
G1 X217.769 Y87.813 E.01544
G1 X227.581 Y97.625 E.43447
G1 X227.581 Y98.118 E.01544
G1 X217.276 Y87.813 E.4563
G1 X216.783 Y87.813 E.01544
G1 X227.581 Y98.612 E.47815
G1 X227.581 Y99.105 E.01544
G1 X216.29 Y87.814 E.49996
G1 X215.797 Y87.814 E.01544
G1 X227.581 Y99.598 E.52179
G1 X227.581 Y100.091 E.01544
G1 X215.304 Y87.814 E.54362
G1 X214.811 Y87.814 E.01544
G1 X227.581 Y100.584 E.56545
G1 X227.581 Y101.077 E.01544
G1 X214.319 Y87.814 E.58726
G1 X213.826 Y87.814 E.01544
G1 X227.581 Y101.57 E.60909
G1 X227.581 Y102.063 E.01544
G1 X213.333 Y87.815 E.6309
G1 X212.84 Y87.815 E.01544
G1 X227.581 Y102.556 E.65273
G1 X227.581 Y103.049 E.01544
G1 X212.347 Y87.815 E.67456
G1 X211.854 Y87.815 E.01544
G1 X227.581 Y103.542 E.69639
G1 X227.581 Y104.035 E.01544
G1 X211.361 Y87.815 E.71822
G1 X210.868 Y87.815 E.01544
G1 X227.581 Y104.528 E.74005
G1 X227.581 Y105.022 E.01547
G1 X210.375 Y87.815 E.7619
G1 X209.882 Y87.816 E.01544
G1 X227.581 Y105.515 E.78371
G1 X227.581 Y106.008 E.01544
G1 X209.389 Y87.816 E.80554
G1 X208.896 Y87.816 E.01544
G1 X227.581 Y106.501 E.82737
G1 X227.581 Y106.994 E.01544
G1 X208.404 Y87.816 E.84917
G1 X207.911 Y87.816 E.01544
G1 X227.581 Y107.487 E.871
G1 X227.581 Y107.98 E.01544
G1 X207.418 Y87.816 E.89283
G1 X206.925 Y87.817 E.01544
G1 X227.581 Y108.473 E.91464
G1 X227.581 Y108.966 E.01544
G1 X206.432 Y87.817 E.93647
G1 X205.939 Y87.817 E.01544
G1 X227.581 Y109.459 E.9583
G1 X227.581 Y109.952 E.01544
G1 X205.446 Y87.817 E.98013
G1 X204.953 Y87.817 E.01544
G1 X227.581 Y110.445 E1.00196
G1 X227.581 Y110.938 E.01544
G1 X204.46 Y87.817 E1.02379
G1 X203.967 Y87.818 E.01544
G1 X227.581 Y111.432 E1.04562
G1 X227.581 Y111.925 E.01544
G1 X203.474 Y87.818 E1.06745
G1 X202.981 Y87.818 E.01544
G1 X227.581 Y112.418 E1.08928
G1 X227.581 Y112.911 E.01544
G1 X202.489 Y87.818 E1.11109
G1 X201.996 Y87.818 E.01544
G1 X227.581 Y113.404 E1.13292
G1 X227.581 Y113.897 E.01544
G1 X201.503 Y87.818 E1.15475
G1 X201.01 Y87.819 E.01544
G1 X227.581 Y114.39 E1.17656
G1 X227.581 Y114.883 E.01544
G1 X200.517 Y87.819 E1.19839
G1 X200.024 Y87.819 E.01544
G1 X227.581 Y115.376 E1.22022
G1 X227.581 Y115.869 E.01544
G1 X199.531 Y87.819 E1.24205
G1 X199.038 Y87.819 E.01544
G1 X227.581 Y116.362 E1.26388
G1 X227.581 Y116.855 E.01544
G1 X198.545 Y87.819 E1.28571
G1 X198.052 Y87.82 E.01544
G1 X227.581 Y117.349 E1.30754
G1 X227.581 Y117.842 E.01544
G1 X197.559 Y87.82 E1.32937
G1 X197.066 Y87.82 E.01544
G1 X227.581 Y118.335 E1.3512
G1 X227.581 Y118.828 E.01544
G1 X196.574 Y87.82 E1.373
G1 X196.081 Y87.82 E.01544
G1 X227.581 Y119.321 E1.39483
G1 X227.581 Y119.814 E.01544
G1 X195.588 Y87.82 E1.41666
G1 X195.095 Y87.821 E.01544
G1 X227.581 Y120.307 E1.43847
G1 X227.581 Y120.8 E.01544
G1 X194.602 Y87.821 E1.4603
G1 X194.109 Y87.821 E.01544
G1 X227.581 Y121.293 E1.48213
G1 X227.581 Y121.786 E.01544
G1 X193.616 Y87.821 E1.50396
G1 X193.123 Y87.821 E.01544
G1 X227.581 Y122.279 E1.52579
G1 X227.581 Y122.772 E.01544
G1 X192.63 Y87.821 E1.54762
G1 X192.137 Y87.822 E.01544
G1 X227.581 Y123.265 E1.56943
G1 X227.581 Y123.759 E.01547
G1 X191.644 Y87.822 E1.59128
G1 X191.151 Y87.822 E.01544
G1 X227.581 Y124.252 E1.61311
G1 X227.581 Y124.745 E.01544
G1 X190.659 Y87.822 E1.63492
G1 X190.166 Y87.822 E.01544
G1 X227.581 Y125.238 E1.65675
G1 X227.581 Y125.731 E.01544
G1 X189.673 Y87.822 E1.67858
G1 X189.18 Y87.822 E.01544
G1 X227.581 Y126.224 E1.70041
G1 X227.581 Y126.717 E.01544
G1 X188.687 Y87.823 E1.72222
G1 X188.194 Y87.823 E.01544
G1 X227.581 Y127.21 E1.74405
G1 X227.581 Y127.703 E.01544
G1 X187.701 Y87.823 E1.76588
G1 X187.208 Y87.823 E.01544
G1 X227.581 Y128.196 E1.78771
G1 X227.581 Y128.689 E.01544
G1 X186.715 Y87.823 E1.80954
G1 X186.222 Y87.823 E.01544
G1 X227.581 Y129.182 E1.83136
G1 X227.581 Y129.676 E.01547
G1 X185.729 Y87.824 E1.85319
G1 X185.236 Y87.824 E.01544
G1 X227.581 Y130.169 E1.87502
G1 X227.581 Y130.662 E.01544
G1 X184.744 Y87.824 E1.89683
G1 X184.251 Y87.824 E.01544
G1 X227.581 Y131.155 E1.91866
G1 X227.581 Y131.648 E.01544
G1 X183.758 Y87.824 E1.94049
G1 X183.265 Y87.824 E.01544
G1 X227.581 Y132.141 E1.96232
G1 X227.581 Y132.634 E.01544
G1 X182.772 Y87.825 E1.98413
G1 X182.279 Y87.825 E.01544
G1 X227.581 Y133.127 E2.00596
G1 X227.581 Y133.62 E.01544
G1 X181.786 Y87.825 E2.02779
G1 X181.293 Y87.825 E.01544
G1 X227.581 Y134.113 E2.04962
G1 X227.581 Y134.606 E.01544
G1 X180.8 Y87.825 E2.07145
G1 X180.307 Y87.825 E.01544
G1 X227.581 Y135.099 E2.09328
G1 X227.581 Y135.592 E.01544
G1 X179.814 Y87.826 E2.11509
G1 X179.321 Y87.826 E.01544
G1 X227.581 Y136.086 E2.13694
G1 X227.581 Y136.579 E.01544
G1 X178.829 Y87.826 E2.15875
G1 X178.336 Y87.826 E.01544
G1 X227.581 Y137.072 E2.18058
G1 X227.581 Y137.565 E.01544
G1 X177.843 Y87.826 E2.20241
G1 X177.35 Y87.826 E.01544
G1 X227.581 Y138.058 E2.22424
G1 X227.581 Y138.551 E.01544
G1 X176.857 Y87.827 E2.24604
G1 X176.364 Y87.827 E.01544
G1 X227.581 Y139.044 E2.26787
G1 X227.581 Y139.537 E.01544
G1 X175.871 Y87.827 E2.2897
G1 X175.378 Y87.827 E.01544
G1 X227.581 Y140.03 E2.31153
G1 X227.581 Y140.523 E.01544
G1 X174.885 Y87.827 E2.33336
G1 X174.392 Y87.827 E.01544
G1 X227.581 Y141.016 E2.35519
G1 X227.581 Y141.509 E.01544
G1 X173.899 Y87.828 E2.377
G1 X173.406 Y87.828 E.01544
G1 X227.581 Y142.003 E2.39885
G1 X227.581 Y142.496 E.01544
G1 X172.914 Y87.828 E2.42066
G1 X172.421 Y87.828 E.01544
G1 X227.581 Y142.989 E2.44249
G1 X227.581 Y143.482 E.01544
G1 X171.928 Y87.828 E2.46432
G1 X171.435 Y87.828 E.01544
G1 X227.581 Y143.975 E2.48615
G1 X227.581 Y144.468 E.01544
G1 X170.942 Y87.829 E2.50796
G1 X170.449 Y87.829 E.01544
G1 X227.581 Y144.961 E2.52979
G1 X227.581 Y145.454 E.01544
G1 X169.956 Y87.829 E2.55162
G1 X169.463 Y87.829 E.01544
G1 X227.581 Y145.947 E2.57345
G1 X227.581 Y146.44 E.01544
G1 X168.97 Y87.829 E2.59528
G1 X168.477 Y87.829 E.01544
G1 X227.581 Y146.933 E2.61711
G1 X227.581 Y147.426 E.01544
G1 X167.984 Y87.829 E2.63894
G1 X167.491 Y87.83 E.01544
G1 X227.581 Y147.919 E2.66075
G1 X227.581 Y148.413 E.01547
G1 X166.999 Y87.83 E2.68258
G1 X166.506 Y87.83 E.01544
G1 X227.581 Y148.906 E2.70441
G1 X227.581 Y149.399 E.01544
G1 X166.013 Y87.83 E2.72624
G1 X165.52 Y87.83 E.01544
G1 X227.581 Y149.892 E2.74807
G1 X227.581 Y150.385 E.01544
G1 X165.027 Y87.83 E2.7699
G1 X164.534 Y87.831 E.01544
G1 X227.581 Y150.878 E2.7917
G1 X227.581 Y151.371 E.01544
G1 X164.041 Y87.831 E2.81353
G1 X163.548 Y87.831 E.01544
G1 X227.581 Y151.864 E2.83536
G1 X227.581 Y152.357 E.01544
G1 X163.055 Y87.831 E2.85719
G1 X162.562 Y87.831 E.01544
G1 X227.581 Y152.85 E2.87902
G1 X227.581 Y153.343 E.01544
G1 X162.069 Y87.831 E2.90085
G1 X161.576 Y87.832 E.01544
G1 X227.581 Y153.836 E2.92266
G1 X227.581 Y154.33 E.01547
G1 X161.084 Y87.832 E2.94449
G1 X160.591 Y87.832 E.01544
G1 X227.581 Y154.823 E2.96632
G1 X227.581 Y155.316 E.01544
G1 X160.098 Y87.832 E2.98815
G1 X159.605 Y87.832 E.01544
G1 X227.581 Y155.809 E3.00998
G1 X227.581 Y156.302 E.01544
G1 X159.112 Y87.832 E3.03181
G1 X158.619 Y87.833 E.01544
G1 X227.581 Y156.795 E3.05362
G1 X227.581 Y157.288 E.01544
G1 X158.126 Y87.833 E3.07545
G1 X157.633 Y87.833 E.01544
G1 X227.581 Y157.781 E3.09728
G1 X227.581 Y158.274 E.01544
G1 X157.14 Y87.833 E3.11911
G1 X156.647 Y87.833 E.01544
G1 X227.581 Y158.767 E3.14094
G1 X227.581 Y159.26 E.01544
G1 X156.154 Y87.833 E3.16277
G1 X155.661 Y87.834 E.01544
G1 X227.581 Y159.753 E3.18458
G1 X227.581 Y160.246 E.01544
G1 X155.169 Y87.834 E3.20638
G1 X154.676 Y87.834 E.01544
G1 X227.581 Y160.74 E3.22824
G1 X227.581 Y161.233 E.01544
G1 X154.183 Y87.834 E3.25007
G1 X153.69 Y87.834 E.01544
G1 X227.581 Y161.726 E3.27189
G1 X227.581 Y162.219 E.01544
G1 X153.197 Y87.834 E3.29372
G1 X152.704 Y87.835 E.01544
G1 X227.581 Y162.712 E3.31553
G1 X227.581 Y163.205 E.01544
G1 X152.211 Y87.835 E3.33736
G1 X151.718 Y87.835 E.01544
G1 X227.581 Y163.698 E3.35919
G1 X227.581 Y164.191 E.01544
G1 X151.225 Y87.835 E3.38102
G1 X150.732 Y87.835 E.01544
G1 X227.581 Y164.684 E3.40285
G1 X227.581 Y165.177 E.01544
G1 X150.239 Y87.835 E3.42468
G1 X149.746 Y87.836 E.01544
G1 X227.581 Y165.67 E3.44649
G1 X227.581 Y166.163 E.01544
G1 X149.254 Y87.836 E3.4683
G1 X148.761 Y87.836 E.01544
G1 X227.581 Y166.657 E3.49015
G1 X227.581 Y167.15 E.01544
G1 X148.268 Y87.836 E3.51198
G1 X147.775 Y87.836 E.01544
G1 X227.581 Y167.643 E3.53381
G1 X227.581 Y168.136 E.01544
G1 X147.282 Y87.836 E3.55564
G1 X146.789 Y87.836 E.01544
G1 X227.581 Y168.629 E3.57747
G1 X227.581 Y169.122 E.01544
G1 X146.296 Y87.837 E3.59928
G1 X145.803 Y87.837 E.01544
G1 X227.581 Y169.615 E3.62111
G1 X227.581 Y170.108 E.01544
G1 X145.31 Y87.837 E3.64294
G1 X144.817 Y87.837 E.01544
G1 X227.581 Y170.601 E3.66477
G1 X227.581 Y171.094 E.01544
G1 X144.324 Y87.837 E3.6866
G1 X143.831 Y87.837 E.01544
G1 X227.581 Y171.587 E3.70843
G1 X227.581 Y172.08 E.01544
G1 X143.339 Y87.838 E3.73021
G1 X142.846 Y87.838 E.01544
G1 X227.581 Y172.573 E3.75204
G1 X227.581 Y173.067 E.01547
G1 X142.353 Y87.838 E3.77389
G1 X141.86 Y87.838 E.01544
G1 X227.581 Y173.56 E3.79572
G1 X227.581 Y174.053 E.01544
G1 X141.367 Y87.838 E3.81755
G1 X140.874 Y87.838 E.01544
G1 X227.581 Y174.546 E3.83938
G1 X227.581 Y175.039 E.01544
G1 X140.381 Y87.839 E3.86119
G1 X139.888 Y87.839 E.01544
G1 X227.581 Y175.532 E3.88302
G1 X227.581 Y176.025 E.01544
G1 X139.395 Y87.839 E3.90485
G1 X138.902 Y87.839 E.01544
G1 X227.581 Y176.518 E3.92668
G1 X227.581 Y177.011 E.01544
G1 X138.409 Y87.839 E3.94851
G1 X137.916 Y87.839 E.01544
G1 X227.581 Y177.504 E3.97034
G1 X227.581 Y177.997 E.01544
G1 X137.424 Y87.84 E3.99213
G1 X136.931 Y87.84 E.01544
G1 X227.581 Y178.49 E4.01396
G1 X227.581 Y178.983 E.01544
G1 X136.438 Y87.84 E4.03579
G1 X135.945 Y87.84 E.01544
G1 X227.581 Y179.477 E4.05764
G1 X227.581 Y179.97 E.01544
G1 X135.452 Y87.84 E4.07947
G1 X134.959 Y87.84 E.01544
G1 X227.581 Y180.463 E4.1013
G1 X227.581 Y180.956 E.01544
G1 X134.466 Y87.841 E4.12311
G1 X133.973 Y87.841 E.01544
G1 X227.581 Y181.449 E4.14494
G1 X227.581 Y181.942 E.01544
G1 X133.48 Y87.841 E4.16677
G1 X132.987 Y87.841 E.01544
G1 X227.581 Y182.435 E4.1886
G1 X227.581 Y182.928 E.01544
G1 X132.494 Y87.841 E4.21043
G1 X132.001 Y87.841 E.01544
