; generated by PrusaSlicer 2.6.0-alpha6+win64 on 2023-07-28 at 14:35:48 UTC

; 

; external perimeters extrusion width = 0.40mm
; perimeters extrusion width = 0.40mm
; infill extrusion width = 0.40mm
; solid infill extrusion width = 0.40mm
; top infill extrusion width = 0.40mm
; support material extrusion width = 0.40mm
; first layer extrusion width = 0.40mm

M190 S55 ; set bed temperature and wait for it to be reached
M104 S210 ; set temperature
;TYPE:Custom
print_start EXTRUDER=210 BED=55
M109 S210 ; set temperature and wait for it to be reached
G21 ; set units to millimeters
G90 ; use absolute coordinates
M83 ; use relative distances for extrusion
;Filament gcode
M107
;LAYER_CHANGE
;Z:0.24
;HEIGHT:0.24
G1 Z.24 F6000
G1 E-.75 F3000
G1 X53.93 Y32.82 F6000
G1 E.75 F1800
M204 S3000
;TYPE:Skirt/Brim
;WIDTH:0.4
G1 F4800
G1 X54.815 Y31.966 E.03849
G1 X55.891 Y31.371 E.03848
G1 X56.911 Y31.098 E.03305
G1 X57.613 Y31.041 E.02204
G1 X233.33 Y31.075 E5.49919
G1 X234.685 Y31.438 E.0439
G1 X235.6 Y31.966 E.03306
G1 X236.485 Y32.82 E.03849
G1 X237.187 Y34.034 E.04389
G1 X237.46 Y35.054 E.03305
G1 X237.517 Y35.756 E.02204
G1 X237.517 Y159.366 E3.86846
G1 X237.46 Y160.068 E.02204
G1 X237.119 Y161.25 E.0385
G1 X236.485 Y162.303 E.03847
G1 X235.6 Y163.156 E.03847
G1 X234.523 Y163.751 E.03851
G1 X233.503 Y164.024 E.03305
G1 X232.802 Y164.082 E.02201
G1 X57.613 Y164.082 E5.48267
G1 X56.911 Y164.024 E.02204
G1 X55.73 Y163.684 E.03846
G1 X54.676 Y163.049 E.03851
G1 X53.823 Y162.164 E.03847
G1 X53.228 Y161.088 E.03848
G1 X52.955 Y160.068 E.03305
G1 X52.897 Y159.366 E.02204
G1 X52.897 Y35.756 E3.86846
G1 X52.955 Y35.055 E.02201
G1 X53.295 Y33.873 E.03849
G1 X53.899 Y32.871 E.03661
M204 S10000
G1 X54.195 Y33.05 F6000
M204 S3000
G1 F4800
G1 X55.027 Y32.243 E.03627
G1 X56.025 Y31.693 E.03566
G1 X56.957 Y31.444 E.03019
G1 X57.613 Y31.389 E.0206
G1 X233.284 Y31.421 E5.49775
G1 X234.552 Y31.76 E.04108
G1 X235.426 Y32.273 E.03172
G1 X236.209 Y33.032 E.03413
G1 X236.865 Y34.168 E.04105
G1 X237.114 Y35.1 E.03019
G1 X237.169 Y35.756 E.0206
G1 X237.169 Y159.366 E3.86846
G1 X237.114 Y160.022 E.0206
G1 X236.798 Y161.116 E.03564
G1 X236.209 Y162.09 E.03562
G1 X235.388 Y162.879 E.03564
G1 X234.39 Y163.429 E.03566
G1 X233.458 Y163.679 E.0302
G1 X232.802 Y163.733 E.0206
G1 X57.613 Y163.733 E5.48267
G1 X56.957 Y163.679 E.0206
G1 X55.863 Y163.362 E.03565
G1 X54.889 Y162.773 E.03562
G1 X54.1 Y161.952 E.03564
G1 X53.55 Y160.954 E.03566
G1 X53.3 Y160.022 E.0302
G1 X53.246 Y159.366 E.0206
G1 X53.246 Y35.756 E3.86846
G1 X53.3 Y35.1 E.0206
G1 X53.617 Y34.006 E.03565
G1 X54.164 Y33.102 E.03307
M204 S10000
G1 X54.46 Y33.281 F6000
M204 S3000
G1 F4800
G1 X55.239 Y32.519 E.0341
G1 X56.158 Y32.015 E.0328
G1 X57.002 Y31.789 E.02734
G1 X57.613 Y31.738 E.01919
G1 X233.239 Y31.766 E5.49634
G1 X234.418 Y32.082 E.0382
G1 X235.175 Y32.519 E.02736
G1 X235.932 Y33.244 E.0328
G1 X236.543 Y34.301 E.03821
G1 X236.769 Y35.146 E.02737
G1 X236.82 Y35.756 E.01916
G1 X236.82 Y159.366 E3.86846
G1 X236.769 Y159.977 E.01919
G1 X236.476 Y160.983 E.03279
G1 X235.932 Y161.878 E.03278
G1 X235.175 Y162.603 E.0328
G1 X234.257 Y163.107 E.03277
G1 X233.412 Y163.333 E.02737
G1 X232.802 Y163.385 E.01916
G1 X57.613 Y163.385 E5.48267
G1 X57.002 Y163.333 E.01919
G1 X55.996 Y163.04 E.03279
G1 X55.101 Y162.496 E.03278
G1 X54.376 Y161.739 E.0328
G1 X53.872 Y160.821 E.03277
G1 X53.646 Y159.977 E.02734
G1 X53.594 Y159.366 E.01919
G1 X53.594 Y35.756 E3.86846
G1 X53.646 Y35.146 E.01916
G1 X53.939 Y34.14 E.03279
G1 X54.429 Y33.333 E.02955
M204 S10000
; printing object top (1) (1).stl id:0 copy 0
G1 E-.75 F3000
G1 X82.557 Y142.485 F6000
G1 E.75 F1800
M204 S3000
;TYPE:Perimeter
;WIDTH:0.399999
G1 F4800
G1 X82.156 Y142.536 E.01265
G1 X81.659 Y142.467 E.0157
G1 X81.19 Y142.266 E.01597
G1 X80.796 Y141.952 E.01577
G1 X80.523 Y141.589 E.01421
G1 X74.621 Y131.367 E.3694
G1 X74.423 Y130.875 E.0166
G1 X74.375 Y130.306 E.01787
G1 X74.469 Y129.821 E.01546
G1 X74.685 Y129.376 E.01548
G1 X75.009 Y129.003 E.01546
G1 X75.315 Y128.778 E.01189
G1 X85.537 Y122.876 E.3694
G1 X86.031 Y122.678 E.01666
G1 X86.357 Y122.632 E.0103
G1 X86.863 Y122.665 E.01587
G1 X87.33 Y122.826 E.01546
G1 X87.74 Y123.103 E.01549
G1 X88.126 Y123.57 E.01896
G1 X94.028 Y133.792 E.3694
G1 X94.218 Y134.252 E.01558
G1 X94.281 Y134.748 E.01565
G1 X94.201 Y135.281 E.01687
G1 X93.964 Y135.782 E.01734
G1 X93.64 Y136.156 E.01549
G1 X93.334 Y136.381 E.01189
G1 X83.112 Y142.283 E.3694
G1 X82.616 Y142.477 E.01667
M204 S10000
G1 X82.567 Y142.122 F6000
M204 S3000
G1 F4800
G1 X82.499 Y142.148 E.00228
G1 X82.097 Y142.183 E.01263
G1 X81.642 Y142.089 E.01454
G1 X81.322 Y141.933 E.01114
G1 X81.025 Y141.683 E.01215
G1 X80.825 Y141.415 E.01047
G1 X74.923 Y131.193 E.3694
G1 X74.756 Y130.754 E.0147
G1 X74.721 Y130.352 E.01263
G1 X74.791 Y129.954 E.01265
G1 X74.962 Y129.589 E.01261
G1 X75.221 Y129.28 E.01262
G1 X75.489 Y129.08 E.01047
G1 X85.711 Y123.178 E.3694
G1 X86.15 Y123.011 E.0147
G1 X86.402 Y122.977 E.00796
G1 X86.876 Y123.022 E.0149
G1 X87.315 Y123.217 E.01503
G1 X87.624 Y123.476 E.01262
G1 X87.824 Y123.744 E.01047
G1 X93.726 Y133.966 E.3694
G1 X93.893 Y134.405 E.0147
G1 X93.928 Y134.807 E.01263
G1 X93.84 Y135.248 E.01407
G1 X93.678 Y135.582 E.01162
G1 X93.428 Y135.879 E.01215
G1 X93.16 Y136.079 E.01047
G1 X82.938 Y141.981 E.3694
G1 X82.623 Y142.101 E.01055
M204 S10000
G1 X82.453 Y141.803 F6000
M204 S3000
;TYPE:External perimeter
G1 F4800
G1 X82.142 Y141.838 E.00979
G1 X81.775 Y141.767 E.0117
G1 X81.534 Y141.657 E.00829
G1 X81.301 Y141.47 E.00935
G1 X81.126 Y141.24 E.00904
G1 X75.225 Y131.018 E.36938
G1 X75.101 Y130.708 E.01045
G1 X75.066 Y130.397 E.00979
G1 X75.113 Y130.088 E.00978
G1 X75.238 Y129.801 E.0098
G1 X75.433 Y129.556 E.0098
G1 X75.663 Y129.381 E.00904
G1 X85.885 Y123.48 E.36938
G1 X86.196 Y123.356 E.01048
G1 X86.447 Y123.323 E.00792
G1 X86.816 Y123.368 E.01163
G1 X87.103 Y123.493 E.0098
G1 X87.348 Y123.688 E.0098
G1 X87.522 Y123.918 E.00903
G1 X93.424 Y134.14 E.3694
G1 X93.548 Y134.451 E.01048
G1 X93.583 Y134.762 E.00979
G1 X93.518 Y135.115 E.01123
G1 X93.402 Y135.369 E.00874
G1 X93.215 Y135.603 E.00937
G1 X92.985 Y135.777 E.00903
G1 X82.763 Y141.679 E.3694
G1 X82.509 Y141.78 E.00855
M204 S10000
G1 X82.368 Y142.104 F6000
G1 E-.75 F3000
G1 X110.471 Y124.827 F6000
G1 E.75 F1800
M204 S3000
;TYPE:Perimeter
G1 F4800
G1 X110.52 Y124.958 E.00438
G1 X110.555 Y125.453 E.01553
G1 X110.461 Y125.938 E.01546
G1 X110.236 Y126.394 E.01591
G1 X109.921 Y126.756 E.01502
G1 X109.615 Y126.981 E.01189
G1 X99.393 Y132.883 E.3694
G1 X98.933 Y133.073 E.01558
G1 X98.437 Y133.136 E.01565
G1 X97.904 Y133.056 E.01687
G1 X97.403 Y132.819 E.01734
G1 X97.029 Y132.495 E.01549
G1 X96.804 Y132.189 E.01189
G1 X90.902 Y121.967 E.3694
G1 X90.713 Y121.507 E.01556
G1 X90.649 Y121.011 E.01565
G1 X90.718 Y120.514 E.0157
G1 X90.919 Y120.045 E.01597
G1 X91.274 Y119.616 E.01743
G1 X91.596 Y119.378 E.01253
G1 X101.818 Y113.476 E.3694
G1 X102.266 Y113.29 E.01518
G1 X102.751 Y113.224 E.01532
G1 X103.29 Y113.297 E.01702
G1 X103.748 Y113.497 E.01564
G1 X104.178 Y113.859 E.01759
G1 X104.407 Y114.17 E.01209
G1 X110.309 Y124.392 E.3694
G1 X110.45 Y124.771 E.01266
M204 S10000
G1 X110.149 Y124.937 F6000
M204 S3000
G1 F4800
G1 X110.175 Y125.005 E.00228
G1 X110.209 Y125.407 E.01263
G1 X110.121 Y125.848 E.01407
G1 X109.96 Y126.182 E.0116
G1 X109.709 Y126.479 E.01217
G1 X109.441 Y126.679 E.01047
G1 X99.219 Y132.581 E.3694
G1 X98.78 Y132.748 E.0147
G1 X98.378 Y132.783 E.01263
G1 X97.981 Y132.713 E.01262
G1 X97.615 Y132.542 E.01264
G1 X97.306 Y132.283 E.01262
G1 X97.106 Y132.015 E.01047
G1 X91.204 Y121.793 E.3694
G1 X91.037 Y121.354 E.0147
G1 X91.002 Y120.952 E.01263
G1 X91.096 Y120.497 E.01454
G1 X91.252 Y120.177 E.01114
G1 X91.541 Y119.85 E.01366
G1 X92.27 Y119.391 E.02696
G1 X101.992 Y113.778 E.35133
G1 X102.431 Y113.611 E.0147
G1 X102.812 Y113.577 E.01197
G1 X103.231 Y113.646 E.01329
G1 X103.596 Y113.817 E.01261
G1 X103.914 Y114.087 E.01306
G1 X104.105 Y114.344 E.01002
G1 X110.007 Y124.566 E.3694
G1 X110.127 Y124.881 E.01055
M204 S10000
G1 X109.829 Y125.051 F6000
M204 S3000
;TYPE:External perimeter
G1 F4800
G1 X109.864 Y125.362 E.00979
G1 X109.799 Y125.715 E.01123
G1 X109.683 Y125.969 E.00874
G1 X109.497 Y126.203 E.00935
G1 X109.267 Y126.377 E.00903
G1 X99.045 Y132.279 E.3694
G1 X98.734 Y132.403 E.01048
G1 X98.423 Y132.438 E.00979
G1 X98.114 Y132.391 E.00978
G1 X97.827 Y132.266 E.0098
G1 X97.582 Y132.07 E.00982
G1 X97.408 Y131.84 E.00903
G1 X91.506 Y121.618 E.3694
G1 X91.382 Y121.308 E.01045
G1 X91.347 Y120.997 E.00979
G1 X91.418 Y120.63 E.0117
G1 X91.528 Y120.389 E.00829
G1 X91.753 Y120.126 E.01083
G1 X92.444 Y119.693 E.02552
G1 X102.167 Y114.08 E.35135
G1 X102.477 Y113.956 E.01045
G1 X102.771 Y113.923 E.00926
G1 X103.097 Y113.968 E.0103
G1 X103.384 Y114.093 E.0098
G1 X103.637 Y114.299 E.01021
G1 X103.804 Y114.518 E.00862
G1 X109.705 Y124.74 E.36938
G1 X109.807 Y124.995 E.0086
M204 S10000
G1 X110.13 Y125.136 F6000
G1 E-.75 F3000
G1 X99.026 Y84.379 F6000
G1 E.75 F1800
M204 S3000
;TYPE:Perimeter
G1 F4800
G1 X99.111 Y84.28 E.00408
G1 X99.52 Y84.004 E.01544
G1 X99.963 Y83.85 E.01468
G1 X100.365 Y83.8 E.01268
G1 X112.169 Y83.8 E.36941
G1 X112.64 Y83.86 E.01486
G1 X113.013 Y84.004 E.01251
G1 X113.423 Y84.281 E.01549
G1 X113.747 Y84.654 E.01546
G1 X113.963 Y85.098 E.01545
G1 X114.064 Y85.695 E.01895
G1 X114.064 Y97.499 E.36941
G1 X114.016 Y97.913 E.01304
G1 X113.86 Y98.344 E.01434
G1 X113.584 Y98.753 E.01544
G1 X113.21 Y99.077 E.01549
G1 X112.766 Y99.293 E.01545
G1 X112.282 Y99.387 E.01543
G1 X111.315 Y99.394 E.03026
G1 X100.365 Y99.394 E.34269
G1 X99.853 Y99.323 E.01618
G1 X99.389 Y99.122 E.01583
G1 X98.96 Y98.766 E.01745
G1 X98.673 Y98.344 E.01597
G1 X98.519 Y97.901 E.01468
G1 X98.47 Y97.499 E.01267
G1 X98.47 Y85.688 E.36963
G1 X98.549 Y85.156 E.01683
G1 X98.768 Y84.679 E.01643
G1 X98.987 Y84.425 E.0105
M204 S10000
G1 X99.279 Y84.609 F6000
M204 S3000
G1 F4800
G1 X99.323 Y84.557 E.00213
G1 X99.654 Y84.326 E.01263
G1 X100.088 Y84.183 E.0143
G1 X100.365 Y84.149 E.00873
G1 X112.169 Y84.149 E.36941
G1 X112.632 Y84.223 E.01467
G1 X112.998 Y84.394 E.01264
G1 X113.307 Y84.653 E.01262
G1 X113.538 Y84.984 E.01263
G1 X113.676 Y85.363 E.01262
G1 X113.715 Y85.695 E.01046
G1 X113.715 Y97.499 E.36941
G1 X113.641 Y97.963 E.0147
G1 X113.47 Y98.328 E.01261
G1 X113.211 Y98.637 E.01262
G1 X112.88 Y98.869 E.01265
G1 X112.501 Y99.006 E.01261
G1 X112.169 Y99.046 E.01047
G1 X100.365 Y99.046 E.36941
G1 X99.901 Y98.971 E.01471
G1 X99.536 Y98.8 E.01261
G1 X99.227 Y98.541 E.01262
G1 X98.995 Y98.21 E.01265
G1 X98.864 Y97.851 E.01196
G1 X98.818 Y97.499 E.01111
G1 X98.818 Y85.691 E.36954
G1 X98.893 Y85.232 E.01456
G1 X99.064 Y84.866 E.01264
G1 X99.241 Y84.655 E.00862
M204 S10000
G1 X99.535 Y84.833 F6000
M204 S3000
;TYPE:External perimeter
G1 F4800
G1 X99.787 Y84.648 E.00978
G1 X100.138 Y84.528 E.01161
G1 X100.365 Y84.497 E.00717
G1 X112.169 Y84.497 E.36941
G1 X112.499 Y84.545 E.01044
G1 X112.786 Y84.67 E.0098
G1 X113.031 Y84.866 E.00982
G1 X113.216 Y85.118 E.00978
G1 X113.331 Y85.409 E.00979
G1 X113.367 Y85.695 E.00902
G1 X113.367 Y97.499 E.36941
G1 X113.319 Y97.829 E.01044
G1 X113.194 Y98.116 E.0098
G1 X112.998 Y98.361 E.00982
G1 X112.747 Y98.547 E.00978
G1 X112.455 Y98.661 E.00981
G1 X112.169 Y98.697 E.00902
G1 X100.365 Y98.697 E.36941
G1 X100.035 Y98.649 E.01044
G1 X99.748 Y98.524 E.0098
G1 X99.503 Y98.329 E.0098
G1 X99.275 Y97.974 E.0132
G1 X99.209 Y97.801 E.00579
G1 X99.167 Y97.499 E.00954
G1 X99.167 Y85.694 E.36945
G1 X99.215 Y85.365 E.01041
G1 X99.34 Y85.078 E.0098
G1 X99.498 Y84.88 E.00793
M204 S10000
G1 X99.46 Y84.53 F6000
G1 E-.75 F3000
G1 X93.839 Y83.938 F6000
G1 E.75 F1800
M204 S3000
;TYPE:Perimeter
G1 F4800
G1 X93.962 Y83.993 E.00422
G1 X94.358 Y84.303 E.01574
G1 X94.69 Y84.719 E.01666
G1 X94.956 Y85.284 E.01954
G1 X95.067 Y85.897 E.0195
G1 X95.075 Y97.514 E.36356
G1 X95.015 Y98.021 E.01598
G1 X94.804 Y98.609 E.01955
G1 X94.69 Y98.806 E.00712
G1 X94.291 Y99.28 E.01939
G1 X93.825 Y99.616 E.01798
G1 X93.331 Y99.819 E.01671
G1 X93.053 Y99.892 E.009
G1 X93.447 Y100.232 E.01629
G1 X93.74 Y100.662 E.01628
G1 X93.91 Y101.149 E.01614
G1 X93.949 Y101.672 E.01641
G1 X93.852 Y102.183 E.01628
G1 X93.64 Y102.626 E.01537
G1 X93.315 Y103.022 E.01603
G1 X92.856 Y103.338 E.01744
G1 X92.365 Y103.51 E.01628
G1 X91.846 Y103.548 E.01629
G1 X91.335 Y103.451 E.01628
G1 X90.866 Y103.225 E.01629
G1 X90.472 Y102.885 E.01629
G1 X90.18 Y102.455 E.01627
G1 X90.008 Y101.963 E.01631
G1 X89.97 Y101.444 E.01629
G1 X90.067 Y100.933 E.01628
G1 X90.293 Y100.465 E.01626
G1 X90.633 Y100.071 E.01629
G1 X90.843 Y99.91 E.00828
G1 X82.176 Y99.91 E.27124
G1 X82.547 Y100.232 E.01537
G1 X82.84 Y100.662 E.01628
G1 X83.011 Y101.153 E.01627
G1 X83.049 Y101.672 E.01629
G1 X82.952 Y102.183 E.01628
G1 X82.74 Y102.626 E.01537
G1 X82.422 Y103.016 E.01575
G1 X82.006 Y103.316 E.01605
G1 X81.512 Y103.502 E.01652
G1 X81.005 Y103.554 E.01595
G1 X80.486 Y103.47 E.01645
G1 X80.027 Y103.267 E.01571
G1 X79.613 Y102.934 E.01663
G1 X79.303 Y102.506 E.01654
G1 X79.116 Y102.01 E.01659
G1 X79.066 Y101.482 E.0166
G1 X79.154 Y100.968 E.01632
G1 X79.379 Y100.49 E.01653
G1 X79.733 Y100.071 E.01717
G1 X80.163 Y99.778 E.01628
G1 X80.29 Y99.726 E.00429
G1 X79.915 Y99.541 E.01309
G1 X79.487 Y99.212 E.01689
G1 X79.165 Y98.806 E.01622
G1 X78.899 Y98.241 E.01954
G1 X78.788 Y97.628 E.0195
G1 X78.781 Y96.54 E.03405
G1 X78.781 Y86.011 E.32951
G1 X78.84 Y85.504 E.01597
G1 X79.018 Y84.995 E.01688
G1 X79.165 Y84.719 E.00979
G1 X79.497 Y84.303 E.01666
G1 X79.893 Y83.993 E.01574
G1 X80.52 Y83.711 E.02152
G1 X80.142 Y83.443 E.0145
G1 X79.811 Y83.056 E.01594
G1 X79.585 Y82.587 E.01629
G1 X79.488 Y82.076 E.01628
G1 X79.526 Y81.558 E.01625
G1 X79.698 Y81.066 E.01631
G1 X79.99 Y80.636 E.01627
G1 X80.384 Y80.296 E.01629
G1 X80.853 Y80.07 E.01629
G1 X81.347 Y79.975 E.01574
G1 X81.87 Y80.01 E.0164
G1 X82.374 Y80.183 E.01668
G1 X82.804 Y80.475 E.01627
G1 X83.144 Y80.869 E.01629
G1 X83.37 Y81.338 E.01629
G1 X83.467 Y81.849 E.01628
G1 X83.429 Y82.368 E.01629
G1 X83.258 Y82.859 E.01627
G1 X82.965 Y83.289 E.01628
G1 X82.588 Y83.616 E.01562
G1 X91.267 Y83.616 E.27162
G1 X90.89 Y83.289 E.01562
G1 X90.598 Y82.859 E.01627
G1 X90.426 Y82.368 E.01628
G1 X90.388 Y81.849 E.01629
G1 X90.485 Y81.338 E.01628
G1 X90.697 Y80.894 E.0154
G1 X91.051 Y80.475 E.01717
G1 X91.481 Y80.183 E.01627
G1 X91.972 Y80.011 E.01628
G1 X92.463 Y79.974 E.01541
G1 X93.002 Y80.07 E.01713
G1 X93.471 Y80.296 E.01629
G1 X93.865 Y80.636 E.01629
G1 X94.158 Y81.066 E.01628
G1 X94.329 Y81.558 E.0163
G1 X94.367 Y82.076 E.01625
G1 X94.27 Y82.587 E.01628
G1 X94.044 Y83.056 E.01629
G1 X93.713 Y83.443 E.01594
G1 X93.335 Y83.711 E.0145
G1 X93.785 Y83.913 E.01544
M204 S10000
G1 X93.695 Y84.247 F6000
M204 S3000
G1 F4800
G1 X93.759 Y84.276 E.0022
G1 X94.171 Y84.615 E.0167
G1 X94.477 Y85.038 E.01634
G1 X94.664 Y85.513 E.01598
G1 X94.726 Y86.011 E.01571
G1 X94.726 Y97.514 E.35999
G1 X94.659 Y98.032 E.01635
G1 X94.463 Y98.517 E.01637
G1 X94.414 Y98.594 E.00286
G1 X94.077 Y99.005 E.01663
G1 X93.671 Y99.303 E.01576
G1 X93.141 Y99.505 E.01775
;WIDTH:0.410607
G1 X92.536 Y99.566 E.01961
G1 X92.025 Y99.563 E.01648
;WIDTH:0.414602
G1 X90.872 Y99.561 E.0376
;WIDTH:0.399999
G1 X81.93 Y99.561 E.27985
;WIDTH:0.406387
G1 X81.176 Y99.564 E.02403
G1 X80.583 Y99.47 E.01913
;WIDTH:0.399999
G1 X80.123 Y99.262 E.0158
G1 X79.684 Y98.91 E.01761
G1 X79.38 Y98.492 E.01618
G1 X79.191 Y98.008 E.01626
G1 X79.129 Y97.459 E.01729
G1 X79.129 Y86.011 E.35827
G1 X79.193 Y85.508 E.01587
G1 X79.377 Y85.041 E.01571
G1 X79.684 Y84.615 E.01643
G1 X80.096 Y84.276 E.0167
G1 X80.583 Y84.056 E.01672
;WIDTH:0.414436
G1 X81.107 Y83.961 E.01736
;WIDTH:0.424413
G1 X82.566 Y83.964 E.04886
;WIDTH:0.399999
G1 X91.506 Y83.964 E.27978
;WIDTH:0.405149
G1 X92.286 Y83.962 E.02477
;WIDTH:0.407896
G1 X92.93 Y83.989 E.02063
G1 X93.356 Y84.09 E.01401
;WIDTH:0.399999
G1 X93.641 Y84.222 E.00983
M204 S10000
G1 X93.547 Y84.553 F6000
M204 S3000
;TYPE:External perimeter
G1 F4800
G1 X93.895 Y84.828 E.01388
G1 X94.16 Y85.183 E.01386
G1 X94.335 Y85.673 E.01628
G1 X94.378 Y86.011 E.01066
G1 X94.378 Y97.514 E.35999
