; generated by PrusaSlicer 2.6.0-alpha6+win64 on 2023-07-28 at 14:10:46 UTC

; 

; external perimeters extrusion width = 0.40mm
; perimeters extrusion width = 0.40mm
; infill extrusion width = 0.40mm
; solid infill extrusion width = 0.40mm
; top infill extrusion width = 0.40mm
; support material extrusion width = 0.40mm
; first layer extrusion width = 0.40mm

M190 S55 ; set bed temperature and wait for it to be reached
M104 S210 ; set temperature
;TYPE:Custom
print_start EXTRUDER=210 BED=55
M109 S210 ; set temperature and wait for it to be reached
G21 ; set units to millimeters
G90 ; use absolute coordinates
M83 ; use relative distances for extrusion
;Filament gcode
M107
;LAYER_CHANGE
;Z:0.24
;HEIGHT:0.24
G1 Z.24 F6000
G1 E-.75 F3000
G1 X56.883 Y44.421 F6000
G1 E.75 F1800
M204 S3000
;TYPE:Skirt/Brim
;WIDTH:0.4
G1 F4800
G1 X57.84 Y43.513 E.04129
G1 X59 Y42.884 E.0413
G1 X60.02 Y42.61 E.03305
G1 X60.811 Y42.541 E.02485
G1 X236.528 Y42.576 E5.49919
G1 X238.057 Y42.985 E.04953
G1 X239.158 Y43.657 E.04037
G1 X239.928 Y44.421 E.03395
G1 X240.72 Y45.792 E.04955
G1 X240.993 Y46.811 E.03301
G1 X241.062 Y47.603 E.02488
G1 X241.062 Y171.213 E3.86846
G1 X240.993 Y172.004 E.02485
G1 X240.618 Y173.269 E.04129
G1 X239.928 Y174.394 E.0413
G1 X238.971 Y175.302 E.04129
G1 X237.811 Y175.932 E.04131
G1 X236.791 Y176.205 E.03305
G1 X236 Y176.274 E.02485
G1 X60.811 Y176.274 E5.48267
G1 X60.02 Y176.205 E.02485
G1 X58.755 Y175.83 E.04129
G1 X57.63 Y175.141 E.04129
G1 X56.722 Y174.184 E.04129
G1 X56.092 Y173.024 E.04131
G1 X55.819 Y172.004 E.03305
G1 X55.749 Y171.213 E.02485
G1 X55.749 Y47.603 E3.86846
G1 X55.819 Y46.812 E.02485
G1 X56.194 Y45.546 E.04132
G1 X56.852 Y44.472 E.03942
M204 S10000
G1 X57.147 Y44.654 F6000
M204 S3000
G1 F4800
G1 X58.053 Y43.79 E.03918
G1 X59.133 Y43.206 E.03842
G1 X60.066 Y42.956 E.03023
G1 X60.811 Y42.889 E.02341
G1 X236.483 Y42.921 E5.49778
G1 X237.923 Y43.307 E.04666
G1 X238.946 Y43.933 E.03753
G1 X239.652 Y44.633 E.03111
G1 X240.398 Y45.925 E.04669
G1 X240.647 Y46.857 E.03019
G1 X240.713 Y47.603 E.02344
G1 X240.713 Y171.213 E3.86846
G1 X240.647 Y171.959 E.02344
G1 X240.296 Y173.135 E.03841
G1 X239.652 Y174.182 E.03847
G1 X238.759 Y175.026 E.03845
G1 X237.678 Y175.61 E.03845
G1 X236.746 Y175.86 E.0302
G1 X236 Y175.926 E.02344
G1 X60.811 Y175.926 E5.48267
G1 X60.066 Y175.86 E.02341
G1 X58.888 Y175.508 E.03848
G1 X57.842 Y174.864 E.03844
G1 X56.998 Y173.971 E.03845
G1 X56.414 Y172.89 E.03845
G1 X56.164 Y171.958 E.0302
G1 X56.098 Y171.213 E.02341
G1 X56.098 Y47.603 E3.86846
G1 X56.164 Y46.857 E.02344
G1 X56.516 Y45.68 E.03845
G1 X57.115 Y44.705 E.03581
M204 S10000
G1 X57.41 Y44.888 F6000
M204 S3000
G1 F4800
G1 X58.265 Y44.066 E.03712
G1 X59.267 Y43.527 E.03561
G1 X60.111 Y43.301 E.02734
G1 X60.811 Y43.238 E.022
G1 X236.437 Y43.267 E5.49634
G1 X237.79 Y43.629 E.04383
G1 X238.734 Y44.21 E.03469
G1 X239.375 Y44.846 E.02826
G1 X240.076 Y46.059 E.04384
G1 X240.302 Y46.902 E.02731
G1 X240.365 Y47.603 E.02203
G1 X240.365 Y171.213 E3.86846
G1 X240.302 Y171.913 E.022
G1 X239.974 Y173.002 E.03559
G1 X239.375 Y173.97 E.03563
G1 X238.547 Y174.749 E.03558
G1 X237.545 Y175.288 E.03561
G1 X236.7 Y175.514 E.02737
G1 X236 Y175.577 E.022
G1 X60.811 Y175.577 E5.48267
G1 X60.111 Y175.514 E.022
G1 X59.022 Y175.186 E.03559
G1 X58.054 Y174.588 E.03561
G1 X57.275 Y173.759 E.0356
G1 X56.736 Y172.757 E.03561
G1 X56.51 Y171.913 E.02734
G1 X56.446 Y171.213 E.022
G1 X56.446 Y47.603 E3.86846
G1 X56.51 Y46.903 E.022
G1 X56.838 Y45.813 E.03562
G1 X57.379 Y44.939 E.03217
M204 S10000
; printing object bottom (1) (1).stl id:0 copy 0
G1 E-.75 F3000
G1 X236.073 Y47.519 F6000
G1 E.75 F1800
M204 S3000
;TYPE:Perimeter
;WIDTH:0.399999
G1 F4800
G1 X236.119 Y47.674 E.00506
G1 X236.119 Y171.141 E3.86398
G1 X236.088 Y171.28 E.00446
G1 X235.941 Y171.332 E.00488
G1 X60.883 Y171.332 E5.47856
G1 X60.744 Y171.3 E.00446
G1 X60.692 Y171.154 E.00485
G1 X60.692 Y47.674 E3.86439
G1 X60.723 Y47.535 E.00446
G1 X60.87 Y47.483 E.00488
G1 X235.929 Y47.483 E5.47859
G1 X236.014 Y47.504 E.00274
M204 S10000
G1 X236.383 Y47.353 F6000
M204 S3000
G1 F4800
G1 X236.401 Y47.371 E.0008
G1 X236.468 Y47.674 E.00971
G1 X236.468 Y171.141 E3.86398
G1 X236.401 Y171.444 E.00971
G1 X236.232 Y171.614 E.0075
G1 X235.964 Y171.68 E.00864
G1 X60.883 Y171.68 E5.47928
G1 X60.58 Y171.614 E.0097
G1 X60.41 Y171.444 E.00752
G1 X60.343 Y171.177 E.00862
G1 X60.343 Y47.674 E3.86511
G1 X60.41 Y47.371 E.00971
G1 X60.58 Y47.202 E.0075
G1 X60.847 Y47.135 E.00862
G1 X235.929 Y47.135 E5.47931
G1 X236.237 Y47.206 E.00989
G1 X236.341 Y47.311 E.00463
M204 S10000
G1 X236.637 Y47.106 F6000
M204 S3000
;TYPE:External perimeter
G1 F4800
G1 X236.787 Y47.392 E.01011
G1 X236.816 Y47.674 E.00887
G1 X236.816 Y171.2 E3.86583
G1 X236.746 Y171.522 E.01031
G1 X236.576 Y171.789 E.00991
G1 X236.309 Y171.959 E.00991
G1 X235.987 Y172.029 E.01031
G1 X60.824 Y172.029 E5.48184
G1 X60.502 Y171.959 E.01031
G1 X60.235 Y171.789 E.00991
G1 X60.065 Y171.522 E.00991
G1 X59.995 Y171.2 E.01031
G1 X59.995 Y47.616 E3.86764
G1 X60.065 Y47.294 E.01031
G1 X60.235 Y47.027 E.00991
G1 X60.502 Y46.857 E.00991
G1 X60.824 Y46.786 E.01032
G1 X235.929 Y46.786 E5.48003
G1 X236.045 Y46.794 E.00364
G1 X236.41 Y46.899 E.01189
G1 X236.593 Y47.066 E.00775
M204 S10000
G1 X236.522 Y47.408 F6000
G1 X236.015 Y48.293
M204 S3000
;TYPE:Solid infill
;WIDTH:0.400301
G1 F4800
G1 X235.467 Y47.745 E.02427
G1 X234.973 Y47.745 E.01547
G1 X235.858 Y48.63 E.0392
G1 X235.858 Y49.123 E.01544
G1 X234.48 Y47.745 E.06104
G1 X233.987 Y47.745 E.01544
G1 X235.858 Y49.616 E.08288
G1 X235.858 Y50.109 E.01544
G1 X233.494 Y47.745 E.10472
G1 X233 Y47.745 E.01547
G1 X235.858 Y50.603 E.1266
G1 X235.858 Y51.096 E.01544
G1 X232.507 Y47.745 E.14844
G1 X232.014 Y47.745 E.01544
G1 X235.858 Y51.589 E.17028
G1 X235.858 Y52.083 E.01547
G1 X231.52 Y47.745 E.19216
G1 X231.027 Y47.745 E.01544
G1 X235.858 Y52.576 E.214
G1 X235.858 Y53.069 E.01544
G1 X230.534 Y47.745 E.23584
G1 X230.041 Y47.745 E.01544
G1 X235.858 Y53.562 E.25768
G1 X235.858 Y54.056 E.01547
G1 X229.547 Y47.745 E.27956
G1 X229.054 Y47.745 E.01544
G1 X235.858 Y54.549 E.3014
G1 X235.858 Y55.042 E.01544
G1 X228.561 Y47.745 E.32324
G1 X228.068 Y47.745 E.01544
G1 X235.858 Y55.535 E.34507
G1 X235.858 Y56.029 E.01547
G1 X227.574 Y47.745 E.36696
G1 X227.081 Y47.745 E.01544
G1 X235.858 Y56.522 E.3888
G1 X235.858 Y57.015 E.01544
G1 X226.588 Y47.745 E.41063
G1 X226.095 Y47.745 E.01544
G1 X235.858 Y57.508 E.43247
G1 X235.858 Y58.002 E.01547
G1 X225.601 Y47.745 E.45436
G1 X225.108 Y47.745 E.01544
G1 X235.858 Y58.495 E.47619
G1 X235.858 Y58.988 E.01544
G1 X224.615 Y47.745 E.49803
G1 X224.121 Y47.745 E.01547
G1 X235.858 Y59.482 E.51992
G1 X235.858 Y59.975 E.01544
G1 X223.628 Y47.745 E.54175
G1 X223.135 Y47.745 E.01544
G1 X235.858 Y60.468 E.56359
G1 X235.858 Y60.961 E.01544
G1 X222.642 Y47.745 E.58543
G1 X222.148 Y47.745 E.01547
G1 X235.858 Y61.455 E.60731
G1 X235.858 Y61.948 E.01544
G1 X221.655 Y47.745 E.62915
G1 X221.162 Y47.745 E.01544
G1 X235.858 Y62.441 E.65099
G1 X235.858 Y62.934 E.01544
G1 X220.669 Y47.745 E.67283
G1 X220.175 Y47.745 E.01547
G1 X235.858 Y63.428 E.69471
G1 X235.858 Y63.921 E.01544
G1 X219.682 Y47.745 E.71655
G1 X219.189 Y47.745 E.01544
G1 X235.858 Y64.414 E.73839
G1 X235.858 Y64.907 E.01544
G1 X218.696 Y47.745 E.76023
G1 X218.202 Y47.745 E.01547
G1 X235.858 Y65.401 E.78211
G1 X235.858 Y65.894 E.01544
G1 X217.709 Y47.745 E.80395
G1 X217.216 Y47.745 E.01544
G1 X235.858 Y66.387 E.82579
G1 X235.858 Y66.881 E.01547
G1 X216.722 Y47.745 E.84767
G1 X216.229 Y47.745 E.01544
G1 X235.858 Y67.374 E.86951
G1 X235.858 Y67.867 E.01544
G1 X215.736 Y47.745 E.89135
G1 X215.243 Y47.745 E.01544
G1 X235.858 Y68.36 E.91319
G1 X235.858 Y68.854 E.01547
G1 X214.749 Y47.745 E.93507
G1 X214.256 Y47.745 E.01544
G1 X235.858 Y69.347 E.95691
G1 X235.858 Y69.84 E.01544
G1 X213.763 Y47.745 E.97874
G1 X213.27 Y47.745 E.01544
G1 X235.858 Y70.333 E1.00058
G1 X235.858 Y70.827 E.01547
G1 X212.776 Y47.745 E1.02247
G1 X212.283 Y47.745 E.01544
G1 X235.858 Y71.32 E1.0443
G1 X235.858 Y71.813 E.01544
G1 X211.79 Y47.745 E1.06614
G1 X211.296 Y47.745 E.01547
G1 X235.858 Y72.306 E1.088
G1 X235.858 Y72.8 E.01547
G1 X210.803 Y47.745 E1.10986
G1 X210.31 Y47.745 E.01544
G1 X235.858 Y73.293 E1.1317
G1 X235.858 Y73.786 E.01544
G1 X209.817 Y47.745 E1.15354
G1 X209.323 Y47.745 E.01547
G1 X235.858 Y74.28 E1.17542
G1 X235.858 Y74.773 E.01544
G1 X208.83 Y47.745 E1.19726
G1 X208.337 Y47.745 E.01544
G1 X235.858 Y75.266 E1.2191
G1 X235.858 Y75.759 E.01544
G1 X207.844 Y47.745 E1.24094
G1 X207.35 Y47.745 E.01547
G1 X235.858 Y76.253 E1.26282
G1 X235.858 Y76.746 E.01544
G1 X206.857 Y47.745 E1.28466
G1 X206.364 Y47.745 E.01544
G1 X235.858 Y77.239 E1.3065
G1 X235.858 Y77.732 E.01544
G1 X205.871 Y47.745 E1.32834
G1 X205.377 Y47.745 E.01547
G1 X235.858 Y78.226 E1.35022
G1 X235.858 Y78.719 E.01544
G1 X204.884 Y47.745 E1.37206
G1 X204.391 Y47.745 E.01544
G1 X235.858 Y79.212 E1.3939
G1 X235.858 Y79.705 E.01544
G1 X203.897 Y47.745 E1.41576
G1 X203.404 Y47.745 E.01544
G1 X235.858 Y80.199 E1.43762
G1 X235.858 Y80.692 E.01544
G1 X202.911 Y47.745 E1.45946
G1 X202.418 Y47.745 E.01544
G1 X235.858 Y81.185 E1.4813
G1 X235.858 Y81.679 E.01547
G1 X201.924 Y47.745 E1.50318
G1 X201.431 Y47.745 E.01544
G1 X235.858 Y82.172 E1.52502
G1 X235.858 Y82.665 E.01544
G1 X200.938 Y47.745 E1.54686
G1 X200.445 Y47.745 E.01544
G1 X235.858 Y83.158 E1.56869
G1 X235.858 Y83.652 E.01547
G1 X199.951 Y47.745 E1.59058
G1 X199.458 Y47.745 E.01544
G1 X235.858 Y84.145 E1.61242
G1 X235.858 Y84.638 E.01544
G1 X198.965 Y47.745 E1.63425
G1 X198.471 Y47.745 E.01547
G1 X235.858 Y85.131 E1.65611
G1 X235.858 Y85.625 E.01547
G1 X197.978 Y47.745 E1.67797
G1 X197.485 Y47.745 E.01544
G1 X235.858 Y86.118 E1.69981
G1 X235.858 Y86.611 E.01544
G1 X196.992 Y47.745 E1.72165
G1 X196.498 Y47.745 E.01547
G1 X235.858 Y87.104 E1.74351
G1 X235.858 Y87.598 E.01547
G1 X196.005 Y47.745 E1.76537
G1 X195.512 Y47.745 E.01544
G1 X235.858 Y88.091 E1.78721
G1 X235.858 Y88.584 E.01544
G1 X195.019 Y47.745 E1.80905
G1 X194.525 Y47.745 E.01547
G1 X235.858 Y89.078 E1.83093
G1 X235.858 Y89.571 E.01544
G1 X194.032 Y47.745 E1.85277
G1 X193.539 Y47.745 E.01544
G1 X235.858 Y90.064 E1.87461
G1 X235.858 Y90.557 E.01544
G1 X193.046 Y47.745 E1.89645
G1 X192.552 Y47.745 E.01547
G1 X235.858 Y91.051 E1.91833
G1 X235.857 Y91.544 E.01544
G1 X192.059 Y47.745 E1.94015
G1 X191.566 Y47.745 E.01544
G1 X235.857 Y92.037 E1.96199
G1 X235.857 Y92.53 E.01544
G1 X191.072 Y47.745 E1.98385
G1 X190.579 Y47.745 E.01544
G1 X235.857 Y93.024 E2.00571
G1 X235.857 Y93.517 E.01544
G1 X190.086 Y47.745 E2.02755
G1 X189.593 Y47.745 E.01544
G1 X235.857 Y94.01 E2.04938
G1 X235.857 Y94.503 E.01544
G1 X189.099 Y47.745 E2.07124
G1 X188.606 Y47.745 E.01544
G1 X235.857 Y94.997 E2.09311
G1 X235.857 Y95.49 E.01544
G1 X188.113 Y47.745 E2.11494
G1 X187.62 Y47.745 E.01544
G1 X235.857 Y95.983 E2.13678
G1 X235.857 Y96.477 E.01547
G1 X187.126 Y47.745 E2.15867
G1 X186.633 Y47.745 E.01544
G1 X235.857 Y96.97 E2.1805
G1 X235.857 Y97.463 E.01544
G1 X186.14 Y47.745 E2.20234
G1 X185.646 Y47.745 E.01547
G1 X235.857 Y97.956 E2.2242
G1 X235.857 Y98.45 E.01547
G1 X185.153 Y47.745 E2.24606
G1 X184.66 Y47.745 E.01544
G1 X235.857 Y98.943 E2.2679
G1 X235.857 Y99.436 E.01544
G1 X184.167 Y47.745 E2.28974
G1 X183.673 Y47.745 E.01547
G1 X235.857 Y99.929 E2.3116
G1 X235.857 Y100.423 E.01547
G1 X183.18 Y47.745 E2.33346
G1 X182.687 Y47.745 E.01544
G1 X235.857 Y100.916 E2.3553
G1 X235.857 Y101.409 E.01544
G1 X182.194 Y47.745 E2.37714
G1 X181.7 Y47.745 E.01547
G1 X235.857 Y101.902 E2.399
G1 X235.857 Y102.396 E.01547
G1 X181.207 Y47.745 E2.42086
G1 X180.714 Y47.745 E.01544
G1 X235.857 Y102.889 E2.4427
G1 X235.857 Y103.382 E.01544
G1 X180.221 Y47.745 E2.46454
G1 X179.727 Y47.745 E.01547
G1 X235.857 Y103.876 E2.48642
G1 X235.857 Y104.369 E.01544
G1 X179.234 Y47.745 E2.50826
G1 X178.741 Y47.745 E.01544
G1 X235.857 Y104.862 E2.5301
G1 X235.857 Y105.355 E.01544
G1 X178.247 Y47.745 E2.55196
G1 X177.754 Y47.745 E.01544
G1 X235.857 Y105.849 E2.57382
G1 X235.857 Y106.342 E.01544
G1 X177.261 Y47.745 E2.59566
G1 X176.768 Y47.745 E.01544
G1 X235.857 Y106.835 E2.61749
G1 X235.857 Y107.328 E.01544
G1 X176.274 Y47.745 E2.63936
G1 X175.781 Y47.746 E.01544
G1 X235.857 Y107.822 E2.66119
G1 X235.857 Y108.315 E.01544
G1 X175.288 Y47.746 E2.68303
G1 X174.795 Y47.746 E.01544
G1 X235.857 Y108.808 E2.70487
G1 X235.857 Y109.301 E.01544
G1 X174.301 Y47.746 E2.72673
G1 X173.808 Y47.746 E.01544
G1 X235.857 Y109.795 E2.74859
G1 X235.857 Y110.288 E.01544
G1 X173.315 Y47.746 E2.77043
G1 X172.822 Y47.746 E.01544
G1 X235.857 Y110.781 E2.79227
G1 X235.857 Y111.275 E.01547
G1 X172.328 Y47.746 E2.81415
G1 X171.835 Y47.746 E.01544
G1 X235.857 Y111.768 E2.83599
G1 X235.857 Y112.261 E.01544
G1 X171.342 Y47.746 E2.85783
G1 X170.848 Y47.746 E.01547
G1 X235.857 Y112.754 E2.87969
G1 X235.857 Y113.248 E.01547
G1 X170.355 Y47.746 E2.90155
G1 X169.862 Y47.746 E.01544
G1 X235.857 Y113.741 E2.92339
G1 X235.857 Y114.234 E.01544
G1 X169.369 Y47.746 E2.94523
G1 X168.875 Y47.746 E.01547
G1 X235.857 Y114.727 E2.96709
G1 X235.857 Y115.221 E.01547
G1 X168.382 Y47.746 E2.98895
G1 X167.889 Y47.746 E.01544
G1 X235.857 Y115.714 E3.01079
G1 X235.857 Y116.207 E.01544
G1 X167.396 Y47.746 E3.03263
G1 X166.902 Y47.746 E.01547
G1 X235.857 Y116.7 E3.05449
G1 X235.857 Y117.194 E.01547
G1 X166.409 Y47.746 E3.07635
G1 X165.916 Y47.746 E.01544
G1 X235.857 Y117.687 E3.09818
G1 X235.857 Y118.18 E.01544
G1 X165.422 Y47.746 E3.12005
G1 X164.929 Y47.746 E.01544
G1 X235.857 Y118.674 E3.14191
G1 X235.857 Y119.167 E.01544
G1 X164.436 Y47.746 E3.16374
G1 X163.943 Y47.746 E.01544
G1 X235.857 Y119.66 E3.18558
G1 X235.857 Y120.153 E.01544
G1 X163.449 Y47.746 E3.20744
G1 X162.956 Y47.746 E.01544
G1 X235.857 Y120.647 E3.2293
G1 X235.857 Y121.14 E.01544
G1 X162.463 Y47.746 E3.25114
G1 X161.97 Y47.746 E.01544
G1 X235.857 Y121.633 E3.27298
G1 X235.857 Y122.126 E.01544
G1 X161.476 Y47.746 E3.29484
G1 X160.983 Y47.746 E.01544
G1 X235.857 Y122.62 E3.3167
G1 X235.857 Y123.113 E.01544
G1 X160.49 Y47.746 E3.33854
G1 X159.997 Y47.746 E.01544
G1 X235.857 Y123.606 E3.36038
G1 X235.857 Y124.099 E.01544
G1 X159.503 Y47.746 E3.38224
G1 X159.01 Y47.746 E.01544
G1 X235.857 Y124.593 E3.4041
G1 X235.857 Y125.086 E.01544
G1 X158.517 Y47.746 E3.42594
G1 X158.023 Y47.746 E.01547
G1 X235.857 Y125.579 E3.4478
G1 X235.857 Y126.072 E.01544
G1 X157.53 Y47.746 E3.46964
G1 X157.037 Y47.746 E.01544
G1 X235.857 Y126.566 E3.4915
G1 X235.857 Y127.059 E.01544
G1 X156.544 Y47.746 E3.51334
G1 X156.05 Y47.746 E.01547
G1 X235.857 Y127.552 E3.5352
G1 X235.857 Y128.046 E.01547
G1 X155.557 Y47.746 E3.55706
G1 X155.064 Y47.746 E.01544
G1 X235.857 Y128.539 E3.5789
G1 X235.857 Y129.032 E.01544
G1 X154.571 Y47.746 E3.60074
G1 X154.077 Y47.746 E.01547
G1 X235.857 Y129.525 E3.6226
G1 X235.857 Y130.019 E.01547
G1 X153.584 Y47.746 E3.64446
G1 X153.091 Y47.746 E.01544
G1 X235.857 Y130.512 E3.6663
G1 X235.857 Y131.005 E.01544
G1 X152.597 Y47.746 E3.68816
G1 X152.104 Y47.746 E.01544
G1 X235.857 Y131.498 E3.70999
G1 X235.857 Y131.992 E.01547
G1 X151.611 Y47.746 E3.73186
G1 X151.118 Y47.746 E.01544
G1 X235.857 Y132.485 E3.75369
G1 X235.857 Y132.978 E.01544
G1 X150.624 Y47.746 E3.77555
G1 X150.131 Y47.746 E.01544
G1 X235.857 Y133.471 E3.79739
G1 X235.857 Y133.965 E.01547
G1 X149.638 Y47.746 E3.81925
G1 X149.145 Y47.746 E.01544
G1 X235.857 Y134.458 E3.84109
G1 X235.857 Y134.951 E.01544
G1 X148.651 Y47.746 E3.86295
G1 X148.158 Y47.746 E.01544
G1 X235.857 Y135.445 E3.88481
G1 X235.857 Y135.938 E.01544
G1 X147.665 Y47.746 E3.90665
G1 X147.172 Y47.746 E.01544
G1 X235.857 Y136.431 E3.92849
G1 X235.857 Y136.924 E.01544
G1 X146.678 Y47.746 E3.95035
G1 X146.185 Y47.746 E.01544
G1 X235.857 Y137.418 E3.97221
G1 X235.857 Y137.911 E.01544
G1 X145.692 Y47.746 E3.99405
G1 X145.198 Y47.746 E.01547
G1 X235.857 Y138.404 E4.01591
G1 X235.857 Y138.897 E.01544
G1 X144.705 Y47.746 E4.03775
G1 X144.212 Y47.746 E.01544
G1 X235.857 Y139.391 E4.05961
G1 X235.857 Y139.884 E.01544
G1 X143.719 Y47.746 E4.08145
G1 X143.225 Y47.746 E.01547
G1 X235.857 Y140.377 E4.10331
