; generated by PrusaSlicer 2.6.0-alpha6+win64 on 2023-08-06 at 19:39:38 UTC

; 

; external perimeters extrusion width = 0.40mm
; perimeters extrusion width = 0.40mm
; infill extrusion width = 0.40mm
; solid infill extrusion width = 0.40mm
; top infill extrusion width = 0.40mm
; support material extrusion width = 0.40mm
; first layer extrusion width = 0.40mm

; external perimeters extrusion width = 0.40mm
; perimeters extrusion width = 0.40mm
; infill extrusion width = 0.40mm
; solid infill extrusion width = 0.40mm
; top infill extrusion width = 0.40mm
; support material extrusion width = 0.40mm
; first layer extrusion width = 0.40mm

M190 S55 ; set bed temperature and wait for it to be reached
M104 S210 ; set temperature
;TYPE:Custom
print_start EXTRUDER=210 BED=55
M109 S210 ; set temperature and wait for it to be reached
G21 ; set units to millimeters
G90 ; use absolute coordinates
M83 ; use relative distances for extrusion
;Filament gcode
M107
;LAYER_CHANGE
;Z:0.24
;HEIGHT:0.24
G1 Z.24 F6000
G1 E-.75 F3000
G1 X132.052 Y78.611 F6000
G1 E.75 F1800
M204 S7800
;TYPE:Skirt/Brim
;WIDTH:0.4
G1 F3000
G1 X133.16 Y77.208 E.05595
G1 X134.765 Y76.419 E.05597
G1 X135.703 Y76.309 E.02956
G1 X163.803 Y76.309 E.87941
G1 X165.546 Y76.704 E.05593
G1 X166.95 Y77.812 E.05597
G1 X167.738 Y79.417 E.05596
G1 X167.848 Y80.31 E.02816
G1 X169.367 Y217.624 E4.2976
G1 X169.367 Y238.079 E.64015
G1 X168.972 Y239.823 E.05596
G1 X167.864 Y241.226 E.05595
G1 X166.259 Y242.014 E.05596
G1 X165.322 Y242.124 E.02953
G1 X137.222 Y242.124 E.87941
G1 X135.478 Y241.729 E.05596
G1 X134.075 Y240.621 E.05595
G1 X133.286 Y239.017 E.05594
G1 X133.176 Y238.124 E.02816
G1 X131.658 Y100.809 E4.29764
G1 X131.657 Y80.355 E.64012
G1 X132.039 Y78.669 E.0541
G1 X132.386 Y78.752 F6000
G1 F3000
G1 X132.4 Y78.693 E.0019
G1 X133.5 Y77.386 E.05346
G1 X135.703 Y76.658 E.07261
G1 X163.803 Y76.658 E.87941
G1 X165.465 Y77.052 E.05346
G1 X166.772 Y78.152 E.05346
G1 X167.5 Y80.314 E.07139
G1 X169.018 Y217.628 E4.2976
G1 X169.019 Y238.079 E.64003
G1 X168.624 Y239.741 E.05346
G1 X167.524 Y241.048 E.05346
G1 X165.322 Y241.776 E.07258
G1 X137.222 Y241.776 E.87941
G1 X135.56 Y241.381 E.05346
G1 X134.253 Y240.282 E.05344
G1 X133.525 Y238.12 E.07139
G1 X132.006 Y100.805 E4.29764
G1 X132.006 Y80.355 E.64
G1 X132.372 Y78.81 E.04969
G1 X132.719 Y78.897 F6000
G1 F3000
G1 X132.748 Y78.779 E.0038
G1 X133.838 Y77.574 E.05085
G1 X135.703 Y77.006 E.06101
G1 X163.803 Y77.006 E.87941
G1 X165.379 Y77.4 E.05084
G1 X166.584 Y78.489 E.05083
G1 X167.151 Y80.318 E.05993
G1 X168.67 Y217.632 E4.2976
G1 X168.67 Y238.079 E.6399
G1 X168.276 Y239.655 E.05084
G1 X167.187 Y240.86 E.05083
G1 X165.322 Y241.427 E.061
G1 X137.222 Y241.427 E.87941
G1 X135.646 Y241.033 E.05084
G1 X134.441 Y239.944 E.05083
G1 X133.873 Y238.116 E.05991
G1 X132.355 Y100.802 E4.2976
G1 X132.354 Y80.355 E.6399
G1 X132.704 Y78.955 E.04516
; printing object bottom (2).stl id:0 copy 0
G1 E-.75
G1 X162.756 Y99.718 F6000
G1 E.75 F1800
;TYPE:Perimeter
;WIDTH:0.399999
G1 F3000
G1 X136.75 Y99.718 E.81388
G1 X136.75 Y81.402 E.57321
G1 X162.756 Y81.402 E.81388
G1 X162.756 Y99.658 E.57133
G1 X163.104 Y100.066 F6000
G1 F3000
G1 X136.401 Y100.066 E.83569
G1 X136.401 Y81.053 E.59502
G1 X163.104 Y81.053 E.83569
G1 X163.104 Y100.006 E.59315
G1 X163.453 Y100.415 F6000
;TYPE:External perimeter
G1 F3000
G1 X136.053 Y100.415 E.8575
G1 X136.053 Y80.705 E.61684
G1 X163.453 Y80.705 E.8575
G1 X163.453 Y100.355 E.61496
G1 X163.061 Y100.332 F6000
G1 E-.75 F3000
G1 X162.651 Y82.212 F6000
G1 E.75 F1800
;TYPE:Solid infill
;WIDTH:0.400874
G1 F3000
G1 X162.102 Y81.663 E.02436
G1 X161.608 Y81.663 E.0155
G1 X162.494 Y82.55 E.03933
G1 X162.494 Y83.044 E.0155
G1 X161.114 Y81.663 E.06125
G1 X160.619 Y81.663 E.01553
G1 X162.494 Y83.538 E.08319
G1 X162.494 Y84.032 E.0155
G1 X160.125 Y81.663 E.10511
G1 X159.631 Y81.663 E.0155
G1 X162.494 Y84.526 E.12703
G1 X162.494 Y85.02 E.0155
G1 X159.137 Y81.663 E.14895
G1 X158.643 Y81.663 E.0155
G1 X162.494 Y85.514 E.17087
G1 X162.494 Y86.008 E.0155
G1 X158.149 Y81.663 E.19279
G1 X157.655 Y81.663 E.0155
G1 X162.494 Y86.502 E.21471
G1 X162.494 Y86.996 E.0155
G1 X157.161 Y81.663 E.23662
G1 X156.667 Y81.663 E.0155
G1 X162.494 Y87.491 E.25857
G1 X162.494 Y87.985 E.0155
G1 X156.173 Y81.663 E.28048
G1 X155.679 Y81.663 E.0155
G1 X162.494 Y88.479 E.3024
G1 X162.494 Y88.973 E.0155
G1 X155.185 Y81.663 E.32432
G1 X154.69 Y81.663 E.01553
G1 X162.494 Y89.467 E.34626
G1 X162.494 Y89.961 E.0155
G1 X154.196 Y81.663 E.36818
G1 X153.702 Y81.663 E.0155
G1 X162.494 Y90.455 E.3901
G1 X162.494 Y90.949 E.0155
G1 X153.208 Y81.663 E.41202
G1 X152.714 Y81.663 E.0155
G1 X162.494 Y91.443 E.43394
G1 X162.494 Y91.937 E.0155
G1 X152.22 Y81.663 E.45586
G1 X151.726 Y81.663 E.0155
G1 X162.494 Y92.431 E.47777
G1 X162.494 Y92.925 E.0155
G1 X151.232 Y81.663 E.49969
G1 X150.738 Y81.663 E.0155
G1 X162.494 Y93.42 E.52163
G1 X162.494 Y93.914 E.0155
G1 X150.244 Y81.663 E.54355
G1 X149.75 Y81.663 E.0155
G1 X162.494 Y94.408 E.56547
G1 X162.494 Y94.902 E.0155
G1 X149.256 Y81.663 E.58739
G1 X148.761 Y81.663 E.01553
G1 X162.494 Y95.396 E.60933
G1 X162.494 Y95.89 E.0155
G1 X148.267 Y81.663 E.63125
G1 X147.773 Y81.663 E.0155
G1 X162.494 Y96.384 E.65317
G1 X162.494 Y96.878 E.0155
G1 X147.279 Y81.663 E.67509
G1 X146.785 Y81.663 E.0155
G1 X162.494 Y97.372 E.69701
G1 X162.494 Y97.866 E.0155
G1 X146.291 Y81.663 E.71893
G1 X145.797 Y81.663 E.0155
G1 X162.494 Y98.36 E.74084
G1 X162.494 Y98.854 E.0155
G1 X145.303 Y81.663 E.76276
G1 X144.809 Y81.663 E.0155
G1 X162.494 Y99.349 E.7847
G1 X162.494 Y99.456 E.00336
G1 X162.108 Y99.456 E.01211
G1 X144.315 Y81.663 E.78947
G1 X143.821 Y81.663 E.0155
G1 X161.614 Y99.456 E.78947
G1 X161.12 Y99.456 E.0155
G1 X143.327 Y81.663 E.78947
G1 X142.832 Y81.663 E.01553
G1 X160.626 Y99.456 E.7895
G1 X160.132 Y99.456 E.0155
G1 X142.338 Y81.663 E.7895
G1 X141.844 Y81.663 E.0155
G1 X159.638 Y99.456 E.7895
G1 X159.144 Y99.456 E.0155
G1 X141.35 Y81.663 E.7895
G1 X140.856 Y81.663 E.0155
G1 X158.649 Y99.456 E.78947
G1 X158.155 Y99.456 E.0155
G1 X140.362 Y81.663 E.78947
G1 X139.868 Y81.663 E.0155
G1 X157.661 Y99.456 E.78947
G1 X157.167 Y99.456 E.0155
G1 X139.374 Y81.663 E.78947
G1 X138.88 Y81.663 E.0155
G1 X156.673 Y99.456 E.78947
G1 X156.179 Y99.456 E.0155
G1 X138.386 Y81.663 E.78947
G1 X137.892 Y81.663 E.0155
G1 X155.685 Y99.456 E.78947
G1 X155.191 Y99.456 E.0155
G1 X137.398 Y81.663 E.78947
G1 X137.011 Y81.663 E.01214
G1 X137.011 Y81.771 E.00339
G1 X154.697 Y99.456 E.7847
G1 X154.203 Y99.456 E.0155
G1 X137.011 Y82.265 E.76278
G1 X137.011 Y82.759 E.0155
G1 X153.709 Y99.456 E.74087
G1 X153.215 Y99.456 E.0155
G1 X137.011 Y83.253 E.71895
G1 X137.011 Y83.747 E.0155
G1 X152.72 Y99.456 E.69701
G1 X152.226 Y99.456 E.0155
G1 X137.011 Y84.241 E.67509
G1 X137.011 Y84.735 E.0155
G1 X151.732 Y99.456 E.65317
G1 X151.238 Y99.456 E.0155
G1 X137.011 Y85.229 E.63125
G1 X137.011 Y85.723 E.0155
G1 X150.744 Y99.456 E.60933
G1 X150.25 Y99.456 E.0155
G1 X137.011 Y86.217 E.58741
G1 X137.011 Y86.711 E.0155
G1 X149.756 Y99.456 E.56549
G1 X149.262 Y99.456 E.0155
G1 X137.011 Y87.206 E.54355
G1 X137.011 Y87.7 E.0155
G1 X148.768 Y99.456 E.52163
G1 X148.274 Y99.456 E.0155
G1 X137.011 Y88.194 E.49972
G1 X137.011 Y88.688 E.0155
G1 X147.78 Y99.456 E.4778
G1 X147.286 Y99.456 E.0155
G1 X137.011 Y89.182 E.45588
G1 X137.011 Y89.676 E.0155
G1 X146.791 Y99.456 E.43394
G1 X146.297 Y99.456 E.0155
G1 X137.011 Y90.17 E.41202
G1 X137.011 Y90.664 E.0155
G1 X145.803 Y99.456 E.3901
G1 X145.309 Y99.456 E.0155
G1 X137.011 Y91.158 E.36818
G1 X137.011 Y91.652 E.0155
G1 X144.815 Y99.456 E.34626
G1 X144.321 Y99.456 E.0155
G1 X137.011 Y92.146 E.32434
G1 X137.011 Y92.64 E.0155
G1 X143.827 Y99.456 E.30243
G1 X143.333 Y99.456 E.0155
G1 X137.011 Y93.135 E.28048
G1 X137.011 Y93.629 E.0155
G1 X142.839 Y99.456 E.25857
G1 X142.345 Y99.456 E.0155
G1 X137.011 Y94.123 E.23665
G1 X137.011 Y94.617 E.0155
G1 X141.851 Y99.456 E.21473
G1 X141.356 Y99.456 E.01553
G1 X137.011 Y95.111 E.19279
G1 X137.011 Y95.605 E.0155
G1 X140.862 Y99.456 E.17087
G1 X140.368 Y99.456 E.0155
G1 X137.011 Y96.099 E.14895
G1 X137.011 Y96.593 E.0155
G1 X139.874 Y99.456 E.12703
G1 X139.38 Y99.456 E.0155
G1 X137.011 Y97.087 E.10511
G1 X137.011 Y97.581 E.0155
G1 X138.886 Y99.456 E.08319
G1 X138.392 Y99.456 E.0155
G1 X137.011 Y98.075 E.06127
G1 X137.011 Y98.569 E.0155
G1 X137.898 Y99.456 E.03936
G1 X137.404 Y99.456 E.0155
G1 X136.854 Y98.907 E.02438
; stop printing object bottom (2).stl id:0 copy 0
;LAYER_CHANGE
;Z:0.44
;HEIGHT:0.2
G1 Z.44 F6000
M104 S200 ; set temperature
; printing object bottom (2).stl id:0 copy 0
G1 X162.889 Y99.85
;TYPE:Perimeter
;WIDTH:0.399999
G1 F9000
G1 X136.617 Y99.85 E.70204
G1 X136.617 Y81.269 E.49652
G1 X162.889 Y81.269 E.70204
G1 X162.889 Y99.79 E.49492
G1 X163.246 Y100.207 F6000
G1 F9000
G1 X136.26 Y100.207 E.72112
G1 X136.26 Y80.912 E.5156
G1 X163.246 Y80.912 E.72112
G1 X163.246 Y100.147 E.514
G1 X163.603 Y100.565 F6000
;TYPE:External perimeter
G1 F9000
G1 X135.903 Y100.565 E.7402
G1 X135.903 Y80.555 E.53471
G1 X163.603 Y80.555 E.7402
G1 X163.603 Y100.505 E.53311
G1 X163.211 Y100.482 F6000
G1 X162.059 Y99.743
;TYPE:Solid infill
;WIDTH:0.400461
G1 F9000
G1 X162.621 Y99.181 E.02127
G1 X162.621 Y98.676 E.01351
G1 X161.714 Y99.583 E.03432
G1 X161.208 Y99.583 E.01354
G1 X162.621 Y98.17 E.05347
G1 X162.621 Y97.664 E.01354
G1 X160.702 Y99.583 E.07261
G1 X160.197 Y99.583 E.01351
G1 X162.621 Y97.159 E.09172
G1 X162.621 Y96.653 E.01354
G1 X159.691 Y99.583 E.11087
G1 X159.186 Y99.583 E.01351
G1 X162.621 Y96.147 E.13
G1 X162.621 Y95.642 E.01351
G1 X158.68 Y99.583 E.14913
G1 X158.174 Y99.583 E.01354
G1 X162.621 Y95.136 E.16827
G1 X162.621 Y94.63 E.01354
G1 X157.669 Y99.583 E.1874
G1 X157.163 Y99.583 E.01354
G1 X162.621 Y94.125 E.20653
G1 X162.621 Y93.619 E.01354
G1 X156.657 Y99.583 E.22568
G1 X156.152 Y99.583 E.01351
G1 X162.621 Y93.113 E.2448
G1 X162.621 Y92.608 E.01351
G1 X155.646 Y99.583 E.26393
G1 X155.14 Y99.583 E.01354
G1 X162.621 Y92.102 E.28308
G1 X162.621 Y91.597 E.01351
G1 X154.635 Y99.583 E.30219
G1 X154.129 Y99.583 E.01354
G1 X162.621 Y91.091 E.32133
G1 X162.621 Y90.585 E.01354
G1 X153.624 Y99.583 E.34046
G1 X153.118 Y99.583 E.01354
G1 X162.621 Y90.08 E.35959
G1 X162.621 Y89.574 E.01354
G1 X152.612 Y99.583 E.37874
G1 X152.107 Y99.583 E.01351
G1 X162.621 Y89.068 E.39787
G1 X162.621 Y88.563 E.01351
G1 X151.601 Y99.583 E.41699
G1 X151.095 Y99.583 E.01354
G1 X162.621 Y88.057 E.43614
G1 X162.621 Y87.551 E.01354
G1 X150.59 Y99.583 E.45527
G1 X150.084 Y99.583 E.01354
G1 X162.621 Y87.046 E.4744
G1 X162.621 Y86.54 E.01354
G1 X149.578 Y99.583 E.49354
G1 X149.073 Y99.583 E.01351
G1 X162.621 Y86.035 E.51265
G1 X162.621 Y85.529 E.01354
G1 X148.567 Y99.583 E.5318
G1 X148.061 Y99.583 E.01354
G1 X162.621 Y85.023 E.55095
G1 X162.621 Y84.518 E.01351
G1 X147.556 Y99.583 E.57005
G1 X147.05 Y99.583 E.01354
G1 X162.621 Y84.012 E.5892
G1 X162.621 Y83.506 E.01354
G1 X146.545 Y99.583 E.60833
G1 X146.039 Y99.583 E.01354
G1 X162.621 Y83.001 E.62746
G1 X162.621 Y82.495 E.01354
G1 X145.533 Y99.583 E.6466
G1 X145.028 Y99.583 E.01351
G1 X162.621 Y81.989 E.66573
G1 X162.621 Y81.537 E.01209
G1 X162.568 Y81.537 E.00142
G1 X144.522 Y99.583 E.68285
G1 X144.016 Y99.583 E.01354
G1 X162.062 Y81.537 E.68285
G1 X161.557 Y81.537 E.01351
G1 X143.511 Y99.583 E.68285
G1 X143.005 Y99.583 E.01354
G1 X161.051 Y81.537 E.68285
G1 X160.546 Y81.537 E.01351
G1 X142.499 Y99.583 E.68287
G1 X141.994 Y99.583 E.01351
G1 X160.04 Y81.537 E.68285
G1 X159.534 Y81.537 E.01354
G1 X141.488 Y99.583 E.68285
G1 X140.983 Y99.583 E.01351
G1 X159.029 Y81.537 E.68285
G1 X158.523 Y81.537 E.01354
G1 X140.477 Y99.583 E.68285
G1 X139.971 Y99.583 E.01354
G1 X158.017 Y81.537 E.68285
G1 X157.512 Y81.537 E.01351
G1 X139.466 Y99.583 E.68285
G1 X138.96 Y99.583 E.01354
G1 X157.006 Y81.537 E.68285
G1 X156.5 Y81.537 E.01354
G1 X138.454 Y99.583 E.68285
G1 X137.949 Y99.583 E.01351
G1 X155.995 Y81.537 E.68285
G1 X155.489 Y81.537 E.01354
G1 X137.443 Y99.583 E.68285
G1 X136.937 Y99.583 E.01354
G1 X154.984 Y81.537 E.68287
G1 X154.478 Y81.537 E.01354
G1 X136.885 Y99.13 E.66571
G1 X136.885 Y98.624 E.01354
G1 X153.972 Y81.537 E.64657
G1 X153.467 Y81.537 E.01351
G1 X136.885 Y98.118 E.62744
G1 X136.885 Y97.613 E.01351
G1 X152.961 Y81.537 E.60831
G1 X152.455 Y81.537 E.01354
G1 X136.885 Y97.107 E.58916
G1 X136.885 Y96.601 E.01354
G1 X151.95 Y81.537 E.57004
G1 X151.444 Y81.537 E.01354
G1 X136.885 Y96.096 E.55091
G1 X136.885 Y95.59 E.01354
G1 X150.938 Y81.537 E.53176
G1 X150.433 Y81.537 E.01351
G1 X136.885 Y95.084 E.51263
G1 X136.885 Y94.579 E.01351
G1 X149.927 Y81.537 E.49351
G1 X149.421 Y81.537 E.01354
G1 X136.885 Y94.073 E.47436
G1 X136.885 Y93.568 E.01351
G1 X148.916 Y81.537 E.45525
G1 X148.41 Y81.537 E.01354
G1 X136.885 Y93.062 E.4361
G1 X136.885 Y92.556 E.01354
G1 X147.905 Y81.537 E.41697
G1 X147.399 Y81.537 E.01354
G1 X136.885 Y92.051 E.39785
G1 X136.885 Y91.545 E.01354
G1 X146.893 Y81.537 E.3787
G1 X146.388 Y81.537 E.01351
G1 X136.885 Y91.039 E.35957
G1 X136.885 Y90.534 E.01351
G1 X145.882 Y81.537 E.34044
G1 X145.376 Y81.537 E.01354
G1 X136.885 Y90.028 E.3213
G1 X136.885 Y89.522 E.01354
G1 X144.871 Y81.537 E.30217
G1 X144.365 Y81.537 E.01354
G1 X136.885 Y89.017 E.28304
G1 X136.885 Y88.511 E.01354
G1 X143.859 Y81.537 E.26389
G1 X143.354 Y81.537 E.01351
G1 X136.885 Y88.006 E.24478
G1 X136.885 Y87.5 E.01354
G1 X142.848 Y81.537 E.22564
G1 X142.343 Y81.537 E.01351
G1 X136.885 Y86.994 E.20651
G1 X136.885 Y86.489 E.01351
G1 X141.837 Y81.537 E.18738
G1 X141.331 Y81.537 E.01354
G1 X136.885 Y85.983 E.16824
G1 X136.885 Y85.477 E.01354
G1 X140.826 Y81.537 E.14911
G1 X140.32 Y81.537 E.01354
G1 X136.885 Y84.972 E.12998
G1 X136.885 Y84.466 E.01354
G1 X139.814 Y81.537 E.11083
G1 X139.309 Y81.537 E.01351
G1 X136.885 Y83.96 E.0917
G1 X136.885 Y83.455 E.01351
G1 X138.803 Y81.537 E.07258
G1 X138.297 Y81.537 E.01354
G1 X136.885 Y82.949 E.05343
G1 X136.885 Y82.444 E.01351
G1 X137.792 Y81.537 E.03432
G1 X137.286 Y81.537 E.01354
G1 X136.724 Y82.099 E.02127
; stop printing object bottom (2).stl id:0 copy 0
;LAYER_CHANGE
;Z:0.64
;HEIGHT:0.2
G1 Z.64 F6000
; printing object bottom (2).stl id:0 copy 0
G1 X162.889 Y99.85
;TYPE:Perimeter
;WIDTH:0.399999
G1 F9000
G1 X136.617 Y99.85 E.70204
G1 X136.617 Y81.269 E.49652
G1 X162.889 Y81.269 E.70204
G1 X162.889 Y99.79 E.49492
G1 X163.246 Y100.207 F6000
G1 F9000
G1 X136.26 Y100.207 E.72112
G1 X136.26 Y80.912 E.5156
G1 X163.246 Y80.912 E.72112
G1 X163.246 Y100.147 E.514
G1 X163.603 Y100.565 F6000
;TYPE:External perimeter
G1 F9000
G1 X135.903 Y100.565 E.7402
G1 X135.903 Y80.555 E.53471
G1 X163.603 Y80.555 E.7402
G1 X163.603 Y100.505 E.53311
G1 X163.211 Y100.482 F6000
G1 X162.782 Y82.099
;TYPE:Solid infill
;WIDTH:0.400461
G1 F9000
G1 X162.219 Y81.537 E.02128
G1 X161.714 Y81.537 E.01351
G1 X162.621 Y82.444 E.03432
G1 X162.621 Y82.949 E.01351
G1 X161.208 Y81.537 E.05345
G1 X160.702 Y81.537 E.01354
G1 X162.621 Y83.455 E.0726
G1 X162.621 Y83.961 E.01354
G1 X160.197 Y81.537 E.09172
G1 X159.691 Y81.537 E.01354
G1 X162.621 Y84.466 E.11085
G1 X162.621 Y84.972 E.01354
G1 X159.186 Y81.537 E.12998
G1 X158.68 Y81.537 E.01354
G1 X162.621 Y85.477 E.14911
G1 X162.621 Y85.983 E.01354
G1 X158.174 Y81.537 E.16825
G1 X157.669 Y81.537 E.01351
G1 X162.621 Y86.489 E.18738
G1 X162.621 Y86.994 E.01351
G1 X157.163 Y81.537 E.20651
G1 X156.657 Y81.537 E.01354
G1 X162.621 Y87.5 E.22566
G1 X162.621 Y88.006 E.01354
G1 X156.152 Y81.537 E.24478
G1 X155.646 Y81.537 E.01354
G1 X162.621 Y88.511 E.26391
G1 X162.621 Y89.017 E.01354
G1 X155.14 Y81.537 E.28306
G1 X154.635 Y81.537 E.01351
G1 X162.621 Y89.523 E.30219
G1 X162.621 Y90.028 E.01351
G1 X154.129 Y81.537 E.32132
G1 X153.624 Y81.537 E.01351
G1 X162.621 Y90.534 E.34044
G1 X162.621 Y91.039 E.01351
G1 X153.118 Y81.537 E.35957
G1 X152.612 Y81.537 E.01354
G1 X162.621 Y91.545 E.37872
G1 X162.621 Y92.051 E.01354
G1 X152.107 Y81.537 E.39785
G1 X151.601 Y81.537 E.01354
G1 X162.621 Y92.556 E.41697
G1 X162.621 Y93.062 E.01354
G1 X151.095 Y81.537 E.43612
G1 X150.59 Y81.537 E.01351
G1 X162.621 Y93.568 E.45525
G1 X162.621 Y94.073 E.01351
G1 X150.084 Y81.537 E.47438
