; generated by PrusaSlicer 2.6.0-alpha6+win64 on 2023-07-20 at 09:14:37 UTC

; 

; external perimeters extrusion width = 0.38mm
; perimeters extrusion width = 0.38mm
; infill extrusion width = 0.45mm
; solid infill extrusion width = 0.45mm
; top infill extrusion width = 0.44mm
; support material extrusion width = 0.40mm
; first layer extrusion width = 0.40mm

M190 S55 ; set bed temperature and wait for it to be reached
M104 S210 ; set temperature
;TYPE:Custom
print_start EXTRUDER=210 BED=55
M109 S210 ; set temperature and wait for it to be reached
G21 ; set units to millimeters
G90 ; use absolute coordinates
M83 ; use relative distances for extrusion
;Filament gcode
M107
;LAYER_CHANGE
;Z:0.24
;HEIGHT:0.24
G1 Z.24 F72000
G1 E-.75 F3000
G1 X69.244 Y83.939 F72000
G1 E.75 F1800
M204 S4000
;TYPE:Skirt/Brim
;WIDTH:0.4
G1 F9000
G1 X70.614 Y83.148 E.04951
G1 X71.634 Y82.875 E.03305
G1 X72.408 Y82.806 E.02432
G1 X226.275 Y82.75 E4.81538
G1 X228.366 Y82.825 E.06548
G1 X229.632 Y83.2 E.04132
G1 X230.756 Y83.889 E.04126
G1 X231.647 Y84.823 E.0404
G1 X232.193 Y85.761 E.03397
G1 X232.567 Y87.026 E.04128
G1 X232.637 Y87.818 E.02488
G1 X232.637 Y212.118 E3.89006
G1 X232.568 Y212.909 E.02485
G1 X232.193 Y214.174 E.04129
G1 X231.503 Y215.299 E.0413
G1 X230.756 Y216.046 E.03306
G1 X229.386 Y216.837 E.04951
G1 X228.366 Y217.11 E.03305
G1 X227.592 Y217.179 E.02432
G1 X72.42 Y217.229 E4.85622
G1 X71.634 Y217.16 E.02469
G1 X70.369 Y216.785 E.04129
G1 X69.454 Y216.257 E.03306
G1 X68.497 Y215.349 E.04129
G1 X67.706 Y213.979 E.04951
G1 X67.432 Y212.959 E.03305
G1 X67.363 Y212.167 E.02488
G1 X67.363 Y87.868 E3.89003
G1 X67.432 Y87.076 E.02488
G1 X67.807 Y85.811 E.04129
G1 X68.497 Y84.686 E.0413
G1 X69.201 Y83.982 E.03116
G1 X69.446 Y84.226 F72000
G1 F9000
G1 X70.747 Y83.47 E.04709
G1 X71.679 Y83.221 E.03019
G1 X72.41 Y83.154 E.02297
G1 X226.274 Y83.099 E4.81529
G1 X228.321 Y83.171 E.0641
G1 X229.498 Y83.522 E.03844
G1 X230.544 Y84.166 E.03844
G1 X231.37 Y85.035 E.03752
G1 X231.871 Y85.895 E.03115
G1 X232.222 Y87.072 E.03844
G1 X232.288 Y87.818 E.02344
G1 X232.288 Y212.118 E3.89006
G1 X232.222 Y212.863 E.02341
G1 X231.871 Y214.041 E.03847
G1 X231.227 Y215.087 E.03844
G1 X230.544 Y215.769 E.03021
G1 X229.253 Y216.515 E.04666
G1 X228.32 Y216.765 E.03023
G1 X227.59 Y216.831 E.02294
G1 X72.421 Y216.881 E4.85613
G1 X71.679 Y216.814 E.02332
G1 X70.502 Y216.463 E.03844
G1 X69.666 Y215.981 E.0302
G1 X68.773 Y215.137 E.03845
G1 X68.028 Y213.845 E.04667
G1 X67.778 Y212.913 E.0302
G1 X67.712 Y212.167 E.02344
G1 X67.712 Y87.868 E3.89003
G1 X67.778 Y87.122 E.02344
G1 X68.129 Y85.945 E.03844
G1 X68.773 Y84.898 E.03847
G1 X69.403 Y84.269 E.02786
G1 X69.647 Y84.513 F72000
G1 F9000
G1 X70.881 Y83.792 E.04473
G1 X71.725 Y83.566 E.02734
G1 X72.411 Y83.503 E.02156
G1 X226.272 Y83.447 E4.81519
G1 X228.275 Y83.516 E.06272
G1 X229.365 Y83.844 E.03562
G1 X230.332 Y84.442 E.03558
G1 X231.112 Y85.271 E.03562
G1 X231.549 Y86.028 E.02736
G1 X231.876 Y87.117 E.03558
G1 X231.94 Y87.818 E.02203
G1 X231.94 Y212.118 E3.89006
G1 X231.876 Y212.818 E.022
G1 X231.549 Y213.907 E.03558
G1 X230.95 Y214.875 E.03563
G1 X230.332 Y215.493 E.02735
G1 X229.119 Y216.193 E.04383
G1 X228.275 Y216.419 E.02734
G1 X227.589 Y216.482 E.02156
G1 X72.421 Y216.532 E4.8561
G1 X71.725 Y216.469 E.02187
G1 X70.636 Y216.141 E.03559
G1 X69.878 Y215.704 E.02738
G1 X69.05 Y214.925 E.03558
G1 X68.35 Y213.712 E.04383
G1 X68.124 Y212.868 E.02734
G1 X68.06 Y212.167 E.02203
G1 X68.06 Y87.868 E3.89003
G1 X68.124 Y87.167 E.02203
G1 X68.451 Y86.078 E.03558
G1 X69.05 Y85.11 E.03563
G1 X69.605 Y84.555 E.02456
G1 E-.75 F3000
G1 X72.854 Y88.297 F72000
G1 E.75 F1800
;TYPE:Perimeter
;WIDTH:0.399999
G1 F9000
G1 X227.146 Y88.247 E4.82867
G1 X227.146 Y211.689 E3.8632
G1 X87.912 Y211.752 E4.35742
G1 X87.194 Y211.736 E.02248
G1 X72.854 Y211.738 E.44878
G1 X72.854 Y88.357 E3.86129
G1 X72.506 Y87.948 F72000
G1 F9000
G1 X227.105 Y87.896 E4.83828
G1 X227.494 Y87.914 E.01219
G1 X227.494 Y212.037 E3.88451
G1 X87.912 Y212.1 E4.36831
G1 X87.194 Y212.085 E.02248
G1 X72.506 Y212.087 E.45967
G1 X72.506 Y88.008 E3.88314
G1 X72.195 Y87.767 F72000
G1 F9000
G1 X72.267 Y87.662 E.00398
G1 X72.475 Y87.6 E.00679
G1 X227.123 Y87.548 E4.83981
G1 X227.663 Y87.574 E.01692
G1 X227.783 Y87.662 E.00466
G1 X227.843 Y87.888 E.00732
G1 X227.843 Y212.046 E3.88561
G1 X227.827 Y212.185 E.00438
G1 X227.733 Y212.323 E.00523
G1 X227.525 Y212.385 E.00679
G1 X87.912 Y212.449 E4.36928
G1 X87.194 Y212.433 E.02248
G1 X72.496 Y212.435 E.45998
G1 X72.357 Y212.42 E.00438
G1 X72.219 Y212.325 E.00524
G1 X72.157 Y212.118 E.00676
G1 X72.157 Y87.939 E3.88627
G1 X72.17 Y87.82 E.00375
G1 X71.894 Y87.561 F72000
;TYPE:External perimeter
G1 F9000
G1 X72.119 Y87.337 E.00994
G1 X72.452 Y87.251 E.01076
G1 X227.131 Y87.199 E4.84078
G1 X227.74 Y87.228 E.01908
G1 X228.008 Y87.384 E.0097
G1 X228.135 Y87.582 E.00736
G1 X228.191 Y87.888 E.00974
G1 X228.191 Y212.091 E3.88702
G1 X228.106 Y212.424 E.01076
G1 X227.881 Y212.648 E.00994
G1 X227.548 Y212.734 E.01076
G1 X87.912 Y212.797 E4.37
G1 X87.194 Y212.782 E.02248
G1 X72.451 Y212.784 E.46139
G1 X72.119 Y212.698 E.01073
G1 X71.894 Y212.474 E.00994
G1 X71.809 Y212.141 E.01076
G1 X71.809 Y87.894 E3.88839
G1 X71.879 Y87.619 E.00888
G1 X72.212 Y87.561 F72000
G1 E-.75 F3000
G1 X73.665 Y211.634 F72000
G1 E.75 F1800
;TYPE:Solid infill
;WIDTH:0.400573
G1 F9000
G1 X73.116 Y211.084 E.02436
G1 X73.116 Y210.591 E.01545
G1 X74.002 Y211.477 E.03928
G1 X74.495 Y211.477 E.01545
G1 X73.116 Y210.097 E.06116
G1 X73.116 Y209.603 E.01549
G1 X74.989 Y211.477 E.08306
G1 X75.482 Y211.477 E.01545
G1 X73.116 Y209.11 E.10491
G1 X73.116 Y208.616 E.01549
G1 X75.976 Y211.476 E.12679
G1 X76.469 Y211.476 E.01545
G1 X73.116 Y208.123 E.14864
G1 X73.116 Y207.629 E.01549
G1 X76.963 Y211.476 E.17054
G1 X77.457 Y211.476 E.01549
G1 X73.116 Y207.135 E.19244
G1 X73.116 Y206.642 E.01545
G1 X77.95 Y211.476 E.2143
G1 X78.444 Y211.476 E.01549
G1 X73.116 Y206.148 E.2362
G1 X73.116 Y205.654 E.01549
G1 X78.937 Y211.476 E.25808
G1 X79.431 Y211.476 E.01549
G1 X73.116 Y205.161 E.27995
G1 X73.116 Y204.667 E.01549
G1 X79.925 Y211.476 E.30185
G1 X80.418 Y211.476 E.01545
G1 X73.116 Y204.173 E.32373
G1 X73.116 Y203.68 E.01545
G1 X80.912 Y211.476 E.34561
G1 X81.405 Y211.476 E.01545
G1 X73.116 Y203.186 E.36749
G1 X73.116 Y202.692 E.01549
G1 X81.899 Y211.476 E.38939
G1 X82.393 Y211.476 E.01549
G1 X73.116 Y202.199 E.41126
G1 X73.116 Y201.705 E.01549
G1 X82.886 Y211.476 E.43314
G1 X83.38 Y211.476 E.01549
G1 X73.116 Y201.211 E.45504
G1 X73.116 Y200.718 E.01545
G1 X83.873 Y211.475 E.47688
G1 X84.367 Y211.475 E.01549
G1 X73.116 Y200.224 E.49878
G1 X73.116 Y199.73 E.01549
G1 X84.861 Y211.475 E.52068
G1 X85.354 Y211.475 E.01545
G1 X73.116 Y199.237 E.54253
G1 X73.116 Y198.743 E.01549
G1 X85.848 Y211.475 E.56443
G1 X86.341 Y211.475 E.01545
G1 X73.116 Y198.249 E.58631
G1 X73.116 Y197.756 E.01545
G1 X86.835 Y211.475 E.60819
G1 X87.344 Y211.491 E.01596
G1 X73.116 Y197.262 E.63077
G1 X73.116 Y196.768 E.01549
G1 X87.838 Y211.491 E.65267
G1 X88.331 Y211.49 E.01545
G1 X73.116 Y196.275 E.67451
G1 X73.116 Y195.781 E.01549
G1 X88.825 Y211.49 E.69641
G1 X89.318 Y211.49 E.01545
G1 X73.116 Y195.287 E.71828
G1 X73.116 Y194.794 E.01545
G1 X89.812 Y211.49 E.74016
G1 X90.305 Y211.489 E.01545
G1 X73.116 Y194.3 E.76202
G1 X73.116 Y193.806 E.01549
G1 X90.798 Y211.489 E.78389
G1 X91.292 Y211.489 E.01549
G1 X73.116 Y193.313 E.80577
G1 X73.116 Y192.819 E.01549
G1 X91.785 Y211.489 E.82765
G1 X92.279 Y211.489 E.01549
G1 X73.116 Y192.325 E.84955
G1 X73.116 Y191.832 E.01545
G1 X92.772 Y211.488 E.87138
G1 X93.266 Y211.488 E.01549
G1 X73.116 Y191.338 E.89328
G1 X73.116 Y190.844 E.01549
G1 X93.759 Y211.488 E.91516
G1 X94.252 Y211.488 E.01545
G1 X73.116 Y190.351 E.93702
G1 X73.116 Y189.857 E.01549
G1 X94.746 Y211.487 E.95889
G1 X95.239 Y211.487 E.01545
G1 X73.116 Y189.363 E.98077
G1 X73.116 Y188.87 E.01545
G1 X95.733 Y211.487 E1.00265
G1 X96.226 Y211.487 E.01545
G1 X73.116 Y188.376 E1.02453
G1 X73.116 Y187.883 E.01545
G1 X96.72 Y211.487 E1.0464
G1 X97.213 Y211.486 E.01545
G1 X73.116 Y187.389 E1.06826
G1 X73.116 Y186.895 E.01549
G1 X97.706 Y211.486 E1.09014
G1 X98.2 Y211.486 E.01549
G1 X73.116 Y186.402 E1.11202
G1 X73.116 Y185.908 E.01549
G1 X98.693 Y211.486 E1.13389
G1 X99.187 Y211.485 E.01549
G1 X73.116 Y185.414 E1.15577
G1 X73.116 Y184.921 E.01545
G1 X99.68 Y211.485 E1.17763
G1 X100.174 Y211.485 E.01549
G1 X73.116 Y184.427 E1.19953
G1 X73.116 Y183.933 E.01549
G1 X100.667 Y211.485 E1.2214
G1 X101.16 Y211.484 E.01545
G1 X73.116 Y183.44 E1.24324
G1 X73.116 Y182.946 E.01549
G1 X101.654 Y211.484 E1.26514
G1 X102.147 Y211.484 E.01545
G1 X73.116 Y182.452 E1.28701
G1 X73.116 Y181.959 E.01545
G1 X102.641 Y211.484 E1.30889
G1 X103.134 Y211.484 E.01545
G1 X73.116 Y181.465 E1.33077
G1 X73.116 Y180.971 E.01549
G1 X103.628 Y211.483 E1.35265
G1 X104.121 Y211.483 E.01545
G1 X73.116 Y180.478 E1.3745
G1 X73.116 Y179.984 E.01549
G1 X104.615 Y211.483 E1.3964
G1 X105.108 Y211.483 E.01545
G1 X73.116 Y179.49 E1.41828
G1 X73.116 Y178.997 E.01545
G1 X105.601 Y211.482 E1.44011
G1 X106.095 Y211.482 E.01549
G1 X73.116 Y178.503 E1.46201
G1 X73.116 Y178.009 E.01549
G1 X106.588 Y211.482 E1.48389
G1 X107.082 Y211.482 E.01549
G1 X73.116 Y177.516 E1.50577
G1 X73.116 Y177.022 E.01549
G1 X107.575 Y211.482 E1.52765
G1 X108.069 Y211.481 E.01549
G1 X73.116 Y176.528 E1.54952
G1 X73.116 Y176.035 E.01545
G1 X108.562 Y211.481 E1.57138
G1 X109.055 Y211.481 E.01545
G1 X73.116 Y175.541 E1.59326
G1 X73.116 Y175.047 E.01549
G1 X109.549 Y211.481 E1.61516
G1 X110.042 Y211.48 E.01545
G1 X73.116 Y174.554 E1.63699
G1 X73.116 Y174.06 E.01549
G1 X110.536 Y211.48 E1.65889
G1 X111.029 Y211.48 E.01545
G1 X73.116 Y173.566 E1.68077
G1 X73.116 Y173.073 E.01545
G1 X111.523 Y211.48 E1.70265
G1 X112.016 Y211.48 E.01545
G1 X73.116 Y172.579 E1.72452
G1 X73.116 Y172.085 E.01549
G1 X112.509 Y211.479 E1.74638
G1 X113.003 Y211.479 E.01549
G1 X73.116 Y171.592 E1.76826
G1 X73.116 Y171.098 E.01549
G1 X113.496 Y211.479 E1.79013
G1 X113.99 Y211.479 E.01549
G1 X73.116 Y170.604 E1.81203
G1 X73.116 Y170.111 E.01545
G1 X114.483 Y211.478 E1.83387
G1 X114.977 Y211.478 E.01549
G1 X73.116 Y169.617 E1.85577
G1 X73.116 Y169.124 E.01545
G1 X115.47 Y211.478 E1.87762
G1 X115.964 Y211.478 E.01549
G1 X73.116 Y168.63 E1.89952
G1 X73.116 Y168.136 E.01549
G1 X116.457 Y211.478 E1.9214
G1 X116.95 Y211.477 E.01545
G1 X73.116 Y167.643 E1.94323
G1 X73.116 Y167.149 E.01549
G1 X117.444 Y211.477 E1.96513
G1 X117.937 Y211.477 E.01545
G1 X73.116 Y166.655 E1.98701
G1 X73.116 Y166.162 E.01545
G1 X118.431 Y211.477 E2.00889
G1 X118.924 Y211.476 E.01545
G1 X73.116 Y165.668 E2.03074
G1 X73.116 Y165.174 E.01549
G1 X119.418 Y211.476 E2.05264
G1 X119.911 Y211.476 E.01545
G1 X73.116 Y164.681 E2.0745
G1 X73.116 Y164.187 E.01549
G1 X120.404 Y211.476 E2.09638
G1 X120.898 Y211.476 E.01549
G1 X73.116 Y163.693 E2.11828
G1 X73.116 Y163.2 E.01545
G1 X121.391 Y211.475 E2.14011
G1 X121.885 Y211.475 E.01549
G1 X73.116 Y162.706 E2.16201
G1 X73.116 Y162.212 E.01549
G1 X122.378 Y211.475 E2.18389
G1 X122.872 Y211.475 E.01549
G1 X73.116 Y161.719 E2.20577
G1 X73.116 Y161.225 E.01549
G1 X123.365 Y211.474 E2.22762
G1 X123.858 Y211.474 E.01545
G1 X73.116 Y160.731 E2.2495
G1 X73.116 Y160.238 E.01545
G1 X124.352 Y211.474 E2.27138
G1 X124.845 Y211.474 E.01545
G1 X73.116 Y159.744 E2.29325
G1 X73.116 Y159.25 E.01549
G1 X125.339 Y211.473 E2.31513
G1 X125.832 Y211.473 E.01545
G1 X73.116 Y158.757 E2.33699
G1 X73.116 Y158.263 E.01549
G1 X126.326 Y211.473 E2.35889
G1 X126.819 Y211.473 E.01545
G1 X73.116 Y157.769 E2.38077
G1 X73.116 Y157.276 E.01545
G1 X127.312 Y211.473 E2.40262
G1 X127.806 Y211.472 E.01549
G1 X73.116 Y156.782 E2.4245
G1 X73.116 Y156.288 E.01549
G1 X128.299 Y211.472 E2.44638
G1 X128.793 Y211.472 E.01549
G1 X73.116 Y155.795 E2.46825
G1 X73.116 Y155.301 E.01549
G1 X129.286 Y211.472 E2.49013
G1 X129.78 Y211.471 E.01549
G1 X73.116 Y154.807 E2.51201
G1 X73.116 Y154.314 E.01545
G1 X130.273 Y211.471 E2.53386
G1 X130.767 Y211.471 E.01549
G1 X73.116 Y153.82 E2.55576
G1 X73.116 Y153.326 E.01549
G1 X131.26 Y211.471 E2.57764
G1 X131.753 Y211.471 E.01545
G1 X73.116 Y152.833 E2.5995
G1 X73.116 Y152.339 E.01549
G1 X132.247 Y211.47 E2.62138
G1 X132.74 Y211.47 E.01545
G1 X73.116 Y151.845 E2.64325
G1 X73.116 Y151.352 E.01545
G1 X133.234 Y211.47 E2.66513
G1 X133.727 Y211.47 E.01545
G1 X73.116 Y150.858 E2.68701
G1 X73.116 Y150.365 E.01545
G1 X134.221 Y211.469 E2.70886
G1 X134.714 Y211.469 E.01545
G1 X73.116 Y149.871 E2.73074
G1 X73.116 Y149.377 E.01549
G1 X135.207 Y211.469 E2.75262
G1 X135.701 Y211.469 E.01549
G1 X73.116 Y148.884 E2.7745
G1 X73.116 Y148.39 E.01549
G1 X136.194 Y211.469 E2.79637
G1 X136.688 Y211.468 E.01549
G1 X73.116 Y147.896 E2.81825
G1 X73.116 Y147.403 E.01545
G1 X137.181 Y211.468 E2.84011
G1 X137.675 Y211.468 E.01549
G1 X73.116 Y146.909 E2.86201
G1 X73.116 Y146.415 E.01549
G1 X138.168 Y211.468 E2.88389
G1 X138.661 Y211.467 E.01545
G1 X73.116 Y145.922 E2.90572
G1 X73.116 Y145.428 E.01549
G1 X139.155 Y211.467 E2.92762
G1 X139.648 Y211.467 E.01545
G1 X73.116 Y144.934 E2.9495
G1 X73.116 Y144.441 E.01545
G1 X140.142 Y211.467 E2.97137
G1 X140.635 Y211.467 E.01545
G1 X73.116 Y143.947 E2.99325
G1 X73.116 Y143.453 E.01549
G1 X141.129 Y211.466 E3.01513
G1 X141.622 Y211.466 E.01545
G1 X73.116 Y142.96 E3.03698
G1 X73.116 Y142.466 E.01549
G1 X142.115 Y211.466 E3.05886
G1 X142.609 Y211.466 E.01549
G1 X73.116 Y141.972 E3.08076
G1 X73.116 Y141.479 E.01545
G1 X143.102 Y211.465 E3.1026
G1 X143.596 Y211.465 E.01549
G1 X73.116 Y140.985 E3.1245
G1 X73.116 Y140.491 E.01549
G1 X144.089 Y211.465 E3.14637
G1 X144.583 Y211.465 E.01549
G1 X73.116 Y139.998 E3.16825
G1 X73.116 Y139.504 E.01549
G1 X145.076 Y211.465 E3.19013
G1 X145.57 Y211.464 E.01549
G1 X73.116 Y139.01 E3.21201
G1 X73.116 Y138.517 E.01545
G1 X146.063 Y211.464 E3.23386
G1 X146.556 Y211.464 E.01545
G1 X73.116 Y138.023 E3.25574
G1 X73.116 Y137.529 E.01549
G1 X147.05 Y211.464 E3.27764
G1 X147.543 Y211.463 E.01545
G1 X73.116 Y137.036 E3.29947
G1 X73.116 Y136.542 E.01549
G1 X148.037 Y211.463 E3.32137
G1 X148.53 Y211.463 E.01545
G1 X73.116 Y136.048 E3.34325
G1 X73.116 Y135.555 E.01545
G1 X149.024 Y211.463 E3.36513
G1 X149.517 Y211.462 E.01545
G1 X73.116 Y135.061 E3.38698
G1 X73.116 Y134.567 E.01549
G1 X150.01 Y211.462 E3.40886
G1 X150.504 Y211.462 E.01549
G1 X73.116 Y134.074 E3.43074
G1 X73.116 Y133.58 E.01549
G1 X150.997 Y211.462 E3.45262
G1 X151.491 Y211.462 E.01549
G1 X73.116 Y133.086 E3.47452
G1 X73.116 Y132.593 E.01545
G1 X151.984 Y211.461 E3.49635
G1 X152.478 Y211.461 E.01549
G1 X73.116 Y132.099 E3.51825
G1 X73.116 Y131.605 E.01549
G1 X152.971 Y211.461 E3.54013
G1 X153.464 Y211.461 E.01545
G1 X73.116 Y131.112 E3.56198
G1 X73.116 Y130.618 E.01549
G1 X153.958 Y211.46 E3.58386
G1 X154.451 Y211.46 E.01545
G1 X73.116 Y130.125 E3.60572
G1 X73.116 Y129.631 E.01549
G1 X154.945 Y211.46 E3.62762
G1 X155.438 Y211.46 E.01545
G1 X73.116 Y129.137 E3.64949
G1 X73.116 Y128.644 E.01545
G1 X155.932 Y211.46 E3.67137
G1 X156.425 Y211.459 E.01545
G1 X73.116 Y128.15 E3.69323
G1 X73.116 Y127.656 E.01549
G1 X156.918 Y211.459 E3.7151
G1 X157.412 Y211.459 E.01549
G1 X73.116 Y127.163 E3.73698
G1 X73.116 Y126.669 E.01549
G1 X157.905 Y211.459 E3.75886
G1 X158.399 Y211.458 E.01549
G1 X73.116 Y126.175 E3.78074
G1 X73.116 Y125.682 E.01545
G1 X158.892 Y211.458 E3.80259
G1 X159.386 Y211.458 E.01549
G1 X73.116 Y125.188 E3.82449
G1 X73.116 Y124.694 E.01549
G1 X159.879 Y211.458 E3.84637
G1 X160.373 Y211.458 E.01549
G1 X73.116 Y124.201 E3.86825
G1 X73.116 Y123.707 E.01549
G1 X160.866 Y211.457 E3.8901
G1 X161.359 Y211.457 E.01545
G1 X73.116 Y123.213 E3.91198
G1 X73.116 Y122.72 E.01545
G1 X161.853 Y211.457 E3.93386
G1 X162.346 Y211.457 E.01545
G1 X73.116 Y122.226 E3.95574
G1 X73.116 Y121.732 E.01549
G1 X162.84 Y211.456 E3.97761
G1 X163.333 Y211.456 E.01545
G1 X73.116 Y121.239 E3.99947
G1 X73.116 Y120.745 E.01549
G1 X163.827 Y211.456 E4.02137
G1 X164.32 Y211.456 E.01545
G1 X73.116 Y120.251 E4.04325
G1 X73.116 Y119.758 E.01545
G1 X164.813 Y211.456 E4.0651
G1 X165.307 Y211.455 E.01549
G1 X73.116 Y119.264 E4.08698
G1 X73.116 Y118.77 E.01549
