; generated by PrusaSlicer 2.6.0-alpha6+win64 on 2023-08-07 at 11:37:31 UTC

; 

; external perimeters extrusion width = 0.38mm
; perimeters extrusion width = 0.38mm
; infill extrusion width = 0.45mm
; solid infill extrusion width = 0.45mm
; top infill extrusion width = 0.44mm
; support material extrusion width = 0.40mm
; first layer extrusion width = 0.40mm

M190 S55 ; set bed temperature and wait for it to be reached
M104 S210 ; set temperature
;TYPE:Custom
print_start EXTRUDER=210 BED=55
M109 S210 ; set temperature and wait for it to be reached
G21 ; set units to millimeters
G90 ; use absolute coordinates
M83 ; use relative distances for extrusion
;Filament gcode
M107
;LAYER_CHANGE
;Z:0.24
;HEIGHT:0.24
G1 Z.24 F12000
G1 E-.75 F3000
G1 X119.997 Y85.019 F12000
G1 E.75 F1800
M204 S4000
;TYPE:Skirt/Brim
;WIDTH:0.4
G1 F3000
G1 X120.954 Y84.111 E.04129
G1 X122.114 Y83.481 E.04131
G1 X123.134 Y83.208 E.03305
G1 X125.225 Y83.133 E.06548
G1 X154.092 Y83.138 E.90341
G1 X154.866 Y83.208 E.02432
G1 X155.886 Y83.481 E.03305
G1 X157.256 Y84.272 E.04951
G1 X158.165 Y85.229 E.04131
G1 X158.693 Y86.144 E.03306
G1 X158.942 Y86.812 E.02231
G1 X180.942 Y162.762 E2.47462
G1 X181.137 Y164.15 E.04387
G1 X181.102 Y212.319 E1.50748
G1 X180.704 Y213.82 E.0486
G1 X180.003 Y214.973 E.04223
G1 X179.046 Y215.881 E.04129
G1 X178.131 Y216.409 E.03306
G1 X176.866 Y216.784 E.04129
G1 X174.76 Y216.858 E.06595
G1 X123.397 Y216.818 E1.60744
G1 X121.896 Y216.42 E.0486
G1 X120.744 Y215.719 E.0422
G1 X119.835 Y214.762 E.04131
G1 X119.307 Y213.847 E.03306
G1 X118.932 Y212.582 E.04129
G1 X118.863 Y211.791 E.02485
G1 X118.863 Y88.2 E3.86787
G1 X118.932 Y87.409 E.02485
G1 X119.307 Y86.144 E.04129
G1 X119.966 Y85.07 E.03943
G1 X120.261 Y85.252 F12000
G1 F3000
G1 X121.166 Y84.387 E.03918
G1 X122.247 Y83.803 E.03845
G1 X123.179 Y83.553 E.0302
G1 X125.226 Y83.482 E.0641
G1 X154.09 Y83.487 E.90332
G1 X154.821 Y83.553 E.02297
G1 X155.998 Y83.905 E.03845
G1 X157.044 Y84.548 E.03843
G1 X157.888 Y85.441 E.03845
G1 X158.371 Y86.277 E.03022
G1 X158.608 Y86.909 E.02112
G1 X180.608 Y162.859 E2.47462
G1 X180.788 Y164.15 E.04079
G1 X180.757 Y212.274 E1.50608
G1 X180.382 Y213.687 E.04575
G1 X179.727 Y214.76 E.03934
G1 X178.834 Y215.604 E.03845
G1 X177.998 Y216.087 E.03022
G1 X176.821 Y216.438 E.03844
G1 X174.76 Y216.51 E.06454
G1 X123.442 Y216.473 E1.60603
G1 X122.029 Y216.098 E.04575
G1 X120.956 Y215.443 E.03934
G1 X120.112 Y214.55 E.03845
G1 X119.629 Y213.714 E.03022
G1 X119.278 Y212.537 E.03844
G1 X119.212 Y211.791 E.02344
G1 X119.212 Y88.2 E3.86787
G1 X119.278 Y87.455 E.02341
G1 X119.629 Y86.277 E.03847
G1 X120.229 Y85.303 E.0358
G1 X120.489 Y85.547 F12000
G1 F3000
G1 X121.168 Y84.825 E.03102
G1 X122.381 Y84.125 E.04383
G1 X123.488 Y83.864 E.03559
G1 X154.089 Y83.835 E.95768
G1 X154.775 Y83.899 E.02156
G1 X155.865 Y84.226 E.03561
G1 X156.832 Y84.825 E.0356
G1 X157.612 Y85.654 E.03562
G1 X158.15 Y86.656 E.03559
G1 X180.273 Y162.955 E2.48618
G1 X180.44 Y164.15 E.03776
G1 X180.411 Y212.228 E1.50464
G1 X180.06 Y213.553 E.0429
G1 X179.45 Y214.548 E.03653
G1 X178.622 Y215.328 E.0356
G1 X177.865 Y215.765 E.02736
G1 X176.775 Y216.093 E.03562
G1 X174.76 Y216.161 E.0631
G1 X123.921 Y216.156 E1.59104
G1 X123.225 Y216.093 E.02187
G1 X122.381 Y215.866 E.02735
G1 X121.168 Y215.166 E.04383
G1 X120.388 Y214.338 E.0356
G1 X119.951 Y213.581 E.02736
G1 X119.623 Y212.491 E.03562
G1 X119.56 Y211.791 E.022
G1 X119.56 Y88.2 E3.86787
G1 X119.624 Y87.5 E.022
G1 X119.951 Y86.411 E.03558
G1 X120.388 Y85.654 E.02736
G1 X120.448 Y85.591 E.00272
G1 E-.75
G1 X153.665 Y163.507 F12000
G1 E.75 F1800
;TYPE:Perimeter
;WIDTH:0.399999
G1 F3000
G1 X153.685 Y163.665 E.00498
G1 X153.854 Y164.04 E.01287
G1 X154.107 Y164.315 E.01169
G1 X154.465 Y164.512 E.01279
G1 X154.866 Y164.58 E.01273
G1 X175.646 Y164.579 E.65032
G1 X175.646 Y211.362 E1.46411
G1 X148.193 Y211.359 E.85916
G1 X147.284 Y211.377 E.02845
G1 X124.354 Y211.362 E.71761
G1 X124.354 Y88.629 E3.84101
G1 X153.646 Y88.629 E.91671
G1 X153.658 Y163.447 E2.34148
G1 X154.021 Y163.49 F12000
G1 F3000
G1 X154.064 Y163.7 E.00671
G1 X154.242 Y163.968 E.01007
G1 X154.524 Y164.162 E.01071
G1 X154.866 Y164.232 E.01093
G1 X175.994 Y164.231 E.66121
G1 X175.994 Y211.71 E1.48589
G1 X148.193 Y211.707 E.87005
G1 X147.298 Y211.725 E.02802
G1 X124.006 Y211.71 E.72894
G1 X124.006 Y88.281 E3.86279
G1 X153.994 Y88.281 E.93849
G1 X153.995 Y163.361 E2.34968
G1 X154.009 Y163.431 E.00223
G1 X154.362 Y163.446 F12000
G1 F3000
G1 X154.419 Y163.631 E.00606
G1 X154.609 Y163.816 E.0083
G1 X154.866 Y163.883 E.00831
G1 X176.003 Y163.882 E.6615
G1 X176.143 Y163.898 E.00441
G1 X176.281 Y163.992 E.00523
G1 X176.343 Y164.199 E.00676
G1 X176.343 Y211.719 E1.48717
G1 X176.327 Y211.859 E.00441
G1 X176.233 Y211.997 E.00523
G1 X176.025 Y212.059 E.00679
G1 X148.193 Y212.056 E.87102
G1 X147.311 Y212.074 E.02761
G1 X139.413 Y212.073 E.24717
G1 X138.694 Y212.057 E.02251
G1 X123.996 Y212.059 E.45998
G1 X123.857 Y212.044 E.00438
G1 X123.719 Y211.949 E.00524
G1 X123.657 Y211.742 E.00676
G1 X123.657 Y88.272 E3.86408
G1 X123.673 Y88.133 E.00438
G1 X123.767 Y87.995 E.00523
G1 X123.974 Y87.932 E.00677
G1 X154.003 Y87.932 E.93978
G1 X154.143 Y87.948 E.00441
G1 X154.281 Y88.042 E.00523
G1 X154.343 Y88.249 E.00676
G1 X154.345 Y163.389 E2.35156
G1 X154.692 Y163.361 F12000
;TYPE:External perimeter
G1 F3000
G1 X154.731 Y163.471 E.00365
G1 X154.866 Y163.535 E.00468
G1 X176.048 Y163.534 E.6629
G1 X176.381 Y163.619 E.01076
G1 X176.606 Y163.844 E.00996
G1 X176.691 Y164.176 E.01073
G1 X176.691 Y211.765 E1.48933
G1 X176.606 Y212.098 E.01076
G1 X176.381 Y212.322 E.00994
G1 X176.048 Y212.407 E.01076
G1 X148.193 Y212.404 E.87174
G1 X147.325 Y212.422 E.02717
G1 X123.951 Y212.407 E.73151
G1 X123.619 Y212.322 E.01073
G1 X123.394 Y212.098 E.00994
G1 X123.309 Y211.765 E.01076
G1 X123.309 Y88.226 E3.86624
G1 X123.394 Y87.894 E.01073
G1 X123.619 Y87.669 E.00996
G1 X123.952 Y87.584 E.01076
G1 X154.048 Y87.584 E.94187
G1 X154.381 Y87.669 E.01076
G1 X154.606 Y87.894 E.00996
G1 X154.691 Y88.226 E.01073
G1 X154.692 Y163.301 E2.34952
G1 X154.607 Y163.44 F12000
G1 E-.75 F3000
G1 X175.541 Y165.292 F12000
G1 E.75 F1800
;TYPE:Solid infill
;WIDTH:0.400855
G1 F3000
G1 X175.09 Y164.841 E.02001
G1 X174.596 Y164.841 E.0155
G1 X175.384 Y165.63 E.03498
G1 X175.384 Y166.124 E.0155
G1 X174.101 Y164.841 E.05692
G1 X173.607 Y164.841 E.0155
G1 X175.384 Y166.618 E.07884
G1 X175.384 Y167.112 E.0155
G1 X173.113 Y164.841 E.10076
G1 X172.619 Y164.841 E.0155
G1 X175.384 Y167.606 E.12268
G1 X175.384 Y168.1 E.0155
G1 X172.125 Y164.841 E.14459
G1 X171.631 Y164.841 E.0155
G1 X175.384 Y168.594 E.16651
G1 X175.384 Y169.088 E.0155
G1 X171.137 Y164.841 E.18843
G1 X170.643 Y164.841 E.0155
G1 X175.384 Y169.582 E.21035
G1 X175.384 Y170.076 E.0155
G1 X170.149 Y164.841 E.23226
G1 X169.655 Y164.841 E.0155
G1 X175.384 Y170.57 E.25418
G1 X175.384 Y171.064 E.0155
G1 X169.161 Y164.841 E.2761
G1 X168.667 Y164.841 E.0155
G1 X175.384 Y171.558 E.29802
G1 X175.384 Y172.052 E.0155
G1 X168.173 Y164.841 E.31993
G1 X167.679 Y164.841 E.0155
G1 X175.384 Y172.546 E.34185
G1 X175.384 Y173.04 E.0155
G1 X167.185 Y164.841 E.36377
G1 X166.691 Y164.841 E.0155
G1 X175.384 Y173.535 E.38571
G1 X175.384 Y174.029 E.0155
G1 X166.197 Y164.841 E.40763
G1 X165.702 Y164.841 E.01553
G1 X175.384 Y174.523 E.42957
G1 X175.384 Y175.017 E.0155
G1 X165.208 Y164.841 E.45148
G1 X164.714 Y164.841 E.0155
G1 X175.384 Y175.511 E.4734
G1 X175.384 Y176.005 E.0155
G1 X164.22 Y164.841 E.49532
G1 X163.726 Y164.841 E.0155
G1 X175.384 Y176.499 E.51724
G1 X175.384 Y176.993 E.0155
G1 X163.232 Y164.841 E.53915
G1 X162.738 Y164.841 E.0155
G1 X175.384 Y177.487 E.56107
G1 X175.384 Y177.981 E.0155
G1 X162.244 Y164.841 E.58299
G1 X161.75 Y164.841 E.0155
G1 X175.384 Y178.475 E.60491
G1 X175.384 Y178.969 E.0155
G1 X161.256 Y164.841 E.62682
G1 X160.762 Y164.841 E.0155
G1 X175.384 Y179.463 E.64874
G1 X175.384 Y179.957 E.0155
G1 X160.268 Y164.841 E.67066
G1 X159.774 Y164.841 E.0155
G1 X175.384 Y180.451 E.69258
G1 X175.384 Y180.945 E.0155
G1 X159.28 Y164.841 E.71449
G1 X158.786 Y164.841 E.0155
G1 X175.384 Y181.439 E.73641
G1 X175.384 Y181.933 E.0155
G1 X158.292 Y164.841 E.75833
G1 X157.798 Y164.841 E.0155
G1 X175.384 Y182.428 E.78027
G1 X175.384 Y182.922 E.0155
G1 X157.303 Y164.841 E.80221
G1 X156.809 Y164.841 E.0155
G1 X175.384 Y183.416 E.82413
G1 X175.384 Y183.91 E.0155
G1 X156.315 Y164.841 E.84604
G1 X155.821 Y164.841 E.0155
G1 X175.384 Y184.404 E.86796
G1 X175.384 Y184.898 E.0155
G1 X155.327 Y164.841 E.88988
G1 X154.833 Y164.841 E.0155
G1 X175.384 Y185.392 E.9118
G1 X175.384 Y185.886 E.0155
G1 X124.616 Y135.117 E2.25247
G1 X124.616 Y134.623 E.0155
G1 X153.388 Y163.396 E1.27656
G1 X153.385 Y162.899 E.01559
G1 X124.616 Y134.129 E1.27643
G1 X124.616 Y133.635 E.0155
G1 X153.385 Y162.405 E1.27643
G1 X153.385 Y161.911 E.0155
G1 X124.616 Y133.141 E1.27643
G1 X124.616 Y132.647 E.0155
G1 X153.385 Y161.416 E1.27641
G1 X153.385 Y160.922 E.0155
G1 X124.616 Y132.153 E1.27641
G1 X124.616 Y131.659 E.0155
G1 X153.385 Y160.428 E1.27641
G1 X153.385 Y159.934 E.0155
G1 X124.616 Y131.165 E1.27641
G1 X124.616 Y130.671 E.0155
G1 X153.385 Y159.44 E1.27641
G1 X153.385 Y158.946 E.0155
G1 X124.616 Y130.177 E1.27641
G1 X124.616 Y129.683 E.0155
G1 X153.385 Y158.452 E1.27641
G1 X153.385 Y157.958 E.0155
G1 X124.616 Y129.188 E1.27643
G1 X124.616 Y128.694 E.0155
G1 X153.385 Y157.464 E1.27643
G1 X153.385 Y156.97 E.0155
G1 X124.616 Y128.2 E1.27643
G1 X124.616 Y127.706 E.0155
G1 X153.385 Y156.476 E1.27643
G1 X153.385 Y155.982 E.0155
G1 X124.616 Y127.212 E1.27643
G1 X124.616 Y126.718 E.0155
G1 X153.385 Y155.488 E1.27643
G1 X153.385 Y154.994 E.0155
G1 X124.616 Y126.224 E1.27643
G1 X124.616 Y125.73 E.0155
G1 X153.385 Y154.5 E1.27643
G1 X153.385 Y154.006 E.0155
G1 X124.616 Y125.236 E1.27643
G1 X124.616 Y124.742 E.0155
G1 X153.385 Y153.511 E1.27641
G1 X153.385 Y153.017 E.0155
G1 X124.616 Y124.248 E1.27641
G1 X124.616 Y123.754 E.0155
G1 X153.385 Y152.523 E1.27641
G1 X153.385 Y152.029 E.0155
G1 X124.616 Y123.26 E1.27641
G1 X124.616 Y122.766 E.0155
G1 X153.385 Y151.535 E1.27641
G1 X153.385 Y151.041 E.0155
G1 X124.616 Y122.272 E1.27641
G1 X124.616 Y121.778 E.0155
G1 X153.385 Y150.547 E1.27641
G1 X153.385 Y150.053 E.0155
G1 X124.616 Y121.284 E1.27641
G1 X124.616 Y120.789 E.01553
G1 X153.385 Y149.559 E1.27643
G1 X153.385 Y149.065 E.0155
G1 X124.616 Y120.295 E1.27643
G1 X124.616 Y119.801 E.0155
G1 X153.385 Y148.571 E1.27643
G1 X153.385 Y148.077 E.0155
G1 X124.616 Y119.307 E1.27643
G1 X124.616 Y118.813 E.0155
G1 X153.385 Y147.583 E1.27643
G1 X153.385 Y147.089 E.0155
G1 X124.616 Y118.319 E1.27643
G1 X124.616 Y117.825 E.0155
G1 X153.385 Y146.595 E1.27643
G1 X153.385 Y146.101 E.0155
G1 X124.616 Y117.331 E1.27643
G1 X124.616 Y116.837 E.0155
G1 X153.385 Y145.606 E1.27641
G1 X153.385 Y145.112 E.0155
G1 X124.616 Y116.343 E1.27641
G1 X124.616 Y115.849 E.0155
G1 X153.385 Y144.618 E1.27641
G1 X153.385 Y144.124 E.0155
G1 X124.616 Y115.355 E1.27641
G1 X124.616 Y114.861 E.0155
G1 X153.385 Y143.63 E1.27641
G1 X153.385 Y143.136 E.0155
G1 X124.616 Y114.367 E1.27641
G1 X124.616 Y113.873 E.0155
G1 X153.385 Y142.642 E1.27641
G1 X153.385 Y142.148 E.0155
G1 X124.616 Y113.379 E1.27641
G1 X124.616 Y112.885 E.0155
G1 X153.385 Y141.654 E1.27641
G1 X153.385 Y141.16 E.0155
G1 X124.616 Y112.391 E1.27641
G1 X124.616 Y111.896 E.01553
G1 X153.385 Y140.666 E1.27643
G1 X153.385 Y140.172 E.0155
G1 X124.616 Y111.402 E1.27643
G1 X124.616 Y110.908 E.0155
G1 X153.385 Y139.678 E1.27643
G1 X153.385 Y139.184 E.0155
G1 X124.616 Y110.414 E1.27643
G1 X124.616 Y109.92 E.0155
G1 X153.385 Y138.69 E1.27643
G1 X153.385 Y138.196 E.0155
G1 X124.616 Y109.426 E1.27643
G1 X124.616 Y108.932 E.0155
G1 X153.385 Y137.701 E1.27641
G1 X153.385 Y137.207 E.0155
G1 X124.616 Y108.438 E1.27641
G1 X124.616 Y107.944 E.0155
G1 X153.385 Y136.713 E1.27641
G1 X153.385 Y136.219 E.0155
G1 X124.616 Y107.45 E1.27641
G1 X124.616 Y106.956 E.0155
G1 X153.385 Y135.725 E1.27641
G1 X153.385 Y135.231 E.0155
G1 X124.616 Y106.462 E1.27641
G1 X124.616 Y105.968 E.0155
G1 X153.385 Y134.737 E1.27641
G1 X153.385 Y134.243 E.0155
G1 X124.616 Y105.474 E1.27641
G1 X124.616 Y104.98 E.0155
G1 X153.385 Y133.749 E1.27641
G1 X153.385 Y133.255 E.0155
G1 X124.616 Y104.486 E1.27641
G1 X124.616 Y103.992 E.0155
G1 X153.385 Y132.761 E1.27641
G1 X153.385 Y132.267 E.0155
G1 X124.616 Y103.497 E1.27643
G1 X124.616 Y103.003 E.0155
G1 X153.385 Y131.773 E1.27643
G1 X153.385 Y131.279 E.0155
G1 X124.616 Y102.509 E1.27643
G1 X124.616 Y102.015 E.0155
G1 X153.385 Y130.785 E1.27643
G1 X153.385 Y130.291 E.0155
G1 X124.616 Y101.521 E1.27643
G1 X124.616 Y101.027 E.0155
G1 X153.385 Y129.796 E1.27641
G1 X153.385 Y129.302 E.0155
G1 X124.616 Y100.533 E1.27641
G1 X124.616 Y100.039 E.0155
G1 X153.385 Y128.808 E1.27641
G1 X153.385 Y128.314 E.0155
G1 X124.616 Y99.545 E1.27641
G1 X124.616 Y99.051 E.0155
G1 X153.385 Y127.82 E1.27641
G1 X153.385 Y127.326 E.0155
G1 X124.616 Y98.557 E1.27641
G1 X124.616 Y98.063 E.0155
G1 X153.385 Y126.832 E1.27641
G1 X153.385 Y126.338 E.0155
G1 X124.616 Y97.569 E1.27641
G1 X124.616 Y97.075 E.0155
G1 X153.385 Y125.844 E1.27641
G1 X153.385 Y125.35 E.0155
G1 X124.616 Y96.581 E1.27641
G1 X124.616 Y96.087 E.0155
G1 X153.385 Y124.856 E1.27641
G1 X153.385 Y124.362 E.0155
G1 X124.616 Y95.593 E1.27641
G1 X124.616 Y95.099 E.0155
G1 X153.385 Y123.868 E1.27641
G1 X153.385 Y123.374 E.0155
G1 X124.616 Y94.604 E1.27643
G1 X124.616 Y94.11 E.0155
G1 X153.385 Y122.88 E1.27643
G1 X153.385 Y122.386 E.0155
G1 X124.616 Y93.616 E1.27643
G1 X124.616 Y93.122 E.0155
G1 X153.385 Y121.891 E1.27641
G1 X153.385 Y121.397 E.0155
G1 X124.616 Y92.628 E1.27641
G1 X124.616 Y92.134 E.0155
G1 X153.385 Y120.903 E1.27641
G1 X153.385 Y120.409 E.0155
G1 X124.616 Y91.64 E1.27641
G1 X124.616 Y91.146 E.0155
G1 X153.385 Y119.915 E1.27641
G1 X153.385 Y119.421 E.0155
G1 X124.616 Y90.652 E1.27641
G1 X124.616 Y90.158 E.0155
G1 X153.385 Y118.927 E1.27641
G1 X153.385 Y118.433 E.0155
G1 X124.616 Y89.664 E1.27641
G1 X124.616 Y89.17 E.0155
G1 X153.385 Y117.939 E1.27641
G1 X153.385 Y117.445 E.0155
G1 X124.831 Y88.891 E1.26687
G1 X125.325 Y88.891 E.0155
G1 X153.385 Y116.951 E1.24495
G1 X153.385 Y116.457 E.0155
G1 X125.819 Y88.891 E1.22303
G1 X126.313 Y88.891 E.0155
G1 X153.385 Y115.963 E1.20112
G1 X153.385 Y115.469 E.0155
G1 X126.807 Y88.891 E1.1792
G1 X127.301 Y88.891 E.0155
G1 X153.385 Y114.975 E1.15728
G1 X153.385 Y114.481 E.0155
G1 X127.795 Y88.891 E1.13536
G1 X128.289 Y88.891 E.0155
G1 X153.385 Y113.986 E1.11342
G1 X153.385 Y113.492 E.0155
G1 X128.783 Y88.891 E1.09151
G1 X129.277 Y88.891 E.0155
G1 X153.385 Y112.998 E1.06959
G1 X153.385 Y112.504 E.0155
G1 X129.771 Y88.891 E1.04767
G1 X130.265 Y88.891 E.0155
G1 X153.385 Y112.01 E1.02575
G1 X153.385 Y111.516 E.0155
G1 X130.759 Y88.891 E1.00384
G1 X131.253 Y88.891 E.0155
G1 X153.385 Y111.022 E.98192
G1 X153.385 Y110.528 E.0155
G1 X131.747 Y88.891 E.96
G1 X132.241 Y88.891 E.0155
G1 X153.385 Y110.034 E.93808
G1 X153.385 Y109.54 E.0155
G1 X132.735 Y88.891 E.91617
G1 X133.229 Y88.891 E.0155
G1 X153.385 Y109.046 E.89425
G1 X153.385 Y108.552 E.0155
G1 X133.724 Y88.891 E.87231
G1 X134.218 Y88.891 E.0155
G1 X153.385 Y108.058 E.85039
G1 X153.385 Y107.564 E.0155
G1 X134.712 Y88.891 E.82847
G1 X135.206 Y88.891 E.0155
G1 X153.385 Y107.07 E.80656
G1 X153.385 Y106.576 E.0155
G1 X135.7 Y88.891 E.78464
G1 X136.194 Y88.891 E.0155
G1 X153.385 Y106.081 E.7627
G1 X153.385 Y105.587 E.0155
G1 X136.688 Y88.891 E.74078
G1 X137.182 Y88.891 E.0155
G1 X153.385 Y105.093 E.71886
G1 X153.385 Y104.599 E.0155
G1 X137.676 Y88.891 E.69695
G1 X138.17 Y88.891 E.0155
G1 X153.385 Y104.105 E.67503
G1 X153.385 Y103.611 E.0155
G1 X138.664 Y88.891 E.65311
G1 X139.158 Y88.891 E.0155
G1 X153.385 Y103.117 E.63119
G1 X153.385 Y102.623 E.0155
G1 X139.652 Y88.891 E.60928
G1 X140.146 Y88.891 E.0155
G1 X153.385 Y102.129 E.58736
G1 X153.385 Y101.635 E.0155
G1 X140.64 Y88.891 E.56544
G1 X141.134 Y88.891 E.0155
G1 X153.385 Y101.141 E.54352
G1 X153.385 Y100.647 E.0155
G1 X141.628 Y88.891 E.52161
G1 X142.122 Y88.891 E.0155
G1 X153.385 Y100.153 E.49969
G1 X153.385 Y99.659 E.0155
G1 X142.617 Y88.891 E.47775
