; generated by PrusaSlicer 2.6.0-alpha6+win64 on 2023-08-16 at 17:21:01 UTC

; 

; external perimeters extrusion width = 0.38mm
; perimeters extrusion width = 0.38mm
; infill extrusion width = 0.45mm
; solid infill extrusion width = 0.45mm
; top infill extrusion width = 0.44mm
; support material extrusion width = 0.40mm
; first layer extrusion width = 0.40mm

M190 S55 ; set bed temperature and wait for it to be reached
M104 S210 ; set temperature
;TYPE:Custom
print_start EXTRUDER=210 BED=55
M109 S210 ; set temperature and wait for it to be reached
G21 ; set units to millimeters
G90 ; use absolute coordinates
M83 ; use relative distances for extrusion
;Filament gcode
M107
;LAYER_CHANGE
;Z:0.24
;HEIGHT:0.24
G1 Z.24 F12000
G1 E-.75 F3000
G1 X66.245 Y35.65 F12000
G1 E.75 F1800
M204 S4000
;TYPE:Skirt/Brim
;WIDTH:0.4
G1 F3000
G1 X66.917 Y34.647 E.03778
G1 X68.088 Y33.454 E.05232
G1 X69.08 Y32.765 E.0378
G1 X70.167 Y32.239 E.03779
G1 X70.87 Y32.002 E.02322
G1 X72.101 Y31.757 E.03928
G1 X73.034 Y31.702 E.02925
G1 X127.903 Y32.531 E1.71736
G1 X129.902 Y32.764 E.06298
G1 X131.6 Y33.315 E.05587
G1 X133.166 Y34.176 E.05593
G1 X134.542 Y35.314 E.05588
G1 X135.681 Y36.691 E.05593
G1 X136.541 Y38.256 E.05589
G1 X137.093 Y39.955 E.05591
G1 X137.317 Y41.727 E.0559
G1 X137.205 Y43.51 E.05591
G1 X136.761 Y45.24 E.0559
G1 X136 Y46.857 E.05593
G1 X134.951 Y48.301 E.05586
G1 X133.648 Y49.524 E.05593
G1 X132.14 Y50.481 E.0559
G1 X130.479 Y51.139 E.05591
G1 X128.725 Y51.474 E.05588
G1 X127.456 Y51.506 E.03973
G1 X72.586 Y47.142 E1.72262
G1 X71.369 Y46.982 E.03841
G1 X70.256 Y46.654 E.03631
G1 X69.163 Y46.142 E.03777
G1 X68.163 Y45.465 E.03779
G1 X67.281 Y44.64 E.0378
G1 X66.538 Y43.688 E.03779
G1 X65.932 Y42.589 E.03928
G1 X65.54 Y41.498 E.03628
G1 X65.308 Y40.312 E.03782
G1 X65.265 Y39.058 E.03927
G1 X65.514 Y37.453 E.05083
G1 X65.914 Y36.314 E.03778
G1 X66.218 Y35.704 E.02133
G1 X66.529 Y35.859 F12000
G1 F3000
G1 X67.184 Y34.871 E.0371
G1 X68.317 Y33.717 E.05061
G1 X69.265 Y33.06 E.0361
G1 X70.303 Y32.559 E.03607
G1 X70.955 Y32.34 E.02153
G1 X72.13 Y32.105 E.0375
G1 X73.028 Y32.051 E.02815
G1 X127.898 Y32.879 E1.71739
G1 X129.837 Y33.106 E.0611
G1 X131.452 Y33.631 E.05315
G1 X132.98 Y34.471 E.05457
G1 X134.288 Y35.553 E.05313
G1 X135.399 Y36.896 E.05455
G1 X136.217 Y38.384 E.05314
G1 X136.756 Y40.042 E.05456
G1 X136.969 Y41.727 E.05315
G1 X136.859 Y43.467 E.05456
G1 X136.437 Y45.112 E.05315
G1 X135.695 Y46.689 E.05454
G1 X134.697 Y48.063 E.05315
G1 X133.426 Y49.256 E.05455
G1 X131.992 Y50.166 E.05315
G1 X130.371 Y50.808 E.05456
G1 X128.703 Y51.126 E.05314
G1 X127.483 Y51.158 E.03819
G1 X72.614 Y46.795 E1.72259
G1 X71.452 Y46.643 E.03668
G1 X70.389 Y46.332 E.03466
G1 X69.344 Y45.844 E.03609
G1 X68.389 Y45.199 E.03607
G1 X67.545 Y44.413 E.03609
G1 X66.834 Y43.504 E.03612
G1 X66.254 Y42.456 E.03749
G1 X65.878 Y41.415 E.03464
G1 X65.655 Y40.283 E.03611
G1 X65.612 Y39.086 E.03749
G1 X65.854 Y37.532 E.04922
G1 X66.237 Y36.445 E.03607
G1 X66.502 Y35.913 E.0186
G1 X66.837 Y36.115 F12000
G1 F3000
G1 X67.451 Y35.095 E.03726
G1 X68.546 Y33.98 E.04891
G1 X69.45 Y33.356 E.03438
G1 X71.04 Y32.678 E.0541
G1 X72.159 Y32.452 E.03573
G1 X73.023 Y32.399 E.02709
G1 X127.893 Y33.228 E1.71739
G1 X129.772 Y33.448 E.05921
G1 X131.304 Y33.946 E.05041
G1 X132.793 Y34.765 E.05318
G1 X134.034 Y35.792 E.05041
G1 X135.117 Y37.101 E.05317
G1 X135.893 Y38.513 E.05042
G1 X136.418 Y40.129 E.05318
G1 X136.62 Y41.727 E.05041
G1 X136.514 Y43.423 E.05318
G1 X136.113 Y44.983 E.05041
G1 X135.389 Y46.521 E.0532
G1 X134.443 Y47.824 E.05039
G1 X133.204 Y48.987 E.05318
G1 X131.844 Y49.851 E.05042
G1 X130.264 Y50.476 E.05318
G1 X128.681 Y50.778 E.05043
G1 X127.511 Y50.811 E.03663
G1 X72.641 Y46.447 E1.72262
G1 X71.535 Y46.305 E.0349
G1 X70.522 Y46.01 E.03302
G1 X69.526 Y45.546 E.03439
G1 X68.614 Y44.933 E.03439
G1 X67.809 Y44.186 E.03437
G1 X67.131 Y43.321 E.0344
G1 X66.576 Y42.323 E.03574
G1 X66.216 Y41.332 E.033
G1 X66.002 Y40.253 E.03443
G1 X65.96 Y39.113 E.0357
G1 X66.193 Y37.611 E.04757
G1 X66.56 Y36.576 E.03437
G1 X66.806 Y36.166 E.01496
G1 X67.097 Y36.343 F12000
G1 F3000
G1 X67.742 Y35.286 E.03875
G1 X68.792 Y34.228 E.04665
G1 X69.67 Y33.629 E.03326
G1 X71.164 Y33.003 E.05069
G1 X72.188 Y32.799 E.03268
G1 X73.018 Y32.748 E.02602
G1 X127.887 Y33.576 E1.71736
G1 X129.706 Y33.791 E.05732
G1 X131.155 Y34.261 E.04767
G1 X132.606 Y35.059 E.05182
G1 X133.78 Y36.03 E.04768
G1 X134.835 Y37.306 E.05181
G1 X135.569 Y38.641 E.04768
G1 X136.081 Y40.215 E.0518
G1 X136.272 Y41.727 E.0477
G1 X136.168 Y43.379 E.0518
G1 X135.789 Y44.855 E.04769
G1 X135.084 Y46.353 E.05181
G1 X134.189 Y47.586 E.04768
G1 X132.982 Y48.719 E.05181
G1 X131.695 Y49.535 E.04769
G1 X130.156 Y50.145 E.05181
G1 X128.659 Y50.43 E.04769
G1 X127.538 Y50.463 E.0351
G1 X71.617 Y45.966 E1.75574
G1 X70.615 Y45.674 E.03266
G1 X69.67 Y45.23 E.03268
G1 X68.806 Y44.643 E.03269
G1 X68.044 Y43.929 E.03268
G1 X67.403 Y43.105 E.03267
G1 X66.898 Y42.19 E.03271
G1 X66.542 Y41.209 E.03266
G1 X66.344 Y40.184 E.03267
G1 X66.307 Y39.14 E.03269
G1 X66.542 Y37.65 E.04721
G1 X66.899 Y36.668 E.0327
G1 X67.065 Y36.394 E.01003
G1 X67.359 Y36.574 F12000
G1 F3000
G1 X68.008 Y35.511 E.03898
G1 X69.019 Y34.492 E.04492
G1 X69.853 Y33.926 E.03154
G1 X71.247 Y33.342 E.0473
G1 X72.217 Y33.146 E.03097
G1 X73.013 Y33.096 E.02496
G1 X127.882 Y33.925 E1.71736
G1 X129.641 Y34.133 E.05543
G1 X131.007 Y34.577 E.04495
G1 X132.419 Y35.353 E.05042
G1 X133.526 Y36.269 E.04497
G1 X134.553 Y37.511 E.05044
G1 X135.245 Y38.769 E.04493
G1 X135.743 Y40.302 E.05044
G1 X135.923 Y41.727 E.04495
G1 X135.822 Y43.336 E.05045
G1 X135.465 Y44.727 E.04494
G1 X134.779 Y46.185 E.05043
G1 X133.934 Y47.347 E.04496
G1 X132.759 Y48.45 E.05044
G1 X131.547 Y49.22 E.04494
G1 X130.048 Y49.813 E.05045
G1 X128.637 Y50.082 E.04495
G1 X127.566 Y50.116 E.03353
G1 X72.217 Y45.712 E1.73766
G1 X71.247 Y45.517 E.03096
G1 X70.319 Y45.172 E.03098
G1 X69.456 Y44.688 E.03097
G1 X68.679 Y44.074 E.03099
G1 X67.701 Y42.923 E.04727
G1 X67.221 Y42.058 E.03096
G1 X66.881 Y41.128 E.03099
G1 X66.691 Y40.157 E.03096
G1 X66.654 Y39.167 E.031
G1 X66.881 Y37.731 E.0455
G1 X67.221 Y36.801 E.03099
G1 X67.328 Y36.625 E.00645
G1 E-.75
G1 X117.74 Y40.312 F12000
G1 E.75 F1800
;TYPE:Perimeter
;WIDTH:0.399999
G1 F3000
G1 X117.822 Y40.295 E.00262
G1 X118.248 Y40.381 E.0136
G1 X118.665 Y40.645 E.01545
G1 X118.954 Y41.13 E.01767
G1 X118.985 Y41.657 E.01652
G1 X118.952 Y41.84 E.00582
G1 X118.697 Y42.284 E.01602
G1 X118.55 Y42.411 E.00608
G1 X118.249 Y42.585 E.01088
G1 X117.987 Y42.655 E.00849
G1 X117.598 Y42.653 E.01217
G1 X117.378 Y42.585 E.00721
G1 X117.077 Y42.412 E.01087
G1 X116.816 Y42.137 E.01187
G1 X116.726 Y41.954 E.00638
G1 X116.619 Y41.462 E.01576
G1 X116.773 Y40.895 E.01839
G1 X117.108 Y40.531 E.01548
G1 X117.334 Y40.398 E.00821
G1 X117.681 Y40.324 E.0111
G1 X117.797 Y40.642 F12000
;TYPE:External perimeter
G1 F3000
G1 X118.074 Y40.682 E.00876
G1 X118.439 Y40.92 E.01364
G1 X118.637 Y41.309 E.01366
G1 X118.626 Y41.718 E.0128
G1 X118.376 Y42.109 E.01452
G1 X117.987 Y42.306 E.01365
G1 X117.552 Y42.283 E.01363
G1 X117.2 Y42.065 E.01296
G1 X117.063 Y41.864 E.00761
G1 X116.973 Y41.438 E.01363
G1 X117.108 Y41.024 E.01363
G1 X117.43 Y40.733 E.01358
G1 X117.739 Y40.655 E.00997
G1 X117.919 Y40.391 F12000
G1 X120.089 Y41.889
;TYPE:Perimeter
G1 F3000
G1 X120.065 Y41.494 E.01238
G1 X120.135 Y41.233 E.00846
G1 X120.4 Y40.815 E.01549
G1 X120.758 Y40.583 E.01335
G1 X121.246 Y40.48 E.01561
G1 X121.672 Y40.566 E.0136
G1 X121.974 Y40.74 E.01091
G1 X122.165 Y40.932 E.00848
G1 X122.395 Y41.372 E.01554
G1 X122.393 Y41.97 E.01871
G1 X122.166 Y42.404 E.01533
G1 X121.974 Y42.596 E.0085
G1 X121.673 Y42.77 E.01088
G1 X121.411 Y42.84 E.00849
G1 X121.022 Y42.839 E.01217
G1 X120.802 Y42.77 E.00722
G1 X120.371 Y42.491 E.01607
G1 X120.097 Y42.021 E.01703
G1 X120.092 Y41.949 E.00226
G1 X120.459 Y41.931 F12000
;TYPE:External perimeter
G1 F3000
G1 X120.414 Y41.842 E.00312
G1 X120.437 Y41.407 E.01363
G1 X120.655 Y41.055 E.01296
G1 X120.853 Y40.919 E.00752
G1 X121.216 Y40.827 E.01172
G1 X121.498 Y40.868 E.00892
G1 X121.863 Y41.106 E.01364
G1 X122.061 Y41.494 E.01363
G1 X122.055 Y41.885 E.01224
G1 X121.838 Y42.264 E.01367
G1 X121.428 Y42.491 E.01467
G1 X120.976 Y42.469 E.01416
G1 X120.611 Y42.231 E.01364
G1 X120.486 Y41.984 E.00866
G1 X120.359 Y41.935 F12000
G1 E-.75 F3000
G1 X75.532 Y37.225 F12000
G1 E.75 F1800
;TYPE:Perimeter
G1 F3000
G1 X127.707 Y38.02 E1.63304
G1 X128.083 Y38.039 E.01178
G1 X128.58 Y38.102 E.01568
G1 X129.066 Y38.226 E.0157
G1 X129.533 Y38.411 E.01572
G1 X129.972 Y38.653 E.01569
G1 X130.378 Y38.948 E.01571
G1 X130.744 Y39.291 E.0157
G1 X131.063 Y39.678 E.0157
G1 X131.332 Y40.101 E.01569
G1 X131.546 Y40.555 E.01571
G1 X131.701 Y41.032 E.0157
G1 X131.795 Y41.525 E.01571
G1 X131.826 Y42.025 E.01568
G1 X131.795 Y42.527 E.01574
G1 X131.701 Y43.019 E.01568
G1 X131.546 Y43.497 E.01573
G1 X131.332 Y43.95 E.01568
G1 X131.063 Y44.374 E.01571
G1 X130.743 Y44.761 E.01572
G1 X130.377 Y45.104 E.0157
G1 X129.97 Y45.399 E.01573
G1 X129.529 Y45.641 E.01574
G1 X129.06 Y45.827 E.01579
G1 X128.562 Y45.953 E.01608
G1 X127.838 Y46.028 E.02278
G1 X75.307 Y41.856 E1.64917
G1 X75.434 Y41.792 E.00445
G1 X75.866 Y41.456 E.01713
G1 X76.217 Y41.044 E.01694
G1 X76.48 Y40.574 E.01686
G1 X76.646 Y40.062 E.01684
G1 X76.71 Y39.518 E.01714
G1 X76.666 Y38.99 E.01658
G1 X76.52 Y38.472 E.01684
G1 X76.274 Y37.992 E.01688
G1 X75.94 Y37.569 E.01687
G1 X75.578 Y37.264 E.01481
G1 E-.75
G1 X71.64 Y41.101 F12000
G1 E.75 F1800
;WIDTH:0.575008
G1 F3000
G1 X71.584 Y41.072 E.00296
;WIDTH:0.545837
G1 X71.528 Y41.043 E.0028
;WIDTH:0.516666
G1 X71.41 Y40.948 E.00633
;WIDTH:0.473393
G1 X71.293 Y40.853 E.00571
;WIDTH:0.43012
G1 X71.175 Y40.758 E.00515
;WIDTH:0.421766
G1 X71.003 Y40.448 E.01179
;WIDTH:0.442149
G1 X70.852 Y40.028 E.01566
;WIDTH:0.460529
G1 X70.774 Y39.429 E.02219
G1 X70.836 Y38.921 E.0188
;WIDTH:0.452958
G1 X71.009 Y38.413 E.01935
;WIDTH:0.435275
G1 X71.163 Y38.172 E.00986
;WIDTH:0.40983
G1 X71.318 Y37.931 E.00922
;WIDTH:0.432145
G1 X71.395 Y37.892 E.00295
;WIDTH:0.479905
G1 X71.472 Y37.853 E.00332
;WIDTH:0.527666
G1 X71.549 Y37.813 E.00371
;WIDTH:0.575426
G1 X71.626 Y37.774 E.00406
;WIDTH:0.623186
G1 X71.703 Y37.735 E.00443
G1 X71.679 Y37.805 E.0038
;WIDTH:0.580489
G1 X71.655 Y37.875 E.00352
;WIDTH:0.537791
G1 X71.631 Y37.946 E.00327
;WIDTH:0.495094
G1 X71.607 Y38.016 E.00295
;WIDTH:0.452396
G1 X71.394 Y38.468 E.01799
;WIDTH:0.452958
G1 X71.231 Y38.987 E.01961
;WIDTH:0.456932
G1 X71.187 Y39.53 E.01983
G1 X71.262 Y40.067 E.01974
;WIDTH:0.433555
G1 X71.449 Y40.571 E.01844
;WIDTH:0.433887
G1 X71.497 Y40.704 E.00486
;WIDTH:0.480927
G1 X71.545 Y40.836 E.00542
;WIDTH:0.527968
G1 X71.592 Y40.969 E.00604
;WIDTH:0.575008
G1 X71.62 Y41.045 E.00381
G1 X73.493 Y41.759 F12000
;TYPE:External perimeter
;WIDTH:0.409708
G1 F3000
G1 X73.046 Y41.668 E.01467
G1 X72.622 Y41.457 E.01523
;WIDTH:0.399999
G1 X72.254 Y41.16 E.0148
G1 X71.902 Y40.692 E.01833
G1 X71.738 Y40.378 E.01109
G1 X71.604 Y39.927 E.01472
G1 X71.562 Y39.458 E.01474
G1 X71.615 Y38.977 E.01514
G1 X71.785 Y38.478 E.0165
G1 X72.059 Y38.027 E.01652
G1 X72.278 Y37.766 E.01066
G1 X72.503 Y37.583 E.00908
;WIDTH:0.427063
G1 X73.033 Y37.263 E.02088
G1 X73.527 Y37.163 E.017
;WIDTH:0.397697
G1 X74.386 Y37.167 E.02671
;WIDTH:0.424452
G1 X74.889 Y37.266 E.01717
G1 X75.307 Y37.491 E.0159
;WIDTH:0.399999
G1 X75.671 Y37.79 E.01474
G1 X75.967 Y38.156 E.01473
G1 X76.186 Y38.573 E.01474
G1 X76.319 Y39.024 E.01472
G1 X76.362 Y39.493 E.01474
G1 X76.313 Y39.961 E.01473
G1 X76.173 Y40.41 E.01472
G1 X75.948 Y40.823 E.01472
G1 X75.626 Y41.202 E.01556
G1 X75.277 Y41.481 E.01398
G1 X74.85 Y41.692 E.01491
;WIDTH:0.409946
G1 X74.382 Y41.805 E.0155
G1 X73.552 Y41.769 E.02674
G1 X73.254 Y42.08 F12000
G1 E-.75 F3000
G1 X70.781 Y38.091 F12000
G1 E.75 F1800
;WIDTH:0.399999
G1 F3000
G1 X71.058 Y37.71 E.01474
G1 X71.425 Y37.367 E.01572
G1 X71.878 Y37.097 E.0165
G1 X72.441 Y36.907 E.0186
;WIDTH:0.434687
G1 X73.53 Y36.817 E.0376
;WIDTH:0.397697
G1 X74.399 Y36.822 E.02702
;WIDTH:0.432039
G1 X74.901 Y36.872 E.01724
G1 X75.423 Y36.873 E.01784
;WIDTH:0.399999
G1 X127.712 Y37.671 E1.63661
G1 X128.104 Y37.691 E.01228
G1 X128.646 Y37.759 E.0171
G1 X129.174 Y37.895 E.01706
G1 X129.681 Y38.096 E.01707
G1 X130.159 Y38.358 E.01706
G1 X130.6 Y38.679 E.01707
G1 X130.998 Y39.052 E.01707
G1 X131.345 Y39.473 E.01707
G1 X131.638 Y39.933 E.01707
G1 X131.87 Y40.427 E.01708
G1 X132.038 Y40.946 E.01707
G1 X132.141 Y41.481 E.01705
G1 X132.175 Y42.025 E.01706
G1 X132.175 Y42.299 E.00858
G1 X132.106 Y42.841 E.0171
G1 X131.97 Y43.37 E.01709
G1 X131.769 Y43.878 E.0171
G1 X131.506 Y44.357 E.0171
G1 X131.185 Y44.799 E.0171
G1 X130.811 Y45.198 E.01711
G1 X130.389 Y45.546 E.01712
G1 X129.928 Y45.839 E.01709
G1 X129.434 Y46.072 E.01709
G1 X128.914 Y46.24 E.0171
G1 X128.377 Y46.343 E.01711
G1 X127.835 Y46.377 E.017
G1 X74.99 Y42.183 E1.65902
;WIDTH:0.41163
G1 X74.47 Y42.165 E.01683
;WIDTH:0.411992
G1 X73.967 Y42.152 E.01629
G1 X73.448 Y42.099 E.01689
;WIDTH:0.399999
G1 X72.589 Y41.992 E.02709
G1 X72.194 Y41.891 E.01276
G1 X71.772 Y41.712 E.01435
G1 X71.263 Y41.352 E.01951
G1 X70.915 Y40.979 E.01596
G1 X70.674 Y40.599 E.01408
G1 X70.493 Y40.114 E.0162
G1 X70.406 Y39.58 E.01693
G1 X70.422 Y39.072 E.01591
G1 X70.537 Y38.592 E.01545
G1 X70.748 Y38.141 E.01558
G1 X71.181 Y38.096 F12000
G1 E-.75 F3000
G1 X76.016 Y41.452 F12000
G1 E.75 F1800
;TYPE:Solid infill
;WIDTH:0.402132
G1 F3000
G1 X76.227 Y41.663 E.0094
G1 X76.766 Y41.706 E.01703
G1 X76.352 Y41.292 E.01844
G1 X76.424 Y41.205 E.00356
G1 X76.546 Y40.99 E.00778
G1 X77.304 Y41.748 E.03375
G1 X77.843 Y41.791 E.01703
G1 X76.721 Y40.67 E.04994
G1 X76.844 Y40.297 E.01237
G1 X78.382 Y41.834 E.06846
G1 X78.92 Y41.877 E.01699
G1 X76.928 Y39.885 E.0887
G1 X76.971 Y39.534 E.01113
G1 X76.962 Y39.423 E.00351
G1 X79.459 Y41.92 E.11119
G1 X79.998 Y41.962 E.01702
G1 X76.9 Y38.865 E.13793
G1 X76.768 Y38.389 E.01555
G1 X76.612 Y38.081 E.01087
G1 X80.536 Y42.005 E.17473
G1 X81.075 Y42.048 E.01703
G1 X76.535 Y37.508 E.20216
G1 X77.038 Y37.516 E.01584
G1 X81.614 Y42.091 E.20375
G1 X82.152 Y42.134 E.01699
G1 X77.542 Y37.523 E.2053
G1 X78.045 Y37.531 E.01584
G1 X82.691 Y42.177 E.20688
G1 X83.23 Y42.219 E.01702
G1 X78.549 Y37.538 E.20844
G1 X79.052 Y37.546 E.01584
G1 X83.768 Y42.262 E.21
G1 X84.307 Y42.305 E.01703
G1 X79.556 Y37.554 E.21156
G1 X80.059 Y37.561 E.01584
G1 X84.846 Y42.348 E.21316
G1 X85.384 Y42.391 E.01699
G1 X80.563 Y37.569 E.2147
G1 X81.066 Y37.576 E.01584
G1 X85.923 Y42.434 E.2163
G1 X86.462 Y42.476 E.01702
G1 X81.57 Y37.584 E.21784
G1 X82.073 Y37.592 E.01584
G1 X87.001 Y42.519 E.21942
G1 X87.539 Y42.562 E.01699
G1 X82.576 Y37.599 E.221
G1 X83.08 Y37.607 E.01587
G1 X88.078 Y42.605 E.22256
G1 X88.617 Y42.648 E.01703
G1 X83.583 Y37.614 E.22416
G1 X84.087 Y37.622 E.01587
G1 X89.155 Y42.69 E.22568
G1 X89.694 Y42.733 E.01703
G1 X84.59 Y37.63 E.22726
G1 X85.094 Y37.637 E.01587
G1 X90.233 Y42.776 E.22884
G1 X90.771 Y42.819 E.01699
G1 X85.597 Y37.645 E.2304
G1 X86.101 Y37.652 E.01587
G1 X91.31 Y42.862 E.23198
G1 X91.849 Y42.905 E.01703
G1 X86.604 Y37.66 E.23356
G1 X87.108 Y37.668 E.01587
G1 X92.387 Y42.947 E.23507
G1 X92.926 Y42.99 E.01703
G1 X87.611 Y37.675 E.23668
G1 X88.115 Y37.683 E.01587
G1 X93.465 Y43.033 E.23823
G1 X94.003 Y43.076 E.01699
G1 X88.618 Y37.69 E.23981
G1 X89.122 Y37.698 E.01587
G1 X94.542 Y43.119 E.24137
G1 X95.081 Y43.161 E.01702
G1 X89.625 Y37.706 E.24293
G1 X90.128 Y37.713 E.01584
G1 X95.619 Y43.204 E.24451
G1 X96.158 Y43.247 E.01703
G1 X90.632 Y37.721 E.24607
G1 X91.135 Y37.729 E.01584
G1 X96.697 Y43.29 E.24765
G1 X97.236 Y43.333 E.01703
G1 X91.639 Y37.736 E.24923
G1 X92.142 Y37.744 E.01584
G1 X97.774 Y43.376 E.25079
G1 X98.313 Y43.418 E.01702
G1 X92.646 Y37.751 E.25235
G1 X93.149 Y37.759 E.01584
G1 X98.852 Y43.461 E.25393
G1 X99.39 Y43.504 E.01699
G1 X93.653 Y37.767 E.25547
G1 X94.156 Y37.774 E.01584
G1 X99.929 Y43.547 E.25707
G1 X100.468 Y43.59 E.01703
G1 X94.66 Y37.782 E.25863
G1 X95.163 Y37.789 E.01584
G1 X101.006 Y43.633 E.26021
G1 X101.545 Y43.675 E.01702
G1 X95.667 Y37.797 E.26175
