; generated by PrusaSlicer 2.6.0-alpha6+win64 on 2023-08-07 at 14:11:34 UTC

; 

; external perimeters extrusion width = 0.40mm
; perimeters extrusion width = 0.40mm
; infill extrusion width = 0.40mm
; solid infill extrusion width = 0.40mm
; top infill extrusion width = 0.40mm
; support material extrusion width = 0.40mm
; first layer extrusion width = 0.40mm

M190 S55 ; set bed temperature and wait for it to be reached
M104 S210 ; set temperature
;TYPE:Custom
print_start EXTRUDER=210 BED=55
M109 S210 ; set temperature and wait for it to be reached
G21 ; set units to millimeters
G90 ; use absolute coordinates
M83 ; use relative distances for extrusion
;Filament gcode
M107
;LAYER_CHANGE
;Z:0.24
;HEIGHT:0.24
G1 Z.24 F6000
G1 E-.75 F3000
G1 X120.242 Y85.267 F6000
G1 E.75 F1800
M204 S7800
;TYPE:Skirt/Brim
;WIDTH:0.4
G1 F3000
G1 X121.128 Y84.413 E.03851
G1 X122.203 Y83.819 E.03844
G1 X123.224 Y83.545 E.03308
G1 X123.924 Y83.488 E.02198
G1 X176.077 Y83.488 E1.63217
G1 X176.776 Y83.545 E.02195
G1 X177.797 Y83.819 E.03308
G1 X179.011 Y84.52 E.04387
G1 X179.758 Y85.267 E.03306
G1 X180.393 Y86.32 E.03848
G1 X180.756 Y87.676 E.04393
G1 X180.79 Y135.844 E1.50745
G1 X180.733 Y136.546 E.02204
G1 X158.425 Y213.63 E2.51139
G1 X157.824 Y214.665 E.03746
G1 X156.982 Y215.516 E.03747
G1 X155.953 Y216.127 E.03745
G1 X155.074 Y216.409 E.02889
G1 X154.117 Y216.519 E.03015
G1 X123.924 Y216.51 E.94491
G1 X123.224 Y216.453 E.02198
G1 X122.203 Y216.179 E.03308
G1 X120.989 Y215.478 E.04387
G1 X120.135 Y214.592 E.03851
G1 X119.54 Y213.516 E.03848
G1 X119.267 Y212.496 E.03305
G1 X119.21 Y211.794 E.02204
G1 X119.21 Y88.203 E3.86787
G1 X119.267 Y87.502 E.02201
G1 X119.54 Y86.482 E.03305
G1 X120.212 Y85.319 E.04204
G1 X120.511 Y85.492 F6000
G1 F3000
G1 X121.34 Y84.69 E.0361
G1 X122.337 Y84.141 E.03562
G1 X123.269 Y83.891 E.0302
G1 X123.924 Y83.836 E.02057
G1 X176.076 Y83.836 E1.63213
G1 X176.731 Y83.891 E.02057
G1 X177.825 Y84.208 E.03565
G1 X178.799 Y84.797 E.03562
G1 X179.588 Y85.618 E.03564
G1 X180.138 Y86.615 E.03563
G1 X180.388 Y87.547 E.0302
G1 X180.442 Y88.203 E.0206
G1 X180.442 Y135.844 E1.49096
G1 X180.273 Y137.046 E.03799
G1 X158.285 Y212.992 E2.4744
G1 X158.101 Y213.5 E.01691
G1 X157.669 Y214.285 E.02804
G1 X156.763 Y215.244 E.04129
G1 X155.809 Y215.81 E.03472
G1 X155.006 Y216.067 E.02639
G1 X154.117 Y216.17 E.02801
G1 X123.924 Y216.161 E.94491
G1 X123.269 Y216.107 E.02057
G1 X122.337 Y215.857 E.0302
G1 X121.201 Y215.201 E.04105
G1 X120.412 Y214.38 E.03564
G1 X119.862 Y213.382 E.03566
G1 X119.612 Y212.45 E.0302
G1 X119.558 Y211.794 E.0206
G1 X119.558 Y88.203 E3.86787
G1 X119.612 Y87.548 E.02057
G1 X119.862 Y86.616 E.0302
G1 X120.481 Y85.544 E.03874
G1 X120.78 Y85.716 F6000
G1 F3000
G1 X121.552 Y84.966 E.03368
G1 X122.47 Y84.463 E.03276
G1 X123.315 Y84.236 E.02738
G1 X123.924 Y84.185 E.01913
G1 X176.076 Y84.185 E1.63213
G1 X176.685 Y84.236 E.01913
G1 X177.53 Y84.463 E.02738
G1 X178.587 Y85.073 E.03819
G1 X179.205 Y85.691 E.02735
G1 X179.749 Y86.587 E.0328
G1 X180.065 Y87.766 E.0382
G1 X180.093 Y135.844 E1.50464
G1 X180.042 Y136.455 E.01919
G1 X157.778 Y213.37 E2.50593
G1 X157.263 Y214.251 E.03194
G1 X156.544 Y214.973 E.03189
G1 X155.665 Y215.492 E.03195
G1 X154.939 Y215.725 E.02386
G1 X154.117 Y215.822 E.0259
G1 X123.924 Y215.813 E.94491
G1 X123.315 Y215.761 E.01913
G1 X122.47 Y215.535 E.02737
G1 X121.413 Y214.925 E.03819
G1 X120.688 Y214.168 E.0328
G1 X120.184 Y213.249 E.0328
G1 X119.958 Y212.405 E.02734
G1 X119.907 Y211.794 E.01919
G1 X119.907 Y88.203 E3.86787
G1 X119.958 Y87.593 E.01916
G1 X120.184 Y86.749 E.02734
G1 X120.75 Y85.768 E.03544
; printing object top (2).stl id:0 copy 0
G1 E-.75
G1 X149.413 Y211.437 F6000
G1 E.75 F1800
;TYPE:Perimeter
;WIDTH:0.399999
G1 F3000
G1 X129.209 Y211.419 E.6323
G1 X128.606 Y211.433 E.01888
G1 X128.792 Y210.941 E.01646
G1 X128.865 Y210.18 E.02393
G1 X128.729 Y209.398 E.02484
G1 X128.388 Y208.672 E.0251
G1 X127.9 Y208.091 E.02375
G1 X127.285 Y207.656 E.02357
G1 X126.527 Y207.374 E.02531
G1 X125.753 Y207.304 E.02432
G1 X125.024 Y207.429 E.02315
G1 X124.297 Y207.759 E.02499
G1 X124.301 Y152.171 E1.73966
G1 X124.593 Y152.346 E.01065
G1 X125.297 Y152.58 E.02322
G1 X126.075 Y152.63 E.0244
G1 X126.849 Y152.472 E.02472
G1 X127.582 Y152.1 E.02572
G1 X128.149 Y151.589 E.02389
G1 X128.574 Y150.936 E.02438
G1 X128.76 Y150.439 E.01661
G1 X128.822 Y150.113 E.01039
G1 X128.86 Y149.466 E.02028
G1 X128.77 Y148.893 E.01815
G1 X128.656 Y148.564 E.0109
G1 X128.351 Y147.964 E.02106
G1 X127.849 Y147.398 E.02368
G1 X127.168 Y146.946 E.02558
G1 X126.431 Y146.704 E.02428
G1 X125.654 Y146.66 E.02436
G1 X124.933 Y146.808 E.02303
G1 X124.3 Y147.103 E.02186
G1 X124.302 Y92.234 E1.71716
G1 X124.638 Y92.428 E.01214
G1 X125.386 Y92.656 E.02447
G1 X126.167 Y92.682 E.02446
G1 X126.928 Y92.505 E.02445
G1 X127.618 Y92.137 E.02447
G1 X128.188 Y91.603 E.02444
G1 X128.601 Y90.94 E.02445
G1 X128.828 Y90.192 E.02446
G1 X128.852 Y89.404 E.02467
G1 X128.742 Y88.859 E.0174
G1 X128.628 Y88.57 E.00972
G1 X148.703 Y88.576 E.62826
G1 X149.327 Y88.557 E.01954
G1 X149.23 Y88.882 E.01061
G1 X149.139 Y89.393 E.01624
G1 X149.197 Y90.163 E.02417
G1 X149.459 Y90.911 E.0248
G1 X149.859 Y91.508 E.02249
G1 X150.434 Y92.021 E.02412
G1 X151.138 Y92.378 E.0247
G1 X151.843 Y92.533 E.02259
G1 X152.383 Y92.535 E.0169
G1 X152.811 Y92.452 E.01364
G1 X153.366 Y92.275 E.01823
G1 X153.983 Y91.9 E.0226
G1 X154.457 Y91.438 E.02071
G1 X154.75 Y90.965 E.01741
G1 X154.931 Y90.571 E.01357
G1 X155.09 Y89.958 E.01982
G1 X155.09 Y89.176 E.02447
G1 X154.923 Y88.558 E.02003
G1 X155.282 Y88.575 E.01125
G1 X170.646 Y88.58 E.48083
G1 X171.325 Y88.564 E.02126
G1 X171.275 Y88.686 E.00413
G1 X171.138 Y89.408 E.023
G1 X171.159 Y89.946 E.01685
G1 X171.249 Y90.334 E.01247
G1 X171.463 Y90.92 E.01952
G1 X171.729 Y91.347 E.01574
G1 X172.035 Y91.678 E.01411
G1 X172.439 Y92.025 E.01667
G1 X172.936 Y92.296 E.01772
G1 X173.173 Y92.387 E.00795
G1 X173.844 Y92.533 E.02149
G1 X174.601 Y92.508 E.0237
G1 X175.235 Y92.338 E.02054
G1 X175.707 Y92.081 E.01682
G1 X175.699 Y131.753 E1.24156
G1 X175.523 Y131.649 E.0064
G1 X174.775 Y131.374 E.02494
G1 X173.976 Y131.308 E.02509
G1 X173.241 Y131.435 E.02334
G1 X172.531 Y131.761 E.02445
G1 X172.09 Y132.099 E.01739
G1 X171.773 Y132.463 E.01511
G1 X171.478 Y132.897 E.01642
G1 X171.206 Y133.63 E.02447
G1 X171.134 Y134.411 E.02455
G1 X171.209 Y134.962 E.0174
G1 X171.406 Y135.481 E.01737
G1 X171.121 Y135.468 E.00893
G1 X154.579 Y135.466 E.51769
G1 X154.248 Y135.531 E.01056
G1 X153.972 Y135.712 E.01033
G1 X153.777 Y135.998 E.01083
G1 X153.708 Y136.337 E.01083
G1 X153.711 Y147.113 E.33724
G1 X153.537 Y147.008 E.00636
G1 X152.799 Y146.73 E.02468
G1 X151.986 Y146.656 E.02555
G1 X151.23 Y146.789 E.02402
G1 X150.564 Y147.095 E.02294
G1 X150.087 Y147.455 E.0187
G1 X149.921 Y147.62 E.00732
G1 X149.593 Y148.049 E.0169
G1 X149.438 Y148.345 E.01046
G1 X149.213 Y148.959 E.02047
G1 X149.135 Y149.526 E.01791
G1 X149.15 Y149.873 E.01087
G1 X149.272 Y150.547 E.02144
G1 X149.593 Y151.24 E.0239
G1 X150.08 Y151.828 E.02389
G1 X150.731 Y152.293 E.02504
G1 X151.451 Y152.559 E.02402
G1 X152.259 Y152.633 E.02539
G1 X153.023 Y152.499 E.02427
G1 X153.707 Y152.183 E.02358
G1 X153.708 Y152.466 E.00886
G1 X153.708 Y207.711 E1.72893
G1 X153.537 Y207.608 E.00625
G1 X152.799 Y207.33 E.02468
G1 X151.986 Y207.256 E.02555
G1 X151.23 Y207.389 E.02402
G1 X150.564 Y207.695 E.02294
G1 X150.087 Y208.055 E.0187
G1 X149.92 Y208.221 E.00737
G1 X149.481 Y208.842 E.0238
G1 X149.213 Y209.559 E.02396
G1 X149.135 Y210.361 E.02522
G1 X149.208 Y210.897 E.01693
G1 X149.392 Y211.381 E.0162
G1 X150.102 Y211.823 F6000
G1 F3000
G1 X149.17 Y211.774 E.02921
G1 X129.742 Y211.768 E.60801
G1 X128.85 Y211.768 E.02792
G1 X127.934 Y211.819 E.02871
G1 X128.166 Y211.55 E.01112
G1 X128.447 Y210.894 E.02233
G1 X128.519 Y210.226 E.02103
G1 X128.408 Y209.535 E.0219
G1 X128.112 Y208.886 E.02232
G1 X127.688 Y208.368 E.02095
G1 X127.151 Y207.978 E.02077
G1 X126.483 Y207.72 E.02241
G1 X125.799 Y207.65 E.02152
G1 X125.156 Y207.751 E.02037
G1 X124.476 Y208.054 E.0233
G1 X123.939 Y208.527 E.0224
G1 X123.952 Y152.548 E1.7519
G1 X123.952 Y151.968 E.01815
G1 X123.924 Y151.373 E.01864
G1 X124.117 Y151.602 E.00937
G1 X124.715 Y152.02 E.02283
G1 X125.332 Y152.233 E.02043
G1 X126.019 Y152.286 E.02156
G1 X126.703 Y152.156 E.02179
G1 X127.359 Y151.832 E.0229
G1 X127.864 Y151.388 E.02104
G1 X128.248 Y150.814 E.02161
G1 X128.433 Y150.317 E.0166
G1 X128.475 Y150.078 E.00759
G1 X128.515 Y149.519 E.01754
G1 X128.426 Y148.946 E.01815
G1 X128.339 Y148.709 E.0079
G1 X128.082 Y148.185 E.01827
G1 X127.645 Y147.68 E.0209
G1 X127.047 Y147.272 E.02266
G1 X126.398 Y147.051 E.02146
G1 X125.711 Y147.003 E.02155
G1 X125.074 Y147.127 E.02031
G1 X124.403 Y147.451 E.02332
G1 X123.934 Y147.883 E.01996
G1 X123.953 Y147.009 E.02736
G1 X123.953 Y93.223 E1.68327
G1 X123.953 Y92.173 E.03286
G1 X123.93 Y91.439 E.02298
G1 X124.169 Y91.716 E.01145
G1 X124.752 Y92.099 E.02183
G1 X125.411 Y92.309 E.02165
G1 X126.101 Y92.34 E.02162
G1 X126.776 Y92.192 E.02163
G1 X127.389 Y91.874 E.02161
G1 X127.899 Y91.408 E.02162
G1 X128.272 Y90.826 E.02163
G1 X128.48 Y90.167 E.02163
G1 X128.52 Y89.613 E.01738
G1 X128.467 Y89.258 E.01123
G1 X128.343 Y88.773 E.01567
G1 X127.969 Y88.17 E.02221
G1 X128.669 Y88.222 E.02197
G1 X129.329 Y88.232 E.02066
G1 X148.294 Y88.227 E.59352
G1 X149.176 Y88.215 E.02761
G1 X149.934 Y88.18 E.02375
G1 X149.62 Y88.75 E.02037
G1 X149.488 Y89.381 E.02018
G1 X149.529 Y90.059 E.02126
G1 X149.755 Y90.727 E.02207
G1 X150.102 Y91.258 E.01985
G1 X150.602 Y91.716 E.02122
G1 X151.226 Y92.04 E.022
G1 X151.844 Y92.184 E.01986
G1 X152.523 Y92.169 E.02125
G1 X153.196 Y91.971 E.02195
G1 X153.743 Y91.647 E.0199
G1 X154.184 Y91.221 E.01919
G1 X154.451 Y90.785 E.016
G1 X154.598 Y90.468 E.01094
G1 X154.742 Y89.943 E.01704
G1 X154.751 Y89.258 E.02144
G1 X154.624 Y88.733 E.0169
G1 X154.304 Y88.176 E.0201
G1 X155.282 Y88.227 E.03065
G1 X170.637 Y88.232 E.48055
G1 X171.44 Y88.212 E.02514
G1 X171.941 Y88.171 E.01573
G1 X171.614 Y88.766 E.02125
G1 X171.487 Y89.395 E.02008
G1 X171.507 Y89.933 E.01685
G1 X171.582 Y90.229 E.00956
G1 X171.759 Y90.736 E.01681
G1 X172.106 Y91.263 E.01975
G1 X172.495 Y91.637 E.01689
G1 X172.719 Y91.781 E.00833
G1 X173.261 Y92.05 E.01894
G1 X173.845 Y92.184 E.01875
G1 X174.515 Y92.17 E.02097
G1 X175.163 Y91.987 E.02107
G1 X175.633 Y91.724 E.01686
G1 X176.069 Y91.304 E.01895
G1 X176.047 Y92.67 E.04276
G1 X176.048 Y131.894 E1.22754
G1 X176.067 Y132.523 E.01969
G1 X175.948 Y132.394 E.00549
G1 X175.389 Y131.971 E.02194
G1 X174.735 Y131.72 E.02192
G1 X174.021 Y131.654 E.02244
G1 X173.404 Y131.745 E.01952
G1 X172.937 Y131.938 E.01581
G1 X172.69 Y132.078 E.00889
G1 X172.206 Y132.472 E.01953
G1 X171.8 Y133.031 E.02162
G1 X171.552 Y133.676 E.02163
G1 X171.48 Y134.365 E.02168
G1 X171.597 Y135.063 E.02215
G1 X171.829 Y135.566 E.01734
G1 X172.085 Y135.863 E.01227
G1 X171.121 Y135.816 E.0302
G1 X154.579 Y135.814 E.51769
G1 X154.303 Y135.893 E.00898
G1 X154.119 Y136.088 E.00839
G1 X154.056 Y136.337 E.00804
G1 X154.071 Y147.839 E.35996
G1 X153.4 Y147.329 E.02638
G1 X152.754 Y147.076 E.02171
G1 X152.034 Y147.001 E.02265
G1 X151.364 Y147.111 E.02125
G1 X150.774 Y147.373 E.0202
G1 X150.198 Y147.832 E.02305
G1 X149.87 Y148.261 E.0169
G1 X149.76 Y148.48 E.00767
G1 X149.558 Y149.007 E.01766
G1 X149.481 Y149.573 E.01788
G1 X149.496 Y149.825 E.0079
G1 X149.594 Y150.413 E.01866
G1 X149.87 Y151.028 E.0211
G1 X150.293 Y151.552 E.02108
G1 X150.865 Y151.971 E.02219
G1 X151.496 Y152.214 E.02116
G1 X152.211 Y152.288 E.0225
G1 X152.889 Y152.177 E.0215
G1 X153.489 Y151.906 E.0206
G1 X153.923 Y151.564 E.01729
G1 X154.048 Y151.423 E.0059
G1 X154.066 Y151.634 E.00663
G1 X154.057 Y206.942 E1.7309
G1 X154.079 Y208.514 E.0492
G1 X153.928 Y208.329 E.00747
G1 X153.4 Y207.929 E.02073
G1 X152.754 Y207.676 E.02171
G1 X152.034 Y207.601 E.02265
G1 X151.364 Y207.711 E.02125
G1 X150.774 Y207.973 E.0202
G1 X150.197 Y208.433 E.02309
G1 X149.803 Y208.977 E.02102
G1 X149.558 Y209.607 E.02115
G1 X149.481 Y210.315 E.02229
G1 X149.595 Y210.997 E.02164
G1 X149.821 Y211.492 E.01703
G1 X150.063 Y211.777 E.0117
G1 X151.551 Y212.293 F6000
;TYPE:External perimeter
G1 F3000
G1 X150.691 Y212.272 E.02692
G1 X150.342 Y212.207 E.01111
G1 X149.828 Y212.157 E.01616
G1 X149.17 Y212.122 E.02062
G1 X128.87 Y212.116 E.6353
G1 X128.112 Y212.158 E.02376
G1 X127.553 Y212.231 E.01764
G1 X126.429 Y212.317 E.03528
G1 X126.966 Y212.146 E.01764
G1 X127.41 Y211.832 E.01702
G1 X127.851 Y211.403 E.01925
G1 X128.102 Y210.847 E.01909
G1 X128.174 Y210.272 E.01814
G1 X128.088 Y209.672 E.01897
G1 X127.837 Y209.1 E.01955
G1 X127.476 Y208.644 E.0182
G1 X127.017 Y208.3 E.01795
G1 X126.438 Y208.065 E.01956
G1 X125.844 Y207.995 E.01872
G1 X125.287 Y208.074 E.01761
G1 X124.697 Y208.323 E.02004
G1 X124.234 Y208.715 E.01899
;WIDTH:0.427968
G1 X123.92 Y209.2 E.01953
G1 X123.798 Y209.763 E.01948
;WIDTH:0.390637
G1 X123.745 Y210.315 E.01689
;WIDTH:0.39363
G1 X123.804 Y210.858 E.01678
;WIDTH:0.419059
G1 X123.876 Y211.12 E.00897
;WIDTH:0.444487
G1 X123.949 Y211.382 E.0096
;WIDTH:0.487639
G1 X124.013 Y211.502 E.00533
;WIDTH:0.53079
G1 X124.077 Y211.622 E.00585
G1 X124.324 Y211.902 E.01607
;WIDTH:0.528405
G1 X124.748 Y212.2 E.02219
G1 X124.217 Y212.161 E.0228
G1 X123.861 Y212.063 E.01581
;WIDTH:0.53079
G1 X123.711 Y211.932 E.00857
G1 X123.639 Y211.701 E.01041
;WIDTH:0.487639
G1 X123.568 Y211.469 E.0095
;WIDTH:0.444487
G1 X123.509 Y211.121 E.01246
;WIDTH:0.417587
G1 X123.45 Y210.774 E.01157
;WIDTH:0.390686
G1 X123.436 Y210.254 E.01584
;WIDTH:0.392044
G1 X123.467 Y209.681 E.01755
;WIDTH:0.40407
G1 X123.577 Y208.815 E.02764
G1 X123.6 Y208.307 E.0161
;WIDTH:0.399999
G1 X123.604 Y152.272 E1.75365
G1 X123.582 Y151.521 E.02351
;WIDTH:0.4401
G1 X123.564 Y150.889 E.02206
G1 X123.477 Y150.292 E.02105
;WIDTH:0.393103
G1 X123.446 Y149.685 E.01864
;WIDTH:0.401171
G1 X123.457 Y149.001 E.02148
;WIDTH:0.414441
G1 X123.532 Y148.468 E.01754
G1 X123.587 Y147.784 E.02237
;WIDTH:0.399999
G1 X123.605 Y147.009 E.02426
G1 X123.605 Y92.184 E1.71579
G1 X123.573 Y91.186 E.03125
;WIDTH:0.412312
G1 X123.436 Y89.8 E.04513
;WIDTH:0.386064
G1 X123.449 Y89.202 E.01797
;WIDTH:0.430286
G1 X123.516 Y88.87 E.01152
;WIDTH:0.474507
G1 X123.582 Y88.539 E.01282
;WIDTH:0.518728
G1 X123.648 Y88.207 E.0142
;WIDTH:0.521483
G1 X123.738 Y88.023 E.00864
G1 X123.914 Y87.91 E.00883
G1 X124.431 Y87.796 E.02234
G1 X124.786 Y87.794 E.01498
G1 X124.649 Y87.863 E.00647
G1 X124.226 Y88.167 E.02199
G1 X124.125 Y88.29 E.00672
G1 X124.045 Y88.445 E.00736
;WIDTH:0.485385
G1 X123.966 Y88.601 E.00681
;WIDTH:0.449286
G1 X123.886 Y88.757 E.00626
;WIDTH:0.413187
G1 X123.775 Y89.297 E.01791
;WIDTH:0.381091
G1 X123.747 Y89.811 E.01524
;WIDTH:0.393868
G1 X123.791 Y90.142 E.01027
;WIDTH:0.414519
G1 X123.879 Y90.636 E.01636
G1 X124.052 Y91.019 E.0137
;WIDTH:0.399999
G1 X124.369 Y91.431 E.01627
G1 X124.866 Y91.77 E.01883
G1 X125.436 Y91.961 E.01881
G1 X126.035 Y91.998 E.01878
G1 X126.624 Y91.878 E.01881
G1 X127.161 Y91.61 E.01878
G1 X127.611 Y91.213 E.01878
G1 X127.942 Y90.712 E.01879
G1 X128.133 Y90.142 E.01881
G1 X128.169 Y89.542 E.01881
G1 X128.04 Y88.945 E.01911
G1 X127.767 Y88.465 E.01728
G1 X127.502 Y88.225 E.01119
G1 X126.856 Y87.791 E.02436
G1 X126.706 Y87.733 E.00503
G1 X127.338 Y87.733 E.01978
G1 X128.342 Y87.868 E.0317
G1 X129.326 Y87.883 E.0308
G1 X148.939 Y87.879 E.6138
G1 X149.917 Y87.829 E.03065
G1 X150.411 Y87.729 E.01577
G1 X151.022 Y87.729 E.01912
G1 X150.552 Y88.086 E.01847
G1 X150.235 Y88.363 E.01317
G1 X149.959 Y88.832 E.01703
G1 X149.836 Y89.37 E.01727
G1 X149.862 Y89.956 E.01836
G1 X150.051 Y90.544 E.01933
G1 X150.344 Y91.007 E.01715
G1 X150.77 Y91.41 E.01835
G1 X151.314 Y91.703 E.01934
G1 X151.846 Y91.836 E.01716
G1 X152.432 Y91.832 E.01834
G1 X153.027 Y91.666 E.01933
G1 X153.503 Y91.394 E.01716
G1 X153.924 Y90.986 E.01835
G1 X154.238 Y90.455 E.01931
G1 X154.394 Y89.928 E.0172
G1 X154.412 Y89.34 E.01841
G1 X154.263 Y88.762 E.01868
G1 X153.992 Y88.336 E.0158
G1 X153.663 Y88.038 E.01389
G1 X153.238 Y87.729 E.01644
G1 X153.792 Y87.729 E.01734
G1 X154.289 Y87.827 E.01585
