; generated by PrusaSlicer 2.6.0-alpha6+win64 on 2023-08-07 at 09:33:11 UTC

; 

; external perimeters extrusion width = 0.40mm
; perimeters extrusion width = 0.40mm
; infill extrusion width = 0.40mm
; solid infill extrusion width = 0.40mm
; top infill extrusion width = 0.40mm
; support material extrusion width = 0.40mm
; first layer extrusion width = 0.40mm

M190 S55 ; set bed temperature and wait for it to be reached
M104 S210 ; set temperature
;TYPE:Custom
print_start EXTRUDER=210 BED=55
M109 S210 ; set temperature and wait for it to be reached
G21 ; set units to millimeters
G90 ; use absolute coordinates
M83 ; use relative distances for extrusion
;Filament gcode
M107
;LAYER_CHANGE
;Z:0.24
;HEIGHT:0.24
G1 Z.24 F6000
G1 E-.75 F3000
G1 X119.997 Y85.019 F6000
G1 E.75 F1800
M204 S3000
;TYPE:Skirt/Brim
;WIDTH:0.4
G1 F4800
G1 X120.954 Y84.111 E.04129
G1 X122.114 Y83.481 E.04131
G1 X123.134 Y83.208 E.03305
G1 X125.225 Y83.133 E.06548
G1 X154.092 Y83.138 E.90341
G1 X154.866 Y83.208 E.02432
G1 X155.886 Y83.481 E.03305
G1 X157.256 Y84.272 E.04951
G1 X158.165 Y85.229 E.04131
G1 X158.693 Y86.144 E.03306
G1 X158.942 Y86.812 E.02231
G1 X180.942 Y162.762 E2.47462
G1 X181.137 Y164.15 E.04387
G1 X181.102 Y212.319 E1.50748
G1 X180.704 Y213.82 E.0486
G1 X180.003 Y214.973 E.04223
G1 X179.046 Y215.881 E.04129
G1 X178.131 Y216.409 E.03306
G1 X176.866 Y216.784 E.04129
G1 X174.76 Y216.858 E.06595
G1 X123.397 Y216.818 E1.60744
G1 X121.896 Y216.42 E.0486
G1 X120.744 Y215.719 E.0422
G1 X119.835 Y214.762 E.04131
G1 X119.307 Y213.847 E.03306
G1 X118.932 Y212.582 E.04129
G1 X118.863 Y211.791 E.02485
G1 X118.863 Y88.2 E3.86787
G1 X118.932 Y87.409 E.02485
G1 X119.307 Y86.144 E.04129
G1 X119.966 Y85.07 E.03943
M204 S10000
G1 X120.261 Y85.252 F6000
M204 S3000
G1 F4800
G1 X121.166 Y84.387 E.03918
G1 X122.247 Y83.803 E.03845
G1 X123.179 Y83.553 E.0302
G1 X125.226 Y83.482 E.0641
G1 X154.09 Y83.487 E.90332
G1 X154.821 Y83.553 E.02297
G1 X155.998 Y83.905 E.03845
G1 X157.044 Y84.548 E.03843
G1 X157.888 Y85.441 E.03845
G1 X158.371 Y86.277 E.03022
G1 X158.608 Y86.909 E.02112
G1 X180.608 Y162.859 E2.47462
G1 X180.788 Y164.15 E.04079
G1 X180.757 Y212.274 E1.50608
G1 X180.382 Y213.687 E.04575
G1 X179.727 Y214.76 E.03934
G1 X178.834 Y215.604 E.03845
G1 X177.998 Y216.087 E.03022
G1 X176.821 Y216.438 E.03844
G1 X174.76 Y216.51 E.06454
G1 X123.442 Y216.473 E1.60603
G1 X122.029 Y216.098 E.04575
G1 X120.956 Y215.443 E.03934
G1 X120.112 Y214.55 E.03845
G1 X119.629 Y213.714 E.03022
G1 X119.278 Y212.537 E.03844
G1 X119.212 Y211.791 E.02344
G1 X119.212 Y88.2 E3.86787
G1 X119.278 Y87.455 E.02341
G1 X119.629 Y86.277 E.03847
G1 X120.229 Y85.303 E.0358
M204 S10000
G1 X120.489 Y85.547 F6000
M204 S3000
G1 F4800
G1 X121.168 Y84.825 E.03102
G1 X122.381 Y84.125 E.04383
G1 X123.488 Y83.864 E.03559
G1 X154.089 Y83.835 E.95768
G1 X154.775 Y83.899 E.02156
G1 X155.865 Y84.226 E.03561
G1 X156.832 Y84.825 E.0356
G1 X157.612 Y85.654 E.03562
G1 X158.15 Y86.656 E.03559
G1 X180.273 Y162.955 E2.48618
G1 X180.44 Y164.15 E.03776
G1 X180.411 Y212.228 E1.50464
G1 X180.06 Y213.553 E.0429
G1 X179.45 Y214.548 E.03653
G1 X178.622 Y215.328 E.0356
G1 X177.865 Y215.765 E.02736
G1 X176.775 Y216.093 E.03562
G1 X174.76 Y216.161 E.0631
G1 X123.921 Y216.156 E1.59104
G1 X123.225 Y216.093 E.02187
G1 X122.381 Y215.866 E.02735
G1 X121.168 Y215.166 E.04383
G1 X120.388 Y214.338 E.0356
G1 X119.951 Y213.581 E.02736
G1 X119.623 Y212.491 E.03562
G1 X119.56 Y211.791 E.022
G1 X119.56 Y88.2 E3.86787
G1 X119.624 Y87.5 E.022
G1 X119.951 Y86.411 E.03558
G1 X120.388 Y85.654 E.02736
G1 X120.448 Y85.591 E.00272
M204 S10000
; printing object bottom (3).stl id:0 copy 0
G1 E-.75 F3000
G1 X154.923 Y164.002 F6000
G1 E.75 F1800
M204 S3000
;TYPE:Perimeter
;WIDTH:0.399999
G1 F4800
G1 X155.067 Y164.032 E.0046
G1 X176.004 Y164.031 E.65524
G1 X176.142 Y164.062 E.00443
G1 X176.194 Y164.221 E.00524
G1 X176.194 Y211.72 E1.48651
G1 X176.163 Y211.858 E.00443
G1 X176.016 Y211.91 E.00488
G1 X148.219 Y211.911 E.86993
G1 X147.506 Y211.925 E.02232
G1 X123.996 Y211.91 E.73576
G1 X123.853 Y211.871 E.00464
G1 X123.806 Y211.732 E.00459
G1 X123.806 Y88.271 E3.8638
G1 X123.837 Y88.133 E.00443
G1 X123.984 Y88.081 E.00488
G1 X154.004 Y88.081 E.9395
G1 X154.142 Y88.112 E.00443
G1 X154.194 Y88.259 E.00488
G1 X154.195 Y163.16 E2.34408
G1 X154.264 Y163.499 E.01083
G1 X154.44 Y163.766 E.01001
G1 X154.72 Y163.96 E.01066
G1 X154.864 Y163.99 E.0046
M204 S10000
G1 X154.985 Y163.662 F6000
M204 S3000
G1 F4800
G1 X155.067 Y163.683 E.00265
G1 X176.004 Y163.682 E.65524
G1 X176.306 Y163.749 E.00968
G1 X176.476 Y163.919 E.00752
G1 X176.543 Y164.221 E.00968
G1 X176.543 Y211.72 E1.48651
G1 X176.476 Y212.023 E.00971
G1 X176.306 Y212.192 E.0075
G1 X176.039 Y212.259 E.00862
G1 X148.219 Y212.26 E.87065
G1 X147.518 Y212.274 E.02194
G1 X123.996 Y212.259 E.73614
G1 X123.714 Y212.201 E.00901
G1 X123.524 Y212.023 E.00815
G1 X123.457 Y211.755 E.00865
G1 X123.457 Y88.271 E3.86451
G1 X123.524 Y87.969 E.00968
G1 X123.693 Y87.799 E.0075
G1 X123.961 Y87.732 E.00865
G1 X154.004 Y87.732 E.94022
G1 X154.306 Y87.799 E.00968
G1 X154.476 Y87.969 E.00752
G1 X154.543 Y88.236 E.00862
G1 X154.544 Y163.16 E2.3448
G1 X154.619 Y163.43 E.00877
G1 X154.807 Y163.614 E.00823
G1 X154.927 Y163.646 E.00389
M204 S10000
G1 X155.067 Y163.335 F6000
M204 S3000
;TYPE:External perimeter
G1 F4800
G1 X176.004 Y163.334 E.65524
G1 X176.12 Y163.341 E.00364
G1 X176.482 Y163.445 E.01179
G1 X176.716 Y163.659 E.00992
G1 X176.862 Y163.939 E.00988
G1 X176.891 Y164.221 E.00887
G1 X176.891 Y211.778 E1.48833
G1 X176.821 Y212.1 E.01031
G1 X176.651 Y212.367 E.00991
G1 X176.384 Y212.537 E.00991
G1 X176.062 Y212.607 E.01031
G1 X148.219 Y212.608 E.87137
G1 X147.53 Y212.622 E.02157
G1 X123.996 Y212.607 E.73651
G1 X123.714 Y212.578 E.00887
G1 X123.347 Y212.365 E.01328
G1 X123.181 Y212.106 E.00963
G1 X123.109 Y211.778 E.01051
G1 X123.109 Y88.213 E3.86705
G1 X123.179 Y87.891 E.01031
G1 X123.349 Y87.624 E.00991
G1 X123.616 Y87.454 E.00991
G1 X123.938 Y87.384 E.01031
G1 X154.062 Y87.384 E.94275
G1 X154.384 Y87.454 E.01031
G1 X154.651 Y87.624 E.00991
G1 X154.821 Y87.891 E.00991
G1 X154.891 Y88.213 E.01031
G1 X154.892 Y163.16 E2.34552
G1 X154.931 Y163.27 E.00365
G1 X155.012 Y163.309 E.00281
M204 S10000
G1 X155.17 Y163.721 F6000
G1 E-.75 F3000
G1 X176.088 Y164.645 F6000
G1 E.75 F1800
M204 S3000
;TYPE:Solid infill
;WIDTH:0.400212
G1 F4800
G1 X175.737 Y164.294 E.01554
G1 X175.244 Y164.294 E.01544
G1 X175.931 Y164.982 E.03045
G1 X175.931 Y165.475 E.01544
G1 X174.75 Y164.294 E.0523
G1 X174.257 Y164.294 E.01544
G1 X175.931 Y165.968 E.07413
G1 X175.931 Y166.461 E.01544
G1 X173.764 Y164.294 E.09597
G1 X173.271 Y164.294 E.01544
G1 X175.931 Y166.954 E.1178
G1 X175.931 Y167.447 E.01544
G1 X172.778 Y164.294 E.13963
G1 X172.284 Y164.294 E.01547
G1 X175.931 Y167.94 E.16149
G1 X175.931 Y168.434 E.01547
G1 X171.791 Y164.294 E.18334
G1 X171.298 Y164.294 E.01544
G1 X175.931 Y168.927 E.20518
G1 X175.931 Y169.42 E.01544
G1 X170.805 Y164.294 E.22701
G1 X170.312 Y164.294 E.01544
G1 X175.931 Y169.913 E.24884
G1 X175.931 Y170.406 E.01544
G1 X169.818 Y164.293 E.27072
G1 X169.325 Y164.293 E.01544
G1 X175.931 Y170.899 E.29255
G1 X175.931 Y171.392 E.01544
G1 X168.832 Y164.293 E.31439
G1 X168.339 Y164.293 E.01544
G1 X175.931 Y171.886 E.33624
G1 X175.931 Y172.379 E.01544
G1 X167.846 Y164.293 E.35807
G1 X167.352 Y164.293 E.01547
G1 X175.931 Y172.872 E.37993
G1 X175.931 Y173.365 E.01544
G1 X166.859 Y164.293 E.40176
G1 X166.366 Y164.293 E.01544
G1 X175.931 Y173.858 E.42359
G1 X175.931 Y174.351 E.01544
G1 X165.873 Y164.293 E.44543
G1 X165.38 Y164.293 E.01544
G1 X175.931 Y174.845 E.46728
G1 X175.931 Y175.338 E.01544
G1 X164.886 Y164.293 E.48914
G1 X164.393 Y164.293 E.01544
G1 X175.931 Y175.831 E.51097
G1 X175.931 Y176.324 E.01544
G1 X163.9 Y164.293 E.5328
G1 X163.407 Y164.293 E.01544
G1 X175.931 Y176.817 E.55464
G1 X175.931 Y177.31 E.01544
G1 X162.914 Y164.293 E.57647
G1 X162.421 Y164.293 E.01544
G1 X175.931 Y177.803 E.5983
G1 X175.931 Y178.297 E.01547
G1 X161.927 Y164.293 E.62018
G1 X161.434 Y164.293 E.01544
G1 X175.931 Y178.79 E.64201
G1 X175.931 Y179.283 E.01544
G1 X160.941 Y164.293 E.66384
G1 X160.448 Y164.293 E.01544
G1 X175.931 Y179.776 E.68568
G1 X175.931 Y180.269 E.01544
G1 X159.955 Y164.293 E.70751
G1 X159.461 Y164.293 E.01547
G1 X175.931 Y180.762 E.72937
G1 X175.931 Y181.255 E.01544
G1 X158.968 Y164.293 E.7512
G1 X158.475 Y164.292 E.01544
G1 X175.931 Y181.749 E.77308
G1 X175.931 Y182.242 E.01544
G1 X157.982 Y164.292 E.79491
G1 X157.489 Y164.292 E.01544
G1 X175.931 Y182.735 E.81674
G1 X175.931 Y183.228 E.01544
G1 X156.995 Y164.292 E.8386
G1 X156.502 Y164.292 E.01544
G1 X175.931 Y183.721 E.86043
G1 X175.931 Y184.214 E.01544
G1 X156.009 Y164.292 E.88226
G1 X155.516 Y164.292 E.01544
G1 X175.931 Y184.707 E.9041
G1 X175.931 Y185.201 E.01547
G1 X155.023 Y164.292 E.92595
G1 X154.829 Y164.268 E.00612
G1 X154.652 Y164.215 E.00579
G1 X154.468 Y164.122 E.00646
G1 X154.321 Y164.014 E.00571
G1 X154.185 Y163.872 E.00616
G1 X154.07 Y163.699 E.00651
G1 X154.002 Y163.548 E.00519
G1 X153.951 Y163.356 E.00622
G1 X153.938 Y163.207 E.00468
G1 X124.068 Y133.337 E1.32282
G1 X124.068 Y132.844 E.01544
G1 X153.934 Y162.71 E1.32264
G1 X153.934 Y162.217 E.01544
G1 X124.068 Y132.351 E1.32264
G1 X124.068 Y131.858 E.01544
G1 X153.934 Y161.724 E1.32264
G1 X153.934 Y161.231 E.01544
G1 X124.068 Y131.365 E1.32264
G1 X124.068 Y130.871 E.01547
G1 X153.934 Y160.738 E1.32266
G1 X153.934 Y160.244 E.01547
G1 X124.068 Y130.378 E1.32264
G1 X124.068 Y129.885 E.01544
G1 X153.934 Y159.751 E1.32264
G1 X153.934 Y159.258 E.01544
G1 X124.068 Y129.392 E1.32264
G1 X124.068 Y128.899 E.01544
G1 X153.934 Y158.765 E1.32264
G1 X153.934 Y158.272 E.01544
G1 X124.068 Y128.406 E1.32264
G1 X124.068 Y127.913 E.01544
G1 X153.934 Y157.779 E1.32264
G1 X153.934 Y157.285 E.01547
G1 X124.068 Y127.419 E1.32264
G1 X124.068 Y126.926 E.01544
G1 X153.934 Y156.792 E1.32264
G1 X153.934 Y156.299 E.01544
G1 X124.068 Y126.433 E1.32264
G1 X124.068 Y125.94 E.01544
G1 X153.934 Y155.806 E1.32264
G1 X153.934 Y155.313 E.01544
G1 X124.068 Y125.447 E1.32264
G1 X124.068 Y124.954 E.01544
G1 X153.934 Y154.82 E1.32264
G1 X153.934 Y154.326 E.01547
G1 X124.068 Y124.46 E1.32264
G1 X124.068 Y123.967 E.01544
G1 X153.934 Y153.833 E1.32264
G1 X153.934 Y153.34 E.01544
G1 X124.068 Y123.474 E1.32264
G1 X124.068 Y122.981 E.01544
G1 X153.934 Y152.847 E1.32264
G1 X153.933 Y152.354 E.01544
G1 X124.068 Y122.488 E1.32262
G1 X124.068 Y121.995 E.01544
G1 X153.933 Y151.861 E1.32262
G1 X153.933 Y151.367 E.01547
G1 X124.068 Y121.502 E1.3226
G1 X124.068 Y121.008 E.01547
G1 X153.933 Y150.874 E1.32262
G1 X153.933 Y150.381 E.01544
G1 X124.068 Y120.515 E1.32262
G1 X124.068 Y120.022 E.01544
G1 X153.933 Y149.888 E1.32262
G1 X153.933 Y149.395 E.01544
G1 X124.068 Y119.529 E1.32262
G1 X124.068 Y119.036 E.01544
G1 X153.933 Y148.902 E1.32262
G1 X153.933 Y148.408 E.01547
G1 X124.068 Y118.543 E1.3226
G1 X124.068 Y118.049 E.01547
G1 X153.933 Y147.915 E1.32262
G1 X153.933 Y147.422 E.01544
G1 X124.068 Y117.556 E1.32262
G1 X124.068 Y117.063 E.01544
G1 X153.933 Y146.929 E1.32262
G1 X153.933 Y146.436 E.01544
G1 X124.068 Y116.57 E1.32262
G1 X124.067 Y116.077 E.01544
G1 X153.933 Y145.943 E1.32264
G1 X153.933 Y145.449 E.01547
G1 X124.067 Y115.584 E1.32262
G1 X124.067 Y115.091 E.01544
G1 X153.933 Y144.956 E1.32262
G1 X153.933 Y144.463 E.01544
G1 X124.067 Y114.597 E1.32264
G1 X124.067 Y114.104 E.01544
G1 X153.933 Y143.97 E1.32264
G1 X153.933 Y143.477 E.01544
G1 X124.067 Y113.611 E1.32264
G1 X124.067 Y113.118 E.01544
G1 X153.933 Y142.984 E1.32264
G1 X153.933 Y142.49 E.01547
G1 X124.067 Y112.625 E1.32262
G1 X124.067 Y112.132 E.01544
G1 X153.933 Y141.997 E1.32262
G1 X153.933 Y141.504 E.01544
G1 X124.067 Y111.638 E1.32264
G1 X124.067 Y111.145 E.01544
G1 X153.933 Y141.011 E1.32264
G1 X153.933 Y140.518 E.01544
G1 X124.067 Y110.652 E1.32264
G1 X124.067 Y110.159 E.01544
G1 X153.933 Y140.025 E1.32264
G1 X153.933 Y139.531 E.01547
G1 X124.067 Y109.666 E1.32262
G1 X124.067 Y109.173 E.01544
G1 X153.933 Y139.038 E1.32262
G1 X153.933 Y138.545 E.01544
G1 X124.067 Y108.68 E1.32262
G1 X124.067 Y108.186 E.01547
G1 X153.933 Y138.052 E1.32264
G1 X153.933 Y137.559 E.01544
G1 X124.067 Y107.693 E1.32264
G1 X124.067 Y107.2 E.01544
G1 X153.933 Y137.066 E1.32264
G1 X153.933 Y136.572 E.01547
G1 X124.067 Y106.707 E1.32262
G1 X124.067 Y106.214 E.01544
G1 X153.933 Y136.079 E1.32262
G1 X153.933 Y135.586 E.01544
G1 X124.067 Y105.721 E1.32262
G1 X124.067 Y105.227 E.01547
G1 X153.933 Y135.093 E1.32264
G1 X153.933 Y134.6 E.01544
G1 X124.067 Y104.734 E1.32264
G1 X124.067 Y104.241 E.01544
G1 X153.933 Y134.107 E1.32264
G1 X153.933 Y133.613 E.01547
G1 X124.067 Y103.748 E1.32262
G1 X124.067 Y103.255 E.01544
G1 X153.933 Y133.12 E1.32262
G1 X153.933 Y132.627 E.01544
G1 X124.067 Y102.762 E1.32262
G1 X124.067 Y102.269 E.01544
G1 X153.933 Y132.134 E1.32262
G1 X153.933 Y131.641 E.01544
G1 X124.067 Y101.775 E1.32264
G1 X124.067 Y101.282 E.01544
G1 X153.933 Y131.148 E1.32264
G1 X153.933 Y130.654 E.01547
G1 X124.067 Y100.789 E1.32262
G1 X124.067 Y100.296 E.01544
G1 X153.933 Y130.161 E1.32262
G1 X153.933 Y129.668 E.01544
G1 X124.067 Y99.803 E1.32262
G1 X124.067 Y99.31 E.01544
G1 X153.933 Y129.175 E1.32262
G1 X153.933 Y128.682 E.01544
G1 X124.067 Y98.816 E1.32264
G1 X124.067 Y98.323 E.01544
G1 X153.933 Y128.189 E1.32264
G1 X153.933 Y127.695 E.01547
G1 X124.067 Y97.83 E1.32262
G1 X124.067 Y97.337 E.01544
G1 X153.933 Y127.202 E1.32262
G1 X153.933 Y126.709 E.01544
G1 X124.067 Y96.844 E1.32262
G1 X124.067 Y96.351 E.01544
G1 X153.933 Y126.216 E1.32262
G1 X153.933 Y125.723 E.01544
G1 X124.067 Y95.857 E1.32264
G1 X124.067 Y95.364 E.01544
G1 X153.932 Y125.23 E1.32262
G1 X153.932 Y124.736 E.01547
G1 X124.067 Y94.871 E1.3226
G1 X124.067 Y94.378 E.01544
G1 X153.932 Y124.243 E1.3226
G1 X153.932 Y123.75 E.01544
G1 X124.067 Y93.885 E1.3226
G1 X124.067 Y93.392 E.01544
G1 X153.932 Y123.257 E1.3226
G1 X153.932 Y122.764 E.01544
G1 X124.067 Y92.899 E1.3226
G1 X124.067 Y92.405 E.01547
G1 X153.932 Y122.271 E1.32262
G1 X153.932 Y121.777 E.01547
G1 X124.067 Y91.912 E1.3226
G1 X124.067 Y91.419 E.01544
G1 X153.932 Y121.284 E1.3226
G1 X153.932 Y120.791 E.01544
G1 X124.067 Y90.926 E1.3226
G1 X124.067 Y90.433 E.01544
G1 X153.932 Y120.298 E1.3226
G1 X153.932 Y119.805 E.01544
G1 X124.067 Y89.94 E1.3226
G1 X124.067 Y89.446 E.01547
G1 X153.932 Y119.312 E1.32262
G1 X153.932 Y118.818 E.01547
G1 X124.067 Y88.953 E1.3226
G1 X124.067 Y88.46 E.01544
G1 X153.932 Y118.325 E1.3226
G1 X153.932 Y117.832 E.01544
G1 X124.442 Y88.342 E1.30599
G1 X124.935 Y88.342 E.01544
G1 X153.932 Y117.339 E1.28416
G1 X153.932 Y116.846 E.01544
G1 X125.429 Y88.342 E1.2623
G1 X125.922 Y88.342 E.01544
G1 X153.932 Y116.353 E1.24047
G1 X153.932 Y115.859 E.01547
G1 X126.415 Y88.342 E1.21861
G1 X126.908 Y88.342 E.01544
G1 X153.932 Y115.366 E1.19678
G1 X153.932 Y114.873 E.01544
G1 X127.401 Y88.342 E1.17495
G1 X127.894 Y88.342 E.01544
G1 X153.932 Y114.38 E1.15311
G1 X153.932 Y113.887 E.01544
G1 X128.388 Y88.342 E1.13126
G1 X128.881 Y88.342 E.01544
G1 X153.932 Y113.394 E1.10943
G1 X153.932 Y112.9 E.01547
G1 X129.374 Y88.342 E1.08757
G1 X129.867 Y88.342 E.01544
G1 X153.932 Y112.407 E1.06574
G1 X153.932 Y111.914 E.01544
G1 X130.36 Y88.342 E1.04391
G1 X130.853 Y88.342 E.01544
G1 X153.932 Y111.421 E1.02207
G1 X153.932 Y110.928 E.01544
G1 X131.346 Y88.342 E1.00024
G1 X131.84 Y88.342 E.01547
G1 X153.932 Y110.435 E.97838
G1 X153.932 Y109.941 E.01547
G1 X132.333 Y88.342 E.95653
G1 X132.826 Y88.342 E.01544
G1 X153.932 Y109.448 E.9347
G1 X153.932 Y108.955 E.01544
G1 X133.319 Y88.342 E.91286
G1 X133.812 Y88.342 E.01544
G1 X153.932 Y108.462 E.89103
G1 X153.932 Y107.969 E.01544
G1 X134.305 Y88.342 E.8692
G1 X134.798 Y88.342 E.01544
G1 X153.932 Y107.476 E.84736
G1 X153.932 Y106.982 E.01547
G1 X135.292 Y88.342 E.82549
G1 X135.785 Y88.342 E.01544
G1 X153.932 Y106.489 E.80365
G1 X153.932 Y105.996 E.01544
G1 X136.278 Y88.342 E.78182
G1 X136.771 Y88.342 E.01544
G1 X153.932 Y105.503 E.75999
G1 X153.932 Y105.01 E.01544
G1 X137.264 Y88.342 E.73816
G1 X137.757 Y88.342 E.01544
G1 X153.932 Y104.517 E.71632
