; generated by PrusaSlicer 2.6.0-alpha6+win64 on 2023-08-07 at 13:00:45 UTC

; 

; external perimeters extrusion width = 0.40mm
; perimeters extrusion width = 0.40mm
; infill extrusion width = 0.40mm
; solid infill extrusion width = 0.40mm
; top infill extrusion width = 0.40mm
; support material extrusion width = 0.40mm
; first layer extrusion width = 0.40mm

M190 S55 ; set bed temperature and wait for it to be reached
M104 S210 ; set temperature
;TYPE:Custom
print_start EXTRUDER=210 BED=55
M109 S210 ; set temperature and wait for it to be reached
G21 ; set units to millimeters
G90 ; use absolute coordinates
M83 ; use relative distances for extrusion
;Filament gcode
M107
;LAYER_CHANGE
;Z:0.24
;HEIGHT:0.24
G1 Z.24 F6000
G1 E-.75 F3000
G1 X120.242 Y85.267 F6000
G1 E.75 F1800
M204 S7800
;TYPE:Skirt/Brim
;WIDTH:0.4
G1 F3000
G1 X121.128 Y84.413 E.03851
G1 X122.203 Y83.819 E.03844
G1 X123.224 Y83.545 E.03308
G1 X123.924 Y83.488 E.02198
G1 X176.077 Y83.488 E1.63217
G1 X176.776 Y83.545 E.02195
G1 X177.797 Y83.819 E.03308
G1 X179.011 Y84.52 E.04387
G1 X179.758 Y85.267 E.03306
G1 X180.393 Y86.32 E.03848
G1 X180.756 Y87.676 E.04393
G1 X180.79 Y135.844 E1.50745
G1 X180.733 Y136.546 E.02204
G1 X158.425 Y213.63 E2.51139
G1 X157.824 Y214.665 E.03746
G1 X156.982 Y215.516 E.03747
G1 X155.953 Y216.127 E.03745
G1 X155.074 Y216.409 E.02889
G1 X154.117 Y216.519 E.03015
G1 X123.924 Y216.51 E.94491
G1 X123.224 Y216.453 E.02198
G1 X122.203 Y216.179 E.03308
G1 X120.989 Y215.478 E.04387
G1 X120.135 Y214.592 E.03851
G1 X119.54 Y213.516 E.03848
G1 X119.267 Y212.496 E.03305
G1 X119.21 Y211.794 E.02204
G1 X119.21 Y88.203 E3.86787
G1 X119.267 Y87.502 E.02201
G1 X119.54 Y86.482 E.03305
G1 X120.212 Y85.319 E.04204
G1 X120.511 Y85.492 F6000
G1 F3000
G1 X121.34 Y84.69 E.0361
G1 X122.337 Y84.141 E.03562
G1 X123.269 Y83.891 E.0302
G1 X123.924 Y83.836 E.02057
G1 X176.076 Y83.836 E1.63213
G1 X176.731 Y83.891 E.02057
G1 X177.825 Y84.208 E.03565
G1 X178.799 Y84.797 E.03562
G1 X179.588 Y85.618 E.03564
G1 X180.138 Y86.615 E.03563
G1 X180.388 Y87.547 E.0302
G1 X180.442 Y88.203 E.0206
G1 X180.442 Y135.844 E1.49096
G1 X180.273 Y137.046 E.03799
G1 X158.285 Y212.992 E2.4744
G1 X158.101 Y213.5 E.01691
G1 X157.669 Y214.285 E.02804
G1 X156.763 Y215.244 E.04129
G1 X155.809 Y215.81 E.03472
G1 X155.006 Y216.067 E.02639
G1 X154.117 Y216.17 E.02801
G1 X123.924 Y216.161 E.94491
G1 X123.269 Y216.107 E.02057
G1 X122.337 Y215.857 E.0302
G1 X121.201 Y215.201 E.04105
G1 X120.412 Y214.38 E.03564
G1 X119.862 Y213.382 E.03566
G1 X119.612 Y212.45 E.0302
G1 X119.558 Y211.794 E.0206
G1 X119.558 Y88.203 E3.86787
G1 X119.612 Y87.548 E.02057
G1 X119.862 Y86.616 E.0302
G1 X120.481 Y85.544 E.03874
G1 X120.78 Y85.716 F6000
G1 F3000
G1 X121.552 Y84.966 E.03368
G1 X122.47 Y84.463 E.03276
G1 X123.315 Y84.236 E.02738
G1 X123.924 Y84.185 E.01913
G1 X176.076 Y84.185 E1.63213
G1 X176.685 Y84.236 E.01913
G1 X177.53 Y84.463 E.02738
G1 X178.587 Y85.073 E.03819
G1 X179.205 Y85.691 E.02735
G1 X179.749 Y86.587 E.0328
G1 X180.065 Y87.766 E.0382
G1 X180.093 Y135.844 E1.50464
G1 X180.042 Y136.455 E.01919
G1 X157.778 Y213.37 E2.50593
G1 X157.263 Y214.251 E.03194
G1 X156.544 Y214.973 E.03189
G1 X155.665 Y215.492 E.03195
G1 X154.939 Y215.725 E.02386
G1 X154.117 Y215.822 E.0259
G1 X123.924 Y215.813 E.94491
G1 X123.315 Y215.761 E.01913
G1 X122.47 Y215.535 E.02737
G1 X121.413 Y214.925 E.03819
G1 X120.688 Y214.168 E.0328
G1 X120.184 Y213.249 E.0328
G1 X119.958 Y212.405 E.02734
G1 X119.907 Y211.794 E.01919
G1 X119.907 Y88.203 E3.86787
G1 X119.958 Y87.593 E.01916
G1 X120.184 Y86.749 E.02734
G1 X120.75 Y85.768 E.03544
; printing object top (2).stl id:0 copy 0
G1 E-.75
G1 X154.454 Y135.49 F6000
G1 E.75 F1800
;TYPE:Perimeter
;WIDTH:0.399999
G1 F3000
G1 X154.248 Y135.531 E.00657
G1 X153.972 Y135.712 E.01033
G1 X153.777 Y135.998 E.01083
G1 X153.708 Y136.337 E.01083
G1 X153.711 Y147.11 E.33715
G1 X153.523 Y146.999 E.00683
G1 X152.775 Y146.724 E.02494
G1 X151.976 Y146.658 E.02509
G1 X151.241 Y146.785 E.02334
G1 X150.531 Y147.111 E.02445
G1 X149.93 Y147.61 E.02445
G1 X149.478 Y148.247 E.02444
G1 X149.265 Y148.76 E.01738
G1 X149.194 Y149.072 E.01001
G1 X149.134 Y149.758 E.02155
G1 X149.206 Y150.309 E.01739
G1 X149.29 Y150.587 E.00909
G1 X149.592 Y151.238 E.02246
G1 X150.09 Y151.84 E.02445
G1 X150.728 Y152.292 E.02447
G1 X151.461 Y152.563 E.02446
G1 X152.239 Y152.635 E.02445
G1 X153.011 Y152.503 E.02451
G1 X153.711 Y152.178 E.02415
G1 X153.708 Y207.709 E1.73788
G1 X153.523 Y207.599 E.00674
G1 X152.775 Y207.324 E.02494
G1 X151.976 Y207.258 E.02509
G1 X151.241 Y207.385 E.02334
G1 X150.531 Y207.711 E.02445
G1 X149.93 Y208.21 E.02445
G1 X149.478 Y208.847 E.02444
G1 X149.206 Y209.58 E.02447
G1 X149.134 Y210.361 E.02455
G1 X149.209 Y210.912 E.0174
G1 X149.408 Y211.437 E.01757
G1 X129.187 Y211.419 E.63283
G1 X128.612 Y211.432 E.018
G1 X128.79 Y210.963 E.0157
G1 X128.866 Y210.181 E.02459
G1 X128.735 Y209.41 E.02447
G1 X128.408 Y208.7 E.02446
G1 X127.91 Y208.099 E.02443
G1 X127.272 Y207.647 E.02447
G1 X126.525 Y207.374 E.02489
G1 X125.725 Y207.308 E.02512
G1 X124.989 Y207.436 E.02338
G1 X124.297 Y207.756 E.02386
G1 X124.301 Y152.179 E1.73932
G1 X124.569 Y152.337 E.00974
G1 X125.313 Y152.584 E.02453
G1 X126.093 Y152.63 E.02445
G1 X126.858 Y152.472 E.02445
G1 X127.556 Y152.121 E.02445
G1 X128.14 Y151.601 E.02447
G1 X128.569 Y150.948 E.02445
G1 X128.764 Y150.428 E.01738
G1 X128.824 Y150.112 E.01007
G1 X128.86 Y149.427 E.02147
G1 X128.769 Y148.879 E.01738
G1 X128.678 Y148.609 E.00892
G1 X128.351 Y147.963 E.02266
G1 X127.832 Y147.379 E.02445
G1 X127.179 Y146.95 E.02445
G1 X126.437 Y146.705 E.02445
G1 X125.657 Y146.659 E.02445
G1 X124.938 Y146.807 E.02297
G1 X124.3 Y147.102 E.022
G1 X124.302 Y92.234 E1.71713
G1 X124.638 Y92.428 E.01214
G1 X125.386 Y92.656 E.02447
G1 X126.167 Y92.682 E.02446
G1 X126.928 Y92.505 E.02445
G1 X127.618 Y92.137 E.02447
G1 X128.188 Y91.603 E.02444
G1 X128.601 Y90.94 E.02445
G1 X128.828 Y90.192 E.02446
G1 X128.852 Y89.404 E.02467
G1 X128.742 Y88.859 E.0174
G1 X128.628 Y88.57 E.00972
G1 X148.703 Y88.576 E.62826
G1 X149.327 Y88.557 E.01954
G1 X149.23 Y88.882 E.01061
G1 X149.139 Y89.393 E.01624
G1 X149.197 Y90.163 E.02417
G1 X149.459 Y90.911 E.0248
G1 X149.859 Y91.508 E.02249
G1 X150.434 Y92.021 E.02412
G1 X151.138 Y92.378 E.0247
G1 X151.843 Y92.533 E.02259
G1 X152.383 Y92.535 E.0169
G1 X152.811 Y92.452 E.01364
G1 X153.366 Y92.275 E.01823
G1 X153.983 Y91.9 E.0226
G1 X154.457 Y91.438 E.02071
G1 X154.75 Y90.965 E.01741
G1 X154.931 Y90.571 E.01357
G1 X155.09 Y89.958 E.01982
G1 X155.09 Y89.176 E.02447
G1 X154.923 Y88.558 E.02003
G1 X155.282 Y88.575 E.01125
G1 X170.646 Y88.58 E.48083
G1 X171.325 Y88.564 E.02126
G1 X171.275 Y88.686 E.00413
G1 X171.138 Y89.408 E.023
G1 X171.159 Y89.946 E.01685
G1 X171.249 Y90.334 E.01247
G1 X171.463 Y90.92 E.01952
G1 X171.729 Y91.347 E.01574
G1 X172.035 Y91.678 E.01411
G1 X172.439 Y92.025 E.01667
G1 X172.936 Y92.296 E.01772
G1 X173.173 Y92.387 E.00795
G1 X173.844 Y92.533 E.02149
G1 X174.601 Y92.508 E.0237
G1 X175.235 Y92.338 E.02054
G1 X175.707 Y92.081 E.01682
G1 X175.699 Y131.753 E1.24156
G1 X175.523 Y131.649 E.0064
G1 X174.775 Y131.374 E.02494
G1 X173.976 Y131.308 E.02509
G1 X173.241 Y131.435 E.02334
G1 X172.531 Y131.761 E.02445
G1 X172.09 Y132.099 E.01739
G1 X171.773 Y132.463 E.01511
G1 X171.478 Y132.897 E.01642
G1 X171.206 Y133.63 E.02447
G1 X171.134 Y134.411 E.02455
G1 X171.209 Y134.962 E.0174
G1 X171.406 Y135.481 E.01737
G1 X171.121 Y135.468 E.00893
G1 X154.579 Y135.466 E.51769
G1 X154.513 Y135.479 E.00211
G1 X154.491 Y135.833 F6000
G1 F3000
G1 X154.303 Y135.893 E.00618
G1 X154.119 Y136.088 E.00839
G1 X154.056 Y136.337 E.00804
G1 X154.068 Y147.87 E.36093
G1 X153.804 Y147.627 E.01123
G1 X153.389 Y147.321 E.01614
G1 X152.735 Y147.07 E.02192
G1 X152.021 Y147.004 E.02244
G1 X151.374 Y147.107 E.0205
G1 X150.743 Y147.387 E.0216
G1 X150.206 Y147.822 E.02163
G1 X149.8 Y148.381 E.02162
G1 X149.587 Y148.894 E.01738
G1 X149.54 Y149.118 E.00716
G1 X149.479 Y149.713 E.01872
G1 X149.552 Y150.263 E.01736
G1 X149.612 Y150.454 E.00627
G1 X149.868 Y151.026 E.01961
G1 X150.303 Y151.563 E.02163
G1 X150.861 Y151.97 E.02161
G1 X151.506 Y152.218 E.02163
G1 X152.193 Y152.29 E.02162
G1 X152.877 Y152.182 E.02167
G1 X153.515 Y151.893 E.02192
G1 X154.057 Y151.426 E.02239
G1 X154.057 Y207.823 E1.76498
G1 X154.077 Y208.469 E.02023
G1 X153.948 Y208.343 E.00564
G1 X153.389 Y207.921 E.02192
G1 X152.735 Y207.67 E.02192
G1 X152.021 Y207.604 E.02244
G1 X151.374 Y207.707 E.0205
G1 X150.743 Y207.987 E.0216
G1 X150.206 Y208.422 E.02163
G1 X149.8 Y208.981 E.02162
G1 X149.552 Y209.626 E.02163
G1 X149.48 Y210.315 E.02168
G1 X149.597 Y211.013 E.02215
G1 X149.827 Y211.516 E.01731
G1 X150.092 Y211.822 E.01267
G1 X149.17 Y211.774 E.02889
G1 X129.742 Y211.768 E.60801
G1 X128.85 Y211.768 E.02792
G1 X127.962 Y211.818 E.02783
G1 X128.162 Y211.568 E.01002
G1 X128.444 Y210.916 E.02223
G1 X128.52 Y210.226 E.02172
G1 X128.413 Y209.544 E.0216
G1 X128.132 Y208.913 E.02162
G1 X127.697 Y208.376 E.02163
G1 X127.139 Y207.969 E.02161
G1 X126.485 Y207.72 E.0219
G1 X125.771 Y207.654 E.02244
G1 X125.123 Y207.757 E.02053
G1 X124.484 Y208.046 E.02195
G1 X123.938 Y208.522 E.02267
G1 X123.952 Y152.523 E1.75253
G1 X123.952 Y151.968 E.01737
G1 X123.924 Y151.375 E.01858
G1 X124.119 Y151.608 E.00951
G1 X124.692 Y152.01 E.02191
G1 X125.346 Y152.237 E.02167
G1 X126.035 Y152.286 E.02162
G1 X126.714 Y152.154 E.02165
G1 X127.335 Y151.852 E.02161
G1 X127.856 Y151.399 E.02161
G1 X128.243 Y150.826 E.02164
G1 X128.437 Y150.306 E.01737
G1 X128.477 Y150.079 E.00721
G1 X128.517 Y149.484 E.01866
G1 X128.425 Y148.936 E.01739
G1 X128.361 Y148.754 E.00604
G1 X128.082 Y148.185 E.01983
G1 X127.629 Y147.663 E.02163
G1 X127.057 Y147.277 E.0216
G1 X126.404 Y147.051 E.02163
G1 X125.715 Y147.003 E.02161
G1 X125.078 Y147.126 E.0203
G1 X124.405 Y147.448 E.02335
G1 X123.934 Y147.878 E.01996
G1 X123.953 Y147.009 E.0272
G1 X123.953 Y93.223 E1.68327
G1 X123.953 Y92.173 E.03286
G1 X123.93 Y91.439 E.02298
G1 X124.169 Y91.716 E.01145
G1 X124.752 Y92.099 E.02183
G1 X125.411 Y92.309 E.02165
G1 X126.101 Y92.34 E.02162
G1 X126.776 Y92.192 E.02163
G1 X127.389 Y91.874 E.02161
G1 X127.899 Y91.408 E.02162
G1 X128.272 Y90.826 E.02163
G1 X128.48 Y90.167 E.02163
G1 X128.52 Y89.613 E.01738
G1 X128.467 Y89.258 E.01123
G1 X128.343 Y88.773 E.01567
G1 X127.969 Y88.17 E.02221
G1 X128.669 Y88.222 E.02197
G1 X129.329 Y88.232 E.02066
G1 X148.294 Y88.227 E.59352
G1 X149.176 Y88.215 E.02761
G1 X149.934 Y88.18 E.02375
G1 X149.62 Y88.75 E.02037
G1 X149.488 Y89.381 E.02018
G1 X149.529 Y90.059 E.02126
G1 X149.755 Y90.727 E.02207
G1 X150.102 Y91.258 E.01985
G1 X150.602 Y91.716 E.02122
G1 X151.226 Y92.04 E.022
G1 X151.844 Y92.184 E.01986
G1 X152.523 Y92.169 E.02125
G1 X153.196 Y91.971 E.02195
G1 X153.743 Y91.647 E.0199
G1 X154.184 Y91.221 E.01919
G1 X154.451 Y90.785 E.016
G1 X154.598 Y90.468 E.01094
G1 X154.742 Y89.943 E.01704
G1 X154.751 Y89.258 E.02144
G1 X154.624 Y88.733 E.0169
G1 X154.304 Y88.176 E.0201
G1 X155.282 Y88.227 E.03065
G1 X170.637 Y88.232 E.48055
G1 X171.44 Y88.212 E.02514
G1 X171.941 Y88.171 E.01573
G1 X171.614 Y88.766 E.02125
G1 X171.487 Y89.395 E.02008
G1 X171.507 Y89.933 E.01685
G1 X171.582 Y90.229 E.00956
G1 X171.759 Y90.736 E.01681
G1 X172.106 Y91.263 E.01975
G1 X172.495 Y91.637 E.01689
G1 X172.719 Y91.781 E.00833
G1 X173.261 Y92.05 E.01894
G1 X173.845 Y92.184 E.01875
G1 X174.515 Y92.17 E.02097
G1 X175.163 Y91.987 E.02107
G1 X175.633 Y91.724 E.01686
G1 X176.069 Y91.304 E.01895
G1 X176.047 Y92.67 E.04276
G1 X176.048 Y131.894 E1.22754
G1 X176.067 Y132.523 E.01969
G1 X175.948 Y132.394 E.00549
G1 X175.389 Y131.971 E.02194
G1 X174.735 Y131.72 E.02192
G1 X174.021 Y131.654 E.02244
G1 X173.404 Y131.745 E.01952
G1 X172.937 Y131.938 E.01581
G1 X172.69 Y132.078 E.00889
G1 X172.206 Y132.472 E.01953
G1 X171.8 Y133.031 E.02162
G1 X171.552 Y133.676 E.02163
G1 X171.48 Y134.365 E.02168
G1 X171.597 Y135.063 E.02215
G1 X171.829 Y135.566 E.01734
G1 X172.085 Y135.863 E.01227
G1 X171.121 Y135.816 E.0302
G1 X154.549 Y135.815 E.51863
G1 X154.579 Y136.163 F6000
;TYPE:External perimeter
G1 F3000
G1 X154.475 Y136.197 E.00342
G1 X154.405 Y136.337 E.0049
G1 X154.408 Y147.487 E.34895
G1 X154.426 Y147.998 E.016
;WIDTH:0.424924
G1 X154.463 Y148.509 E.01718
G1 X154.549 Y149.089 E.01966
;WIDTH:0.397191
G1 X154.57 Y149.684 E.01848
;WIDTH:0.389472
G1 X154.531 Y150.248 E.01716
;WIDTH:0.414129
G1 X154.446 Y150.955 E.02319
G1 X154.416 Y151.466 E.01667
;WIDTH:0.399999
G1 X154.405 Y207.812 E1.76339
G1 X154.426 Y208.458 E.02023
;WIDTH:0.423393
G1 X154.46 Y209.11 E.0218
G1 X154.542 Y209.67 E.0189
;WIDTH:0.392833
G1 X154.571 Y210.286 E.0189
;WIDTH:0.400851
G1 X154.544 Y210.867 E.01825
;WIDTH:0.439631
G1 X154.458 Y211.402 E.01889
;WIDTH:0.489162
G1 X154.383 Y211.658 E.01048
;WIDTH:0.538693
G1 X154.309 Y211.914 E.01166
G1 X154.152 Y212.059 E.00935
;WIDTH:0.537104
G1 X153.608 Y212.202 E.02453
G1 X153.148 Y212.204 E.02006
G1 X153.683 Y211.884 E.02719
;WIDTH:0.538693
G1 X153.904 Y211.636 E.01453
G1 X153.963 Y211.529 E.00535
;WIDTH:0.505356
G1 X154.022 Y211.422 E.00498
;WIDTH:0.472019
G1 X154.081 Y211.315 E.00461
;WIDTH:0.438682
G1 X154.209 Y210.751 E.02011
;WIDTH:0.399001
G1 X154.257 Y210.224 E.01651
;WIDTH:0.393865
G1 X154.201 Y209.696 E.01632
;WIDTH:0.41598
G1 X154.067 Y209.119 E.01939
G1 X153.73 Y208.615 E.01984
;WIDTH:0.399999
G1 X153.255 Y208.242 E.0189
G1 X152.695 Y208.017 E.01889
G1 X152.067 Y207.949 E.01977
G1 X151.508 Y208.029 E.01767
G1 X150.955 Y208.264 E.0188
G1 X150.483 Y208.634 E.01877
G1 X150.122 Y209.114 E.0188
G1 X149.897 Y209.671 E.0188
G1 X149.825 Y210.268 E.01882
G1 X149.9 Y210.818 E.01737
G1 X149.962 Y210.972 E.0052
G1 X150.181 Y211.423 E.01569
G1 X150.604 Y211.828 E.01833
G1 X151.07 Y212.117 E.01716
G1 X151.555 Y212.294 E.01616
G1 X150.691 Y212.272 E.02705
G1 X150.363 Y212.211 E.01044
G1 X149.86 Y212.159 E.01583
G1 X149.17 Y212.122 E.02163
G1 X128.873 Y212.116 E.63521
G1 X128.138 Y212.157 E.02304
G1 X127.391 Y212.261 E.0236
G1 X126.949 Y212.264 E.01383
G1 X126.433 Y212.316 E.01623
G1 X126.965 Y212.147 E.01747
G1 X127.6 Y211.688 E.02452
G1 X127.847 Y211.419 E.01143
G1 X128.099 Y210.869 E.01893
G1 X128.175 Y210.272 E.01883
G1 X128.091 Y209.677 E.01881
G1 X127.856 Y209.125 E.01878
G1 X127.485 Y208.652 E.01881
G1 X127.005 Y208.291 E.0188
G1 X126.445 Y208.066 E.01889
G1 X125.817 Y207.999 E.01977
G1 X125.257 Y208.079 E.0177
G1 X124.702 Y208.318 E.01891
G1 X124.231 Y208.709 E.01916
;WIDTH:0.422113
G1 X123.909 Y209.224 E.02021
G1 X123.798 Y209.763 E.01832
;WIDTH:0.390674
G1 X123.745 Y210.315 E.01689
;WIDTH:0.392777
G1 X123.802 Y210.852 E.01655
;WIDTH:0.424079
G1 X123.877 Y211.139 E.00992
;WIDTH:0.45538
G1 X123.951 Y211.426 E.01075
;WIDTH:0.484891
G1 X124.04 Y211.568 E.00652
;WIDTH:0.514401
G1 X124.129 Y211.71 E.00697
G1 X124.745 Y212.189 E.03244
G1 X124.452 Y212.207 E.0122
G1 X124.031 Y212.136 E.01775
G1 X123.856 Y212.069 E.00779
;WIDTH:0.517608
G1 X123.683 Y211.912 E.00978
G1 X123.621 Y211.677 E.01017
;WIDTH:0.47582
G1 X123.559 Y211.443 E.00922
;WIDTH:0.434031
G1 X123.45 Y210.774 E.02328
;WIDTH:0.390716
G1 X123.436 Y210.254 E.01585
;WIDTH:0.391767
G1 X123.466 Y209.686 E.01738
;WIDTH:0.401626
G1 X123.575 Y208.815 E.0276
G1 X123.6 Y208.307 E.01599
;WIDTH:0.399999
G1 X123.604 Y152.247 E1.75444
G1 X123.582 Y151.529 E.02248
;WIDTH:0.429484
G1 X123.57 Y150.965 E.01915
G1 X123.49 Y150.468 E.01709
;WIDTH:0.412865
G1 X123.468 Y150.078 E.01268
;WIDTH:0.384092
G1 X123.446 Y149.687 E.0117
;WIDTH:0.401126
G1 X123.457 Y149.001 E.02154
;WIDTH:0.414426
G1 X123.532 Y148.473 E.01738
G1 X123.587 Y147.781 E.02262
;WIDTH:0.399999
G1 X123.605 Y147.009 E.02417
G1 X123.605 Y92.184 E1.71579
G1 X123.573 Y91.186 E.03125
;WIDTH:0.412312
G1 X123.436 Y89.8 E.04513
;WIDTH:0.386064
G1 X123.449 Y89.202 E.01797
;WIDTH:0.430286
G1 X123.516 Y88.87 E.01152
;WIDTH:0.474507
G1 X123.582 Y88.539 E.01282
;WIDTH:0.518728
G1 X123.648 Y88.207 E.0142
;WIDTH:0.521483
G1 X123.738 Y88.023 E.00864
G1 X123.914 Y87.91 E.00883
G1 X124.431 Y87.796 E.02234
G1 X124.786 Y87.794 E.01498
G1 X124.649 Y87.863 E.00647
G1 X124.226 Y88.167 E.02199
