; generated by PrusaSlicer 2.6.0-alpha6+win64 on 2023-07-28 at 01:09:34 UTC

; 

; external perimeters extrusion width = 0.38mm
; perimeters extrusion width = 0.38mm
; infill extrusion width = 0.45mm
; solid infill extrusion width = 0.45mm
; top infill extrusion width = 0.44mm
; support material extrusion width = 0.40mm
; first layer extrusion width = 0.40mm

M190 S55 ; set bed temperature and wait for it to be reached
M104 S210 ; set temperature
;TYPE:Custom
print_start EXTRUDER=210 BED=55
M109 S210 ; set temperature and wait for it to be reached
G21 ; set units to millimeters
G90 ; use absolute coordinates
M83 ; use relative distances for extrusion
;Filament gcode
M107
;LAYER_CHANGE
;Z:0.24
;HEIGHT:0.24
G1 Z.24 F12000
G1 E-.75 F3000
G1 X55.432 Y35.294 F12000
G1 E.75 F1800
M204 S4000
;TYPE:Skirt/Brim
;WIDTH:0.4
G1 F3000
G1 X56.318 Y34.44 E.03851
G1 X57.394 Y33.845 E.03848
G1 X58.414 Y33.572 E.03305
G1 X59.115 Y33.515 E.02201
G1 X234.832 Y33.549 E5.49919
G1 X236.188 Y33.912 E.04393
G1 X237.241 Y34.547 E.03848
G1 X237.988 Y35.294 E.03306
G1 X238.689 Y36.509 E.0439
G1 X238.963 Y37.529 E.03305
G1 X239.02 Y38.23 E.02201
G1 X239.02 Y161.84 E3.86846
G1 X238.963 Y162.542 E.02204
G1 X238.622 Y163.723 E.03847
G1 X237.988 Y164.777 E.03849
G1 X237.102 Y165.63 E.03849
G1 X236.026 Y166.225 E.03848
G1 X235.006 Y166.498 E.03305
G1 X234.304 Y166.556 E.02204
G1 X59.115 Y166.556 E5.48267
G1 X58.414 Y166.498 E.02201
G1 X57.232 Y166.158 E.03849
G1 X56.179 Y165.523 E.03848
G1 X55.326 Y164.638 E.03847
G1 X54.731 Y163.562 E.03848
G1 X54.457 Y162.542 E.03305
G1 X54.4 Y161.84 E.02204
G1 X54.4 Y38.23 E3.86846
G1 X54.457 Y37.529 E.02201
G1 X54.798 Y36.347 E.0385
G1 X55.401 Y35.345 E.0366
G1 X55.698 Y35.524 F12000
G1 F3000
G1 X56.53 Y34.717 E.03627
G1 X57.527 Y34.167 E.03563
G1 X58.46 Y33.918 E.03022
G1 X59.115 Y33.863 E.02057
G1 X234.787 Y33.895 E5.49778
G1 X236.054 Y34.234 E.04105
G1 X237.029 Y34.823 E.03565
G1 X237.711 Y35.506 E.03021
G1 X238.367 Y36.642 E.04105
G1 X238.617 Y37.574 E.0302
G1 X238.671 Y38.23 E.0206
G1 X238.671 Y161.84 E3.86846
G1 X238.617 Y162.496 E.0206
G1 X238.3 Y163.59 E.03565
G1 X237.711 Y164.564 E.03562
G1 X236.89 Y165.353 E.03564
G1 X235.893 Y165.903 E.03563
G1 X234.961 Y166.153 E.0302
G1 X234.304 Y166.207 E.02063
G1 X59.115 Y166.207 E5.48267
G1 X58.459 Y166.153 E.0206
G1 X57.366 Y165.836 E.03562
G1 X56.391 Y165.247 E.03565
G1 X55.602 Y164.426 E.03564
G1 X55.053 Y163.428 E.03565
G1 X54.803 Y162.496 E.0302
G1 X54.748 Y161.84 E.0206
G1 X54.748 Y38.23 E3.86846
G1 X54.803 Y37.574 E.0206
G1 X55.12 Y36.48 E.03565
G1 X55.667 Y35.575 E.03309
G1 X55.963 Y35.755 F12000
G1 F3000
G1 X56.742 Y34.993 E.0341
G1 X57.661 Y34.489 E.0328
G1 X58.505 Y34.263 E.02734
G1 X59.115 Y34.212 E.01916
G1 X234.741 Y34.24 E5.49634
G1 X235.921 Y34.556 E.03823
G1 X236.817 Y35.1 E.0328
G1 X237.435 Y35.718 E.02735
G1 X238.045 Y36.775 E.03819
G1 X238.271 Y37.62 E.02737
G1 X238.323 Y38.23 E.01916
G1 X238.323 Y161.84 E3.86846
G1 X238.271 Y162.451 E.01919
G1 X237.978 Y163.456 E.03276
G1 X237.435 Y164.352 E.03279
G1 X236.678 Y165.077 E.0328
G1 X235.759 Y165.581 E.0328
G1 X234.915 Y165.807 E.02734
G1 X234.304 Y165.859 E.01919
G1 X59.115 Y165.859 E5.48267
G1 X58.505 Y165.807 E.01916
G1 X57.499 Y165.514 E.03279
G1 X56.603 Y164.97 E.0328
G1 X55.879 Y164.213 E.03278
G1 X55.375 Y163.295 E.03277
G1 X55.148 Y162.451 E.02735
G1 X55.097 Y161.84 E.01919
G1 X55.097 Y38.23 E3.86846
G1 X55.148 Y37.62 E.01916
G1 X55.442 Y36.614 E.0328
G1 X55.931 Y35.806 E.02956
G1 E-.75
G1 X219.295 Y75.408 F12000
G1 E.75 F1800
;TYPE:Perimeter
;WIDTH:0.399999
G1 F3000
G1 X218.691 Y75.815 E.02279
G1 X218.288 Y76.252 E.0186
G1 X218.287 Y74.542 E.05352
G1 X218.459 Y74.769 E.00891
G1 X218.757 Y75.05 E.01282
G1 X219.245 Y75.375 E.01835
G1 E-.75
G1 X218.3 Y70.828 F12000
G1 E.75 F1800
;WIDTH:0.428919
G1 F3000
G1 X218.3 Y69.803 E.03474
G1 X218.808 Y70.322 E.02461
G1 X218.533 Y70.501 E.01112
G1 X218.335 Y70.779 E.01157
G1 E-.75
G1 X218.598 Y67.514 F12000
G1 E.75 F1800
;WIDTH:0.349501
G1 F3000
G1 X218.513 Y67.599 E.00322
G1 X218.259 Y67.989 E.01246
G1 X218.262 Y66.877 E.02976
G1 X218.57 Y67.461 E.01767
G1 E-.75
G1 X222.146 Y68.013 F12000
G1 E.75 F1800
;WIDTH:0.567503
G1 F3000
G1 X222.313 Y67.759 E.01409
G1 X222.401 Y67.454 E.01471
G1 X223.063 Y67.866 E.03613
G1 X222.046 Y68.429 E.05386
G1 X221.915 Y68.31 E.0082
G1 X222.021 Y68.204 E.00695
G1 X222.114 Y68.063 E.00783
G1 X221.784 Y67.785 F12000
;WIDTH:0.399999
G1 F3000
G1 X221.911 Y67.601 E.007
G1 X222.014 Y67.219 E.01238
G1 X221.988 Y66.688 E.01664
G1 X223.916 Y67.888 E.07107
G1 X221.985 Y68.957 E.06907
G1 X221.217 Y68.259 E.03248
G1 X221.535 Y68.079 E.01144
G1 X221.685 Y67.929 E.00664
G1 X221.75 Y67.834 E.0036
G1 X221.482 Y67.6 F12000
G1 F3000
G1 X221.587 Y67.473 E.00516
G1 X221.676 Y67.134 E.01097
G1 X221.677 Y66.884 E.00782
G1 X221.612 Y66.616 E.00863
G1 X221.505 Y66.412 E.00721
;WIDTH:0.391199
G1 X221.35 Y66.245 E.00695
;WIDTH:0.375448
G1 X220.943 Y65.954 E.01456
;WIDTH:0.353419
G1 X220.802 Y65.809 E.00548
G1 X220.812 Y65.704 E.00286
G1 X220.924 Y65.653 E.00334
G1 X221.112 Y65.705 E.00529
;WIDTH:0.375448
G1 X221.544 Y65.986 E.01499
;WIDTH:0.399999
G1 X224.607 Y67.904 E.1131
G1 X221.935 Y69.382 E.09556
G1 X220.923 Y68.463 E.04278
;WIDTH:0.406247
G1 X220.461 Y68.031 E.02015
G1 X220.541 Y68.049 E.00261
G1 X221.046 Y67.969 E.01629
;WIDTH:0.399999
G1 X221.289 Y67.832 E.00873
G1 X221.443 Y67.646 E.00756
G1 E-.75
G1 X210.593 Y68.844 F12000
G1 E.75 F1800
;WIDTH:0.507123
G1 F3000
G1 X210.226 Y68.739 E.01562
G1 X210.735 Y68.45 E.02395
G1 X211.025 Y68.127 E.01776
G1 X211.041 Y68.648 E.02133
G1 X211.177 Y69.002 E.01552
G1 X210.65 Y68.86 E.02233
G1 E-.75
G1 X207.483 Y68.589 F12000
G1 E.75 F1800
;WIDTH:0.399999
G1 F3000
G1 X207.078 Y68.043 E.02128
G1 X206.923 Y67.762 E.01004
G1 X206.701 Y67.175 E.01964
G1 X206.619 Y66.512 E.02091
G1 X206.654 Y66.008 E.01581
G1 X206.753 Y65.273 E.02321
G1 X206.984 Y64.563 E.02337
G1 X207.253 Y63.998 E.01958
G1 X207.505 Y63.653 E.01337
G1 X207.897 Y63.333 E.01584
G1 X208.194 Y63.207 E.0101
G1 X208.74 Y63.099 E.01742
G1 X209.268 Y63.147 E.01659
G1 X209.787 Y63.355 E.0175
G1 X210.08 Y63.572 E.01141
G1 X210.297 Y63.794 E.00972
G1 X210.622 Y63.651 E.01111
G1 X211.149 Y63.509 E.01708
G1 X211.518 Y63.468 E.01162
G1 X212.179 Y63.591 E.02104
G1 X212.641 Y63.714 E.01496
G1 X213.192 Y64.038 E.02
G1 X213.491 Y64.297 E.01238
G1 X213.93 Y64.824 E.02147
G1 X214.124 Y65.148 E.01182
;WIDTH:0.400383
G1 X214.323 Y65.639 E.0166
;WIDTH:0.420624
G1 X214.414 Y65.958 E.011
G1 X214.458 Y66.475 E.0172
;WIDTH:0.408382
G1 X214.432 Y67.227 E.02411
;WIDTH:0.451125
G1 X214.37 Y67.833 E.02186
G1 X214.278 Y68.15 E.01185
;WIDTH:0.425562
G1 X214.187 Y68.467 E.01108
;WIDTH:0.399999
G1 X213.996 Y69.058 E.01944
G1 X213.836 Y69.377 E.01117
G1 X213.697 Y69.546 E.00685
G1 X213.904 Y69.789 E.00999
G1 X214.289 Y70.604 E.02821
;WIDTH:0.427712
G1 X214.406 Y70.981 E.01334
G1 X214.46 Y71.676 E.02355
;WIDTH:0.39137
G1 X214.465 Y71.803 E.00388
;WIDTH:0.387614
G1 X214.466 Y73.49 E.05092
;WIDTH:0.426433
G1 X214.412 Y73.979 E.01656
;WIDTH:0.462329
G1 X214.361 Y74.143 E.00634
;WIDTH:0.498225
G1 X214.31 Y74.307 E.00689
;WIDTH:0.53412
G1 X214.259 Y74.471 E.00744
G1 X214.196 Y74.562 E.0048
G1 X214.276 Y74.679 E.00614
G1 X214.329 Y74.903 E.00998
;WIDTH:0.493766
G1 X214.382 Y75.127 E.00914
;WIDTH:0.453412
G1 X214.435 Y75.352 E.00834
;WIDTH:0.413057
G1 X214.467 Y75.678 E.01064
;WIDTH:0.387616
G1 X214.468 Y77.554 E.05662
;WIDTH:0.399999
G1 X214.348 Y78.316 E.02414
G1 X214.156 Y78.773 E.01551
G1 X213.845 Y79.226 E.0172
G1 X214.172 Y79.618 E.01598
;WIDTH:0.400436
G1 X214.356 Y80.026 E.01402
;WIDTH:0.406335
G1 X214.446 Y80.385 E.01179
G1 X214.459 Y80.879 E.01575
;WIDTH:0.437185
G1 X214.398 Y81.353 E.01655
G1 X214.226 Y81.765 E.01546
;WIDTH:0.399999
G1 X213.986 Y82.165 E.0146
G1 X213.682 Y82.507 E.01432
G1 X213.136 Y82.904 E.02113
G1 X212.697 Y83.058 E.01456
G1 X212.117 Y83.13 E.01829
G1 X211.561 Y83.066 E.01752
G1 X205.967 Y81.57 E.18122
G1 X205.6 Y81.421 E.0124
G1 X205.156 Y81.108 E.017
G1 X204.819 Y80.667 E.01737
G1 X204.633 Y80.159 E.01693
G1 X204.599 Y79.538 E.01946
G1 X204.727 Y79.012 E.01694
G1 X204.984 Y78.54 E.01682
G1 X205.343 Y78.198 E.01552
G1 X205.665 Y78.041 E.01121
G1 X206.248 Y77.869 E.01902
G1 X206.802 Y77.884 E.01734
G1 X206.681 Y77.538 E.01147
G1 X206.619 Y77.089 E.01419
G1 X206.618 Y75.548 E.04823
G1 X206.725 Y74.872 E.02142
G1 X206.93 Y74.331 E.01811
G1 X207.167 Y73.983 E.01318
G1 X205.964 Y73.66 E.03898
G1 X205.454 Y73.434 E.01746
G1 X205.051 Y73.106 E.01626
G1 X204.82 Y72.768 E.01281
G1 X204.632 Y72.261 E.01692
G1 X204.579 Y71.772 E.01539
G1 X204.668 Y71.26 E.01626
G1 X204.893 Y70.779 E.01662
G1 X205.138 Y70.459 E.01261
G1 X205.593 Y70.147 E.01727
G1 X206.137 Y69.987 E.01775
G1 X206.522 Y69.95 E.0121
G1 X206.703 Y69.955 E.00567
G1 X206.805 Y69.541 E.01334
G1 X207.098 Y69.06 E.01763
G1 X207.445 Y68.635 E.01717
G1 X208.037 Y68.629 F12000
G1 F3000
G1 X207.767 Y68.386 E.01137
G1 X207.358 Y67.835 E.02148
G1 X207.07 Y67.183 E.02231
G1 X206.966 Y66.477 E.02233
G1 X207.098 Y65.32 E.03644
G1 X207.311 Y64.684 E.02099
G1 X207.566 Y64.151 E.01849
G1 X207.768 Y63.883 E.0105
G1 X208.113 Y63.611 E.01375
G1 X208.606 Y63.46 E.01614
G1 X209.116 Y63.471 E.01596
G1 X209.624 Y63.662 E.01698
G1 X210.017 Y64.003 E.01628
G1 X210.205 Y64.284 E.01058
G1 X210.652 Y64.006 E.01647
G1 X211.24 Y63.845 E.01908
G1 X211.567 Y63.821 E.01026
G1 X212.502 Y64.034 E.03001
G1 X213.01 Y64.335 E.01848
G1 X213.224 Y64.52 E.00885
G1 X213.662 Y65.047 E.02145
G1 X213.801 Y65.278 E.00844
G1 X214 Y65.77 E.01661
G1 X214.115 Y66.513 E.02353
G1 X214.081 Y67.201 E.02156
G1 X214 Y67.779 E.01827
G1 X213.85 Y68.38 E.01939
G1 X213.665 Y68.949 E.01872
G1 X213.49 Y69.254 E.011
G1 X213.184 Y69.569 E.01374
G1 X213.567 Y69.915 E.01615
G1 X213.972 Y70.749 E.02902
G1 X214.045 Y71.019 E.00875
G1 X214.118 Y71.712 E.02181
G1 X214.124 Y73.49 E.05564
G1 X214.057 Y73.908 E.01325
G1 X213.918 Y74.234 E.01109
G1 X213.651 Y74.576 E.01358
G1 X213.912 Y74.879 E.01252
G1 X214.093 Y75.446 E.01863
G1 X214.125 Y75.679 E.00736
G1 X214.126 Y77.554 E.05868
G1 X214.006 Y78.249 E.02207
G1 X213.869 Y78.576 E.0111
G1 X213.557 Y79.028 E.01719
G1 X213.27 Y79.295 E.01227
G1 X213.628 Y79.508 E.01304
G1 X213.886 Y79.817 E.0126
G1 X214.017 Y80.109 E.01002
G1 X214.129 Y80.673 E.018
G1 X214.037 Y81.286 E.0194
G1 X213.926 Y81.586 E.01001
G1 X213.687 Y81.987 E.01461
G1 X213.47 Y82.231 E.01022
G1 X212.975 Y82.595 E.01923
G1 X212.597 Y82.725 E.01251
G1 X212.092 Y82.782 E.0159
G1 X211.567 Y82.71 E.01658
G1 X206.057 Y81.234 E.17852
G1 X205.745 Y81.104 E.01058
G1 X205.378 Y80.839 E.01417
G1 X205.137 Y80.524 E.01241
G1 X204.977 Y80.101 E.01415
G1 X204.942 Y79.598 E.01578
G1 X205.046 Y79.152 E.01433
G1 X205.253 Y78.761 E.01385
G1 X205.54 Y78.485 E.01246
G1 X206.104 Y78.268 E.01891
G1 X206.433 Y78.2 E.01051
G1 X206.858 Y78.25 E.01339
;WIDTH:0.41574
G1 X207.555 Y78.428 E.02353
;WIDTH:0.452814
G1 X207.829 Y78.483 E.01007
G1 X207.593 Y78.332 E.0101
;WIDTH:0.41574
G1 X207.252 Y77.981 E.01601
;WIDTH:0.399999
G1 X207.053 Y77.587 E.01381
G1 X206.967 Y77.089 E.01582
G1 X206.967 Y75.548 E.04823
G1 X207.067 Y74.937 E.01938
G1 X207.218 Y74.527 E.01367
G1 X207.53 Y74.069 E.01734
G1 X207.822 Y73.797 E.01249
G1 X206.054 Y73.324 E.05728
G1 X205.599 Y73.111 E.01572
G1 X205.221 Y72.768 E.01597
G1 X204.998 Y72.298 E.01628
G1 X204.927 Y71.792 E.01599
G1 X205.032 Y71.27 E.01666
G1 X205.315 Y70.776 E.01782
G1 X205.647 Y70.512 E.01327
G1 X206.225 Y70.324 E.01902
G1 X206.674 Y70.308 E.01406
G1 X206.98 Y70.355 E.00969
G1 X207.083 Y69.826 E.01687
G1 X207.219 Y69.5 E.01105
G1 X207.531 Y69.044 E.01729
G1 X207.763 Y68.814 E.01022
G1 X207.987 Y68.662 E.00847
G1 E-.75
G1 X209.366 Y78.4 F12000
G1 E.75 F1800
;WIDTH:0.453295
G1 F3000
G1 X209.463 Y78.559 E.00672
G1 X209.804 Y79.011 E.02043
G1 X209.09 Y78.82 E.02667
;WIDTH:0.460482
G1 X208.429 Y78.639 E.02517
G1 X208.726 Y78.613 E.01095
;WIDTH:0.454889
G1 X209.093 Y78.521 E.01371
;WIDTH:0.453295
G1 X209.311 Y78.424 E.00861
G1 E-.75
G1 X218.305 Y84.621 F12000
G1 E.75 F1800
;WIDTH:0.426253
G1 F3000
G1 X218.305 Y83.608 E.03409
G1 X218.81 Y84.122 E.02425
G1 X218.534 Y84.302 E.01109
G1 X218.34 Y84.572 E.01119
G1 X218.279 Y86.503 F12000
;WIDTH:0.371491
G1 F3000
G1 X218.359 Y86.66 E.00506
G1 X218.664 Y86.965 E.01239
G1 X218.57 Y87.087 E.00443
G1 X218.28 Y87.608 E.01713
G1 X218.279 Y86.563 E.03003
G1 E-.75
G1 X221.9 Y92.147 F12000
G1 E.75 F1800
;WIDTH:0.399999
G1 F3000
G1 X221.895 Y94.623 E.07749
G1 X221.997 Y95.179 E.01769
G1 X222.09 Y95.343 E.0059
G1 X220.284 Y94.741 E.05958
G1 X220.06 Y94.689 E.0072
G1 X219.642 Y94.658 E.01312
G1 X219.048 Y94.807 E.01917
G1 X218.547 Y95.107 E.01828
G1 X218.298 Y95.458 E.01347
G1 X218.296 Y91.367 E.12803
G1 X218.472 Y91.616 E.00954
G1 X219.039 Y91.992 E.02129
G1 X219.355 Y92.091 E.01036
G1 X219.72 Y92.147 E.01156
G1 X221.84 Y92.147 E.06635
G1 E-.75
G1 X218.299 Y99.113 F12000
G1 E.75 F1800
G1 F3000
G1 X218.299 Y97.289 E.05708
G1 X218.595 Y97.703 E.01593
G1 X219.006 Y97.981 E.01553
G1 X219.631 Y98.202 E.02075
G1 X219.006 Y98.422 E.02074
G1 X218.595 Y98.7 E.01553
G1 X218.334 Y99.064 E.01402
G1 X218.3 Y100.936 F12000
G1 F3000
G1 X218.421 Y101.148 E.00764
G1 X218.603 Y101.329 E.00803
G1 X218.973 Y101.581 E.01401
G1 X219.43 Y101.712 E.01488
G1 X219.819 Y101.734 E.01219
G1 X219.2 Y101.94 E.02042
G1 X218.826 Y102.123 E.01303
G1 X218.439 Y102.444 E.01574
G1 X218.301 Y102.631 E.00727
G1 X218.3 Y100.996 E.05117
G1 E-.75
G1 X217.949 Y108.852 F12000
G1 E.75 F1800
G1 F3000
G1 X217.685 Y109.141 E.01225
G1 X217.36 Y109.374 E.01251
G1 X216.877 Y109.527 E.01586
G1 X216.526 Y109.569 E.01106
G1 X215.98 Y109.458 E.01744
G1 X215.592 Y109.276 E.01341
G1 X215.213 Y108.922 E.01623
G1 X214.994 Y108.597 E.01226
G1 X214.834 Y108.062 E.01748
G1 X214.812 Y107.439 E.01951
G1 X214.814 Y105.284 E.06744
;WIDTH:0.3973
G1 X214.812 Y104.653 E.01959
;WIDTH:0.399999
G1 X214.812 Y96.172 E.26542
;WIDTH:0.400272
G1 X214.806 Y95.032 E.03571
;WIDTH:0.399999
G1 X214.809 Y87.178 E.2458
;WIDTH:0.398965
G1 X214.803 Y86.595 E.01819
;WIDTH:0.399999
G1 X214.8 Y81.923 E.14621
;WIDTH:0.437185
G1 X214.781 Y81.386 E.01861
G1 X214.794 Y81.029 E.01237
;WIDTH:0.411872
G1 X214.806 Y80.673 E.01153
;WIDTH:0.400436
G1 X214.799 Y79.421 E.03923
;WIDTH:0.399999
G1 X214.799 Y77.794 E.05092
;WIDTH:0.398083
G1 X214.804 Y77.554 E.00747
;WIDTH:0.387616
G1 X214.803 Y75.678 E.05662
;WIDTH:0.427234
G1 X214.783 Y75.292 E.01304
;WIDTH:0.466857
G1 X214.763 Y74.907 E.01438
;WIDTH:0.500489
G1 X214.746 Y74.735 E.00697
;WIDTH:0.53412
G1 X214.729 Y74.563 E.00749
G1 X214.747 Y74.381 E.00793
;WIDTH:0.498225
G1 X214.765 Y74.199 E.00734
;WIDTH:0.462329
G1 X214.783 Y74.016 E.00678
;WIDTH:0.426433
G1 X214.802 Y73.49 E.01772
;WIDTH:0.387614
G1 X214.801 Y71.802 E.05095
;WIDTH:0.427712
G1 X214.781 Y70.961 E.02842
G1 X214.794 Y69.764 E.04044
;WIDTH:0.399999
G1 X214.794 Y68.545 E.03815
;WIDTH:0.43852
G1 X214.774 Y68.023 E.01816
G1 X214.786 Y67.338 E.02381
;WIDTH:0.41371
G1 X214.798 Y66.711 E.0204
;WIDTH:0.420624
G1 X214.782 Y65.938 E.02563
G1 X214.792 Y65.018 E.0305
;WIDTH:0.399999
G1 X214.791 Y62.301 E.08503
G1 X214.834 Y61.976 E.01026
G1 X215.003 Y61.477 E.01649
G1 X215.216 Y61.189 E.01121
G1 X215.63 Y60.821 E.01734
G1 X215.932 Y60.687 E.01034
G1 X216.458 Y60.573 E.01684
G1 X216.761 Y60.601 E.00952
G1 X217.258 Y60.728 E.01605
G1 X217.602 Y60.939 E.01263
G1 X217.991 Y61.349 E.01769
G1 X218.169 Y61.728 E.0131
G1 X218.271 Y62.14 E.01328
G1 X218.283 Y64.529 E.07477
G1 X218.55 Y64.091 E.01605
G1 X218.961 Y63.623 E.01949
G1 X219.379 Y63.309 E.01636
G1 X219.834 Y63.064 E.01617
G1 X220.38 Y62.914 E.01772
G1 X220.927 Y62.855 E.01722
G1 X221.659 Y62.957 E.02313
G1 X221.986 Y63.06 E.01073
G1 X222.443 Y63.278 E.01585
G1 X223.534 Y63.949 E.04008
G1 X223.851 Y63.404 E.01973
G1 X224.129 Y63.159 E.0116
G1 X224.45 Y63.007 E.01112
G1 X224.95 Y62.867 E.01625
G1 X225.377 Y62.875 E.01337
G1 X225.977 Y63.062 E.01967
G1 X226.271 Y63.249 E.0109
G1 X226.637 Y63.677 E.01762
G1 X226.783 Y64.023 E.01175
G1 X226.886 Y64.58 E.01773
G1 X226.886 Y67.023 E.07646
G1 X226.784 Y67.579 E.01769
G1 X226.624 Y67.921 E.01182
