; generated by PrusaSlicer 2.6.0-alpha6+win64 on 2023-07-28 at 12:09:03 UTC

; 

; external perimeters extrusion width = 0.40mm
; perimeters extrusion width = 0.40mm
; infill extrusion width = 0.40mm
; solid infill extrusion width = 0.40mm
; top infill extrusion width = 0.40mm
; support material extrusion width = 0.40mm
; first layer extrusion width = 0.40mm

M190 S55 ; set bed temperature and wait for it to be reached
M104 S210 ; set temperature
;TYPE:Custom
print_start EXTRUDER=210 BED=55
M109 S210 ; set temperature and wait for it to be reached
G21 ; set units to millimeters
G90 ; use absolute coordinates
M83 ; use relative distances for extrusion
;Filament gcode
M107
;LAYER_CHANGE
;Z:0.24
;HEIGHT:0.24
G1 Z.24 F6000
G1 E-.75 F3000
G1 X59.608 Y84.405 F6000
G1 E.75 F1800
M204 S7800
;TYPE:Skirt/Brim
;WIDTH:0.4
G1 F3000
G1 X60.684 Y83.81 E.03848
G1 X61.704 Y83.537 E.03305
G1 X62.405 Y83.48 E.02201
G1 X238.122 Y83.514 E5.49919
G1 X239.478 Y83.877 E.04393
G1 X240.531 Y84.512 E.03848
G1 X241.278 Y85.258 E.03304
G1 X241.979 Y86.474 E.04393
G1 X242.253 Y87.493 E.03302
G1 X242.31 Y88.195 E.02204
G1 X242.31 Y211.805 E3.86846
G1 X242.253 Y212.507 E.02204
G1 X241.912 Y213.688 E.03847
G1 X241.278 Y214.742 E.03849
G1 X240.392 Y215.595 E.03849
G1 X239.316 Y216.19 E.03848
G1 X238.296 Y216.463 E.03305
G1 X237.594 Y216.52 E.02204
G1 X62.405 Y216.52 E5.48267
G1 X61.704 Y216.463 E.02201
G1 X60.522 Y216.123 E.03849
G1 X59.469 Y215.488 E.03848
G1 X58.616 Y214.603 E.03847
G1 X58.021 Y213.527 E.03848
G1 X57.747 Y212.506 E.03308
G1 X57.69 Y211.805 E.02201
G1 X57.69 Y88.195 E3.86846
G1 X57.747 Y87.493 E.02204
G1 X58.088 Y86.312 E.03847
G1 X58.722 Y85.259 E.03847
G1 X59.565 Y84.447 E.03663
G1 X59.805 Y84.697 F6000
G1 F3000
G1 X60.817 Y84.132 E.03627
G1 X61.75 Y83.882 E.03023
G1 X62.405 Y83.828 E.02057
G1 X238.077 Y83.86 E5.49778
G1 X239.344 Y84.199 E.04105
G1 X240.319 Y84.788 E.03565
G1 X241.001 Y85.471 E.03021
G1 X241.657 Y86.607 E.04105
G1 X241.907 Y87.539 E.0302
G1 X241.961 Y88.195 E.0206
G1 X241.961 Y211.805 E3.86846
G1 X241.907 Y212.461 E.0206
G1 X241.59 Y213.555 E.03565
G1 X241.001 Y214.529 E.03562
G1 X240.18 Y215.318 E.03564
G1 X239.183 Y215.868 E.03563
G1 X238.251 Y216.118 E.0302
G1 X237.594 Y216.172 E.02063
G1 X62.405 Y216.172 E5.48267
G1 X61.749 Y216.118 E.0206
G1 X60.656 Y215.801 E.03562
G1 X59.681 Y215.212 E.03565
G1 X58.892 Y214.39 E.03566
G1 X58.343 Y213.393 E.03562
G1 X58.093 Y212.461 E.0302
G1 X58.039 Y211.805 E.0206
G1 X58.039 Y88.195 E3.86846
G1 X58.093 Y87.539 E.0206
G1 X58.41 Y86.445 E.03565
G1 X58.999 Y85.471 E.03562
G1 X59.761 Y84.738 E.03309
G1 X60.001 Y84.988 F6000
G1 F3000
G1 X60.951 Y84.454 E.03411
G1 X61.795 Y84.228 E.02734
G1 X62.405 Y84.177 E.01916
G1 X238.032 Y84.205 E5.49637
G1 X239.211 Y84.521 E.0382
G1 X240.107 Y85.065 E.0328
G1 X240.725 Y85.683 E.02735
G1 X241.335 Y86.74 E.03819
G1 X241.562 Y87.584 E.02735
G1 X241.613 Y88.195 E.01919
G1 X241.613 Y211.805 E3.86846
G1 X241.562 Y212.416 E.01919
G1 X241.268 Y213.421 E.03277
G1 X240.725 Y214.317 E.03279
G1 X239.968 Y215.042 E.0328
G1 X239.049 Y215.546 E.0328
G1 X238.205 Y215.772 E.02734
G1 X237.594 Y215.823 E.01919
G1 X62.405 Y215.823 E5.48267
G1 X61.795 Y215.772 E.01916
G1 X60.789 Y215.479 E.03279
G1 X59.893 Y214.935 E.0328
G1 X59.169 Y214.178 E.03278
G1 X58.665 Y213.26 E.03277
G1 X58.438 Y212.416 E.02735
G1 X58.387 Y211.805 E.01919
G1 X58.387 Y88.195 E3.86846
G1 X58.438 Y87.584 E.01919
G1 X58.732 Y86.579 E.03277
G1 X59.275 Y85.683 E.03279
G1 X59.957 Y85.03 E.02955
; printing object top window.stl id:0 copy 0
G1 E-.75
G1 X234.514 Y88.617 F6000
G1 E.75 F1800
;TYPE:Perimeter
;WIDTH:0.480392
G1 F3000
G1 X234.33 Y88.692 E.00765
;WIDTH:0.439294
G1 X233.736 Y88.991 E.02316
;WIDTH:0.399999
G1 X233.228 Y89.419 E.02079
G1 X232.848 Y89.963 E.02077
G1 X232.622 Y90.587 E.02077
G1 X232.564 Y91.249 E.0208
G1 X232.68 Y91.903 E.02079
G1 X232.962 Y92.504 E.02078
G1 X233.389 Y93.012 E.02077
G1 X233.933 Y93.392 E.02077
G1 X234.436 Y93.594 E.01696
G1 X234.992 Y93.676 E.01759
G1 X235.653 Y93.619 E.02076
G1 X236.278 Y93.392 E.02081
G1 X236.822 Y93.012 E.02077
G1 X237.218 Y92.545 E.01916
G1 X237.218 Y156.099 E1.98897
G1 X237.068 Y155.816 E.01002
G1 X236.641 Y155.308 E.02077
G1 X236.097 Y154.928 E.02077
G1 X235.452 Y154.699 E.02142
G1 X234.77 Y154.649 E.0214
G1 X234.157 Y154.76 E.0195
G1 X233.634 Y154.987 E.01784
G1 X233.208 Y155.308 E.01669
G1 X233.035 Y155.485 E.00775
G1 X232.651 Y156.051 E.02141
G1 X232.441 Y156.637 E.01948
G1 X232.383 Y157.299 E.0208
G1 X232.499 Y157.953 E.02079
G1 X232.781 Y158.554 E.02078
G1 X233.208 Y159.062 E.02077
G1 X233.752 Y159.442 E.02077
G1 X234.255 Y159.644 E.01696
G1 X234.811 Y159.726 E.01759
G1 X235.472 Y159.669 E.02076
G1 X236.097 Y159.442 E.02081
G1 X236.641 Y159.062 E.02077
G1 X237.068 Y158.554 E.02077
G1 X237.218 Y158.271 E.01002
G1 X237.218 Y207.459 E1.53937
G1 X236.811 Y206.978 E.01972
G1 X236.267 Y206.598 E.02077
G1 X235.622 Y206.369 E.02142
G1 X234.94 Y206.319 E.0214
G1 X234.327 Y206.43 E.0195
G1 X233.725 Y206.711 E.02079
G1 X233.217 Y207.139 E.02079
G1 X232.837 Y207.683 E.02077
G1 X232.611 Y208.307 E.02077
G1 X232.553 Y208.969 E.0208
G1 X232.669 Y209.622 E.02076
G1 X232.951 Y210.224 E.0208
G1 X233.378 Y210.732 E.02077
G1 X233.922 Y211.112 E.02077
;WIDTH:0.444745
G1 X234.232 Y211.248 E.01195
;WIDTH:0.48949
G1 X234.541 Y211.383 E.01326
G1 X234.2 Y211.406 E.01344
;WIDTH:0.444745
G1 X233.86 Y211.428 E.01203
;WIDTH:0.399999
G1 X204.613 Y211.428 E.9153
;WIDTH:0.437137
G1 X204.359 Y211.409 E.00882
;WIDTH:0.474274
G1 X204.104 Y211.391 E.00971
G1 X204.288 Y211.318 E.00752
;WIDTH:0.43644
G1 X204.762 Y211.07 E.01849
;WIDTH:0.399999
G1 X205.166 Y210.722 E.01669
G1 X205.41 Y210.392 E.01284
G1 X211.321 Y200.153 E.37
G1 X211.512 Y199.704 E.01527
G1 X211.591 Y199.166 E.01702
G1 X211.525 Y198.624 E.01709
G1 X211.321 Y198.123 E.01693
G1 X210.994 Y197.694 E.01688
G1 X210.576 Y197.373 E.01649
G1 X200.337 Y191.461 E.37002
G1 X199.961 Y191.298 E.01283
G1 X199.38 Y191.201 E.01843
G1 X198.793 Y191.261 E.01847
G1 X198.307 Y191.462 E.01646
G1 X197.878 Y191.789 E.01688
G1 X197.556 Y192.206 E.01649
G1 X191.645 Y202.445 E.37
G1 X191.481 Y202.821 E.01284
G1 X191.382 Y203.345 E.01669
G1 X191.434 Y203.946 E.01888
G1 X191.637 Y204.462 E.01735
G1 X191.976 Y204.908 E.01753
G1 X192.39 Y205.226 E.01634
G1 X202.731 Y211.188 E.37356
;WIDTH:0.434179
G1 X202.975 Y211.291 E.0091
;WIDTH:0.468358
G1 X203.22 Y211.394 E.00995
G1 X202.952 Y211.411 E.01005
;WIDTH:0.434179
G1 X202.683 Y211.428 E.00926
;WIDTH:0.399999
G1 X189.173 Y211.428 E.4228
;WIDTH:0.430882
G1 X188.58 Y211.413 E.02021
G1 X188.763 Y211.351 E.00658
;WIDTH:0.415526
G1 X189.324 Y211.079 E.02038
;WIDTH:0.399999
G1 X189.832 Y210.651 E.02079
G1 X190.212 Y210.107 E.02077
G1 X190.438 Y209.483 E.02077
G1 X190.496 Y208.821 E.0208
G1 X190.38 Y208.167 E.02079
G1 X190.098 Y207.566 E.02078
G1 X189.756 Y207.132 E.01729
G1 X189.324 Y206.791 E.01722
G1 X188.967 Y206.611 E.01251
G1 X188.482 Y206.449 E.016
G1 X187.8 Y206.399 E.0214
G1 X187.187 Y206.51 E.0195
G1 X186.585 Y206.791 E.02079
G1 X186.077 Y207.219 E.02079
G1 X185.697 Y207.763 E.02077
G1 X185.471 Y208.387 E.02077
G1 X185.413 Y209.049 E.0208
G1 X185.529 Y209.703 E.02079
G1 X185.811 Y210.304 E.02078
G1 X186.238 Y210.812 E.02077
G1 X186.782 Y211.192 E.02077
;WIDTH:0.409148
G1 X187.406 Y211.423 E.02137
G1 X186.736 Y211.428 E.02152
;WIDTH:0.399999
G1 X150.205 Y211.428 E1.14326
;WIDTH:0.437662
G1 X149.885 Y211.409 E.01112
;WIDTH:0.475324
G1 X149.566 Y211.39 E.01216
G1 X149.749 Y211.317 E.0075
;WIDTH:0.436929
G1 X150.344 Y211.019 E.02303
;WIDTH:0.399999
G1 X150.864 Y210.575 E.0214
G1 X151.248 Y210.009 E.02141
G1 X151.458 Y209.423 E.01948
G1 X151.516 Y208.761 E.0208
G1 X151.4 Y208.107 E.02079
G1 X151.118 Y207.506 E.02078
G1 X150.691 Y206.998 E.02077
G1 X150.249 Y206.668 E.01726
G1 X149.742 Y206.45 E.01727
G1 X149.502 Y206.389 E.00775
G1 X148.82 Y206.339 E.0214
G1 X148.207 Y206.45 E.0195
G1 X147.674 Y206.684 E.01822
G1 X147.258 Y206.998 E.01631
G1 X147.043 Y207.229 E.00988
G1 X146.717 Y207.703 E.018
G1 X146.491 Y208.327 E.02077
G1 X146.433 Y208.989 E.0208
G1 X146.549 Y209.643 E.02079
G1 X146.831 Y210.244 E.02078
G1 X147.258 Y210.752 E.02077
G1 X147.802 Y211.132 E.02077
;WIDTH:0.434702
G1 X148.112 Y211.263 E.01158
;WIDTH:0.469404
G1 X148.422 Y211.393 E.01262
G1 X148.083 Y211.411 E.01274
;WIDTH:0.434702
G1 X147.744 Y211.428 E.01168
;WIDTH:0.399999
G1 X108.686 Y211.428 E1.22235
;WIDTH:0.437663
G1 X108.366 Y211.409 E.01112
;WIDTH:0.475326
G1 X108.047 Y211.39 E.01216
G1 X108.23 Y211.317 E.0075
;WIDTH:0.436932
G1 X108.825 Y211.019 E.02303
;WIDTH:0.399999
G1 X109.345 Y210.575 E.0214
G1 X109.729 Y210.009 E.02141
G1 X109.939 Y209.423 E.01948
G1 X109.997 Y208.761 E.0208
G1 X109.881 Y208.107 E.02079
G1 X109.599 Y207.506 E.02078
G1 X109.172 Y206.998 E.02077
G1 X108.698 Y206.65 E.0184
G1 X108.223 Y206.45 E.01613
G1 X107.983 Y206.389 E.00775
G1 X107.301 Y206.339 E.0214
G1 X106.688 Y206.45 E.0195
G1 X106.175 Y206.672 E.01749
G1 X105.763 Y206.979 E.01608
G1 X105.5 Y207.265 E.01216
G1 X105.182 Y207.741 E.01792
G1 X104.972 Y208.327 E.01948
G1 X104.914 Y208.989 E.0208
G1 X105.03 Y209.643 E.02079
G1 X105.312 Y210.244 E.02078
G1 X105.739 Y210.752 E.02077
G1 X106.283 Y211.132 E.02077
;WIDTH:0.434701
G1 X106.593 Y211.263 E.01158
;WIDTH:0.469402
G1 X106.903 Y211.393 E.01262
G1 X106.564 Y211.411 E.01274
;WIDTH:0.434701
G1 X106.225 Y211.428 E.01168
;WIDTH:0.399999
G1 X66.137 Y211.428 E1.25458
;WIDTH:0.433614
G1 X65.937 Y211.411 E.00689
;WIDTH:0.467228
G1 X65.736 Y211.394 E.00753
;WIDTH:0.500842
G1 X65.536 Y211.378 E.0081
G1 X65.628 Y211.337 E.00406
;WIDTH:0.474784
G1 X65.72 Y211.297 E.00381
;WIDTH:0.448725
G1 X66.273 Y211.01 E.02222
;WIDTH:0.399999
G1 X66.793 Y210.567 E.02138
G1 X67.178 Y210 E.02145
G1 X67.389 Y209.415 E.01946
G1 X67.444 Y208.734 E.02138
G1 X67.315 Y208.06 E.02148
G1 X67.05 Y207.498 E.01945
G1 X66.623 Y206.989 E.02079
G1 X66.12 Y206.627 E.01939
G1 X65.656 Y206.433 E.01574
G1 X64.961 Y206.327 E.022
G1 X64.359 Y206.381 E.01892
G1 X63.735 Y206.607 E.02077
G1 X63.19 Y206.987 E.02079
G1 X62.782 Y207.483 E.0201
G1 X62.782 Y154.404 E1.66114
G1 X63.179 Y154.872 E.01921
G1 X63.723 Y155.252 E.02077
G1 X64.348 Y155.479 E.02081
G1 X65.009 Y155.536 E.02076
G1 X65.663 Y155.42 E.02079
G1 X66.264 Y155.139 E.02076
G1 X66.773 Y154.711 E.02081
G1 X67.064 Y154.322 E.0152
G1 X67.071 Y158.061 E.11701
G1 X67.168 Y158.574 E.01634
G1 X67.4 Y159.055 E.01671
G1 X67.684 Y159.406 E.01413
G1 X68.079 Y159.706 E.01552
G1 X68.576 Y159.914 E.01686
G1 X69.099 Y159.983 E.01651
G1 X80.922 Y159.983 E.37001
G1 X81.445 Y159.914 E.01651
G1 X81.942 Y159.706 E.01686
G1 X82.357 Y159.387 E.01638
G1 X82.68 Y158.968 E.01656
G1 X82.888 Y158.47 E.01689
G1 X82.957 Y157.948 E.01648
G1 X82.957 Y146.124 E.37004
G1 X82.888 Y145.602 E.01648
G1 X82.68 Y145.104 E.01689
G1 X82.357 Y144.685 E.01656
G1 X81.942 Y144.366 E.01638
G1 X81.445 Y144.158 E.01686
G1 X80.922 Y144.089 E.01651
G1 X69.099 Y144.089 E.37001
G1 X68.472 Y144.194 E.0199
G1 X67.991 Y144.425 E.0167
G1 X67.587 Y144.773 E.01669
G1 X67.286 Y145.214 E.01671
G1 X67.11 Y145.718 E.01671
G1 X67.064 Y146.124 E.01279
G1 X67.064 Y151.668 E.1735
G1 X66.612 Y151.118 E.02228
G1 X66.068 Y150.738 E.02077
G1 X65.423 Y150.509 E.02142
G1 X64.874 Y150.452 E.01727
G1 X64.348 Y150.511 E.01656
G1 X63.723 Y150.738 E.02081
G1 X63.179 Y151.118 E.02077
G1 X62.782 Y151.586 E.01921
G1 X62.782 Y92.541 E1.84785
G1 X63.189 Y93.022 E.01972
G1 X63.733 Y93.402 E.02077
G1 X64.358 Y93.629 E.02081
G1 X65.019 Y93.686 E.02076
G1 X65.673 Y93.57 E.02079
G1 X66.275 Y93.289 E.02079
G1 X66.783 Y92.861 E.02079
G1 X67.163 Y92.317 E.02077
G1 X67.389 Y91.693 E.02077
G1 X67.447 Y91.031 E.0208
G1 X67.331 Y90.378 E.02076
G1 X67.049 Y89.776 E.0208
G1 X66.622 Y89.268 E.02077
G1 X66.078 Y88.888 E.02077
;WIDTH:0.443396
G1 X65.758 Y88.752 E.01224
;WIDTH:0.486792
G1 X65.438 Y88.615 E.01361
G1 X65.789 Y88.594 E.01375
;WIDTH:0.443396
G1 X66.14 Y88.572 E.01238
;WIDTH:0.399999
G1 X106.257 Y88.573 E1.25549
;WIDTH:0.438108
G1 X106.472 Y88.592 E.00749
;WIDTH:0.476217
G1 X106.686 Y88.611 E.00819
;WIDTH:0.514326
G1 X106.901 Y88.63 E.00897
G1 X106.809 Y88.673 E.00422
;WIDTH:0.48456
G1 X106.717 Y88.715 E.00393
;WIDTH:0.454794
G1 X106.422 Y88.868 E.01204
;WIDTH:0.427397
G1 X106.126 Y89.021 E.01125
;WIDTH:0.399999
G1 X105.606 Y89.465 E.0214
G1 X105.222 Y90.031 E.02141
G1 X105.012 Y90.617 E.01948
G1 X104.954 Y91.279 E.0208
G1 X105.07 Y91.933 E.02079
G1 X105.352 Y92.534 E.02078
G1 X105.721 Y92.993 E.01843
G1 X106.126 Y93.309 E.01608
G1 X106.432 Y93.468 E.01079
G1 X106.948 Y93.649 E.01711
G1 X107.609 Y93.706 E.02076
G1 X108.263 Y93.59 E.02079
G1 X108.865 Y93.309 E.02079
G1 X109.373 Y92.881 E.02079
G1 X109.753 Y92.337 E.02077
G1 X109.979 Y91.713 E.02077
G1 X110.037 Y91.051 E.0208
G1 X109.921 Y90.397 E.02079
G1 X109.639 Y89.796 E.02078
G1 X109.212 Y89.288 E.02077
G1 X108.668 Y88.908 E.02077
;WIDTH:0.435208
G1 X108.455 Y88.814 E.00802
;WIDTH:0.470417
G1 X108.242 Y88.72 E.00876
;WIDTH:0.505626
G1 X108.029 Y88.626 E.00949
G1 X108.264 Y88.609 E.00961
;WIDTH:0.470417
G1 X108.499 Y88.591 E.00887
;WIDTH:0.435208
G1 X108.734 Y88.573 E.00812
;WIDTH:0.399999
G1 X147.771 Y88.574 E1.22169
;WIDTH:0.446479
G1 X148.092 Y88.598 E.01142
;WIDTH:0.492958
G1 X148.413 Y88.621 E.01276
G1 X148.229 Y88.699 E.00792
;WIDTH:0.445107
G1 X147.636 Y89.001 E.02352
;WIDTH:0.399999
G1 X147.128 Y89.429 E.02079
G1 X146.748 Y89.973 E.02077
G1 X146.522 Y90.597 E.02077
G1 X146.464 Y91.259 E.0208
G1 X146.58 Y91.913 E.02079
G1 X146.814 Y92.446 E.01822
G1 X147.117 Y92.847 E.01573
G1 X147.378 Y93.091 E.01118
G1 X147.833 Y93.402 E.01725
G1 X148.458 Y93.629 E.02081
G1 X149.119 Y93.686 E.02076
G1 X149.773 Y93.57 E.02079
G1 X150.375 Y93.289 E.02079
G1 X150.883 Y92.861 E.02079
G1 X151.263 Y92.317 E.02077
G1 X151.489 Y91.693 E.02077
G1 X151.547 Y91.031 E.0208
G1 X151.431 Y90.377 E.02079
G1 X151.149 Y89.776 E.02078
G1 X150.722 Y89.268 E.02077
G1 X150.178 Y88.888 E.02077
;WIDTH:0.442179
G1 X149.858 Y88.752 E.0122
;WIDTH:0.484358
G1 X149.538 Y88.617 E.0135
G1 X149.889 Y88.596 E.01367
;WIDTH:0.442179
G1 X150.24 Y88.575 E.01234
;WIDTH:0.399999
G1 X186.758 Y88.576 E1.14286
;WIDTH:0.433972
G1 X186.973 Y88.593 E.00741
;WIDTH:0.467945
G1 X187.187 Y88.61 E.00803
;WIDTH:0.501918
G1 X187.401 Y88.627 E.00868
G1 X187.309 Y88.667 E.00406
;WIDTH:0.475564
G1 X187.218 Y88.707 E.00379
;WIDTH:0.44921
G1 X186.625 Y89.011 E.0238
;WIDTH:0.399999
G1 X186.117 Y89.439 E.02079
G1 X185.737 Y89.983 E.02077
G1 X185.511 Y90.607 E.02077
G1 X185.453 Y91.269 E.0208
G1 X185.569 Y91.923 E.02079
G1 X185.851 Y92.524 E.02078
G1 X186.278 Y93.032 E.02077
G1 X186.822 Y93.412 E.02077
G1 X187.447 Y93.639 E.02081
G1 X188.108 Y93.696 E.02076
G1 X188.762 Y93.58 E.02079
G1 X189.363 Y93.299 E.02076
G1 X189.872 Y92.871 E.02081
G1 X190.252 Y92.327 E.02077
G1 X190.478 Y91.703 E.02077
G1 X190.536 Y91.041 E.0208
G1 X190.42 Y90.387 E.02079
G1 X190.138 Y89.786 E.02078
G1 X189.711 Y89.278 E.02077
G1 X189.167 Y88.898 E.02077
;WIDTH:0.44664
G1 X188.847 Y88.76 E.01237
;WIDTH:0.49328
G1 X188.528 Y88.622 E.01379
G1 X188.879 Y88.599 E.01395
;WIDTH:0.44664
G1 X189.231 Y88.576 E.01252
;WIDTH:0.399999
G1 X233.874 Y88.577 E1.39713
;WIDTH:0.440196
G1 X234.194 Y88.597 E.01119
;WIDTH:0.480392
G1 X234.454 Y88.613 E.01003
G1 X235.736 Y88.628 F6000
;WIDTH:0.497915
G1 F3000
G1 X235.637 Y88.613 E.00401
;WIDTH:0.511354
G1 X235.987 Y88.633 E.01448
;WIDTH:0.550856
G1 X236.337 Y88.652 E.01572
G1 X237.142 Y88.652 E.0361
G1 X237.142 Y89.502 E.03812
G1 X237.043 Y89.373 E.00729
G1 X236.74 Y89.1 E.01829
G1 X236.306 Y88.808 E.02346
G1 X235.896 Y88.653 E.01966
;WIDTH:0.523978
G1 X235.795 Y88.637 E.00434
G1 X235.715 Y89.039 F6000
;WIDTH:0.399999
G1 F3000
G1 X236.144 Y89.199 E.01433
G1 X236.61 Y89.534 E.01796
G1 X236.973 Y89.978 E.01795
G1 X237.205 Y90.502 E.01793
;WIDTH:0.393233
G1 X237.281 Y91.069 E.01756
;WIDTH:0.358808
G1 X237.284 Y91.135 E.00182
;WIDTH:0.387507
G1 X237.238 Y91.637 E.01521
;WIDTH:0.399999
G1 X237.041 Y92.174 E.0179
G1 X236.706 Y92.639 E.01794
G1 X236.262 Y93.002 E.01795
G1 X235.74 Y93.238 E.01793
G1 X235.174 Y93.331 E.01795
G1 X234.603 Y93.273 E.01796
