; generated by PrusaSlicer 2.6.0-alpha6+win64 on 2023-07-27 at 21:48:19 UTC

; 

; external perimeters extrusion width = 0.38mm
; perimeters extrusion width = 0.38mm
; infill extrusion width = 0.45mm
; solid infill extrusion width = 0.45mm
; top infill extrusion width = 0.44mm
; support material extrusion width = 0.40mm
; first layer extrusion width = 0.40mm

M190 S55 ; set bed temperature and wait for it to be reached
M104 S210 ; set temperature
;TYPE:Custom
print_start EXTRUDER=210 BED=55
M109 S210 ; set temperature and wait for it to be reached
G21 ; set units to millimeters
G90 ; use absolute coordinates
M83 ; use relative distances for extrusion
;Filament gcode
M107
;LAYER_CHANGE
;Z:0.24
;HEIGHT:0.24
G1 Z.24 F12000
G1 E-.75 F3000
G1 X59.435 Y84.105 F12000
G1 E.75 F1800
M204 S4000
;TYPE:Skirt/Brim
;WIDTH:0.4
G1 F3000
G1 X60.595 Y83.476 E.0413
G1 X61.614 Y83.202 E.03302
G1 X62.406 Y83.133 E.02488
G1 X238.123 Y83.168 E5.49919
G1 X239.651 Y83.577 E.0495
G1 X240.752 Y84.249 E.04037
G1 X241.523 Y85.014 E.03399
G1 X242.314 Y86.384 E.04951
G1 X242.587 Y87.404 E.03305
G1 X242.656 Y88.195 E.02485
G1 X242.656 Y211.805 E3.86846
G1 X242.587 Y212.596 E.02485
G1 X242.212 Y213.861 E.04129
G1 X241.523 Y214.986 E.04129
G1 X240.565 Y215.895 E.04133
G1 X239.405 Y216.524 E.0413
G1 X238.386 Y216.797 E.03301
G1 X237.594 Y216.867 E.02488
G1 X62.406 Y216.867 E5.48264
G1 X61.614 Y216.797 E.02488
G1 X60.349 Y216.423 E.04128
G1 X59.224 Y215.733 E.0413
G1 X58.316 Y214.776 E.04129
G1 X57.686 Y213.616 E.04131
G1 X57.413 Y212.596 E.03305
G1 X57.344 Y211.805 E.02485
G1 X57.344 Y88.195 E3.86846
G1 X57.413 Y87.404 E.02485
G1 X57.788 Y86.138 E.04132
G1 X58.477 Y85.014 E.04126
G1 X59.391 Y84.147 E.03943
G1 X59.629 Y84.399 F12000
G1 F3000
G1 X60.728 Y83.798 E.0392
G1 X61.66 Y83.548 E.0302
G1 X62.406 Y83.482 E.02344
G1 X238.077 Y83.513 E5.49775
G1 X239.517 Y83.899 E.04666
G1 X240.54 Y84.525 E.03753
G1 X241.246 Y85.226 E.03114
G1 X241.992 Y86.517 E.04666
G1 X242.241 Y87.449 E.03019
G1 X242.308 Y88.195 E.02344
G1 X242.308 Y211.805 E3.86846
G1 X242.241 Y212.551 E.02344
G1 X241.89 Y213.728 E.03844
G1 X241.246 Y214.774 E.03844
G1 X240.353 Y215.618 E.03845
G1 X239.272 Y216.202 E.03845
G1 X238.34 Y216.452 E.0302
G1 X237.594 Y216.518 E.02344
G1 X62.406 Y216.518 E5.48264
G1 X61.66 Y216.452 E.02344
G1 X60.483 Y216.101 E.03844
G1 X59.436 Y215.457 E.03847
G1 X58.592 Y214.564 E.03845
G1 X58.008 Y213.483 E.03845
G1 X57.759 Y212.551 E.03019
G1 X57.692 Y211.805 E.02344
G1 X57.692 Y88.195 E3.86846
G1 X57.759 Y87.449 E.02344
G1 X58.11 Y86.272 E.03844
G1 X58.754 Y85.226 E.03844
G1 X59.585 Y84.44 E.0358
G1 X59.823 Y84.692 F12000
G1 F3000
G1 X60.861 Y84.12 E.03709
G1 X61.705 Y83.894 E.02734
G1 X62.406 Y83.83 E.02203
G1 X238.032 Y83.859 E5.49634
G1 X239.384 Y84.221 E.0438
G1 X240.141 Y84.658 E.02736
G1 X240.97 Y85.438 E.03562
G1 X241.67 Y86.651 E.04383
G1 X241.896 Y87.495 E.02734
G1 X241.959 Y88.195 E.022
G1 X241.959 Y211.805 E3.86846
G1 X241.896 Y212.505 E.022
G1 X241.568 Y213.595 E.03562
G1 X240.97 Y214.562 E.03558
G1 X240.141 Y215.342 E.03562
G1 X239.139 Y215.88 E.03559
G1 X238.295 Y216.106 E.02734
G1 X237.594 Y216.17 E.02203
G1 X62.406 Y216.17 E5.48264
G1 X61.705 Y216.106 E.02203
G1 X60.616 Y215.779 E.03558
G1 X59.648 Y215.18 E.03563
G1 X58.869 Y214.352 E.03558
G1 X58.33 Y213.349 E.03563
G1 X58.104 Y212.505 E.02734
G1 X58.041 Y211.805 E.022
G1 X58.041 Y88.195 E3.86846
G1 X58.104 Y87.495 E.022
G1 X58.432 Y86.405 E.03562
G1 X59.03 Y85.438 E.03558
G1 X59.779 Y84.733 E.03219
G1 E-.75
G1 X62.835 Y88.624 F12000
G1 E.75 F1800
;TYPE:Perimeter
;WIDTH:0.399999
G1 F3000
G1 X237.165 Y88.624 E5.45577
G1 X237.165 Y211.376 E3.84161
G1 X62.835 Y211.376 E5.45577
G1 X62.835 Y88.684 E3.83973
G1 X62.486 Y88.276 F12000
G1 F3000
G1 X237.514 Y88.276 E5.47762
G1 X237.514 Y211.724 E3.86339
G1 X62.486 Y211.724 E5.47762
G1 X62.486 Y88.336 E3.86151
G1 X62.248 Y87.989 F12000
G1 F3000
G1 X62.455 Y87.927 E.00676
G1 X237.523 Y87.927 E5.47887
G1 X237.66 Y87.942 E.00431
G1 X237.821 Y88.064 E.00632
G1 X237.862 Y88.266 E.00645
G1 X237.862 Y211.734 E3.86401
G1 X237.847 Y211.873 E.00438
G1 X237.752 Y212.011 E.00524
G1 X237.545 Y212.073 E.00676
G1 X62.477 Y212.073 E5.47887
G1 X62.338 Y212.057 E.00438
G1 X62.2 Y211.963 E.00523
G1 X62.138 Y211.756 E.00676
G1 X62.138 Y88.266 E3.8647
G1 X62.153 Y88.127 E.00438
G1 X62.214 Y88.039 E.00335
G1 X62.099 Y87.664 F12000
;TYPE:External perimeter
G1 F3000
G1 X62.432 Y87.579 E.01076
G1 X237.523 Y87.579 E5.47959
G1 X237.75 Y87.603 E.00714
G1 X238.028 Y87.762 E.01002
G1 X238.156 Y87.962 E.00743
G1 X238.211 Y88.266 E.00967
G1 X238.211 Y211.779 E3.86542
G1 X238.125 Y212.111 E.01073
G1 X237.901 Y212.336 E.00994
G1 X237.568 Y212.421 E.01076
G1 X62.432 Y212.421 E5.481
G1 X62.099 Y212.336 E.01076
G1 X61.875 Y212.111 E.00994
G1 X61.789 Y211.779 E.01073
G1 X61.789 Y88.221 E3.86683
G1 X61.875 Y87.889 E.01073
G1 X62.057 Y87.707 E.00806
G1 X62.396 Y87.836 F12000
G1 E-.75 F3000
G1 X63.644 Y211.271 F12000
G1 E.75 F1800
;TYPE:Solid infill
;WIDTH:0.400046
G1 F3000
G1 X63.096 Y210.723 E.02426
G1 X63.096 Y210.231 E.0154
G1 X63.98 Y211.114 E.03911
G1 X64.473 Y211.114 E.01543
G1 X63.096 Y209.738 E.06093
G1 X63.096 Y209.245 E.01543
G1 X64.966 Y211.114 E.08275
G1 X65.459 Y211.114 E.01543
G1 X63.096 Y208.752 E.10458
G1 X63.096 Y208.259 E.01543
G1 X65.952 Y211.114 E.1264
G1 X66.444 Y211.114 E.0154
G1 X63.096 Y207.766 E.1482
G1 X63.096 Y207.273 E.01543
G1 X66.937 Y211.114 E.17002
G1 X67.43 Y211.114 E.01543
G1 X63.096 Y206.78 E.19184
G1 X63.096 Y206.287 E.01543
G1 X67.923 Y211.114 E.21367
G1 X68.416 Y211.114 E.01543
G1 X63.096 Y205.794 E.23549
G1 X63.096 Y205.301 E.01543
G1 X68.909 Y211.114 E.25731
G1 X69.402 Y211.114 E.01543
G1 X63.096 Y204.809 E.27911
G1 X63.096 Y204.316 E.01543
G1 X69.895 Y211.114 E.30093
G1 X70.388 Y211.114 E.01543
G1 X63.096 Y203.823 E.32276
G1 X63.096 Y203.33 E.01543
G1 X70.881 Y211.114 E.34458
G1 X71.374 Y211.114 E.01543
G1 X63.096 Y202.837 E.3664
G1 X63.096 Y202.344 E.01543
G1 X71.867 Y211.114 E.38822
G1 X72.359 Y211.114 E.0154
G1 X63.096 Y201.851 E.41002
G1 X63.096 Y201.358 E.01543
G1 X72.852 Y211.114 E.43185
G1 X73.345 Y211.114 E.01543
G1 X63.096 Y200.865 E.45367
G1 X63.096 Y200.372 E.01543
G1 X73.838 Y211.114 E.47549
G1 X74.331 Y211.114 E.01543
G1 X63.096 Y199.879 E.49731
G1 X63.096 Y199.387 E.0154
G1 X74.824 Y211.114 E.51911
G1 X75.317 Y211.114 E.01543
G1 X63.096 Y198.894 E.54094
G1 X63.096 Y198.401 E.01543
G1 X75.81 Y211.114 E.56276
G1 X76.303 Y211.114 E.01543
G1 X63.096 Y197.908 E.58458
G1 X63.096 Y197.415 E.01543
G1 X76.796 Y211.114 E.6064
G1 X77.289 Y211.114 E.01543
G1 X63.096 Y196.922 E.62823
G1 X63.096 Y196.429 E.01543
G1 X77.781 Y211.114 E.65003
G1 X78.274 Y211.114 E.01543
G1 X63.096 Y195.936 E.67185
G1 X63.096 Y195.443 E.01543
G1 X78.767 Y211.114 E.69367
G1 X79.26 Y211.114 E.01543
G1 X63.096 Y194.95 E.7155
G1 X63.096 Y194.457 E.01543
G1 X79.753 Y211.114 E.73732
G1 X80.246 Y211.114 E.01543
G1 X63.096 Y193.964 E.75914
G1 X63.096 Y193.472 E.0154
G1 X80.739 Y211.114 E.78094
G1 X81.232 Y211.114 E.01543
G1 X63.096 Y192.979 E.80276
G1 X63.096 Y192.486 E.01543
G1 X81.725 Y211.114 E.82459
G1 X82.218 Y211.114 E.01543
G1 X63.096 Y191.993 E.84641
G1 X63.096 Y191.5 E.01543
G1 X82.711 Y211.114 E.86823
G1 X83.204 Y211.114 E.01543
G1 X63.096 Y191.007 E.89005
G1 X63.096 Y190.514 E.01543
G1 X83.696 Y211.114 E.91185
G1 X84.189 Y211.114 E.01543
G1 X63.096 Y190.021 E.93368
G1 X63.096 Y189.528 E.01543
G1 X84.682 Y211.114 E.9555
G1 X85.175 Y211.114 E.01543
G1 X63.096 Y189.035 E.97732
G1 X63.096 Y188.542 E.01543
G1 X85.668 Y211.114 E.99914
G1 X86.161 Y211.114 E.01543
G1 X63.096 Y188.05 E1.02094
G1 X63.096 Y187.557 E.01543
G1 X86.654 Y211.114 E1.04277
G1 X87.147 Y211.114 E.01543
G1 X63.096 Y187.064 E1.06459
G1 X63.096 Y186.571 E.01543
G1 X87.64 Y211.114 E1.08641
G1 X88.133 Y211.114 E.01543
G1 X63.096 Y186.078 E1.10823
G1 X63.096 Y185.585 E.01543
G1 X88.626 Y211.114 E1.13006
G1 X89.118 Y211.114 E.0154
G1 X63.096 Y185.092 E1.15186
G1 X63.096 Y184.599 E.01543
G1 X89.611 Y211.114 E1.17368
G1 X90.104 Y211.114 E.01543
G1 X63.096 Y184.106 E1.1955
G1 X63.096 Y183.613 E.01543
G1 X90.597 Y211.114 E1.21732
G1 X91.09 Y211.114 E.01543
G1 X63.096 Y183.12 E1.23915
G1 X63.096 Y182.627 E.01543
G1 X91.583 Y211.114 E1.26097
G1 X92.076 Y211.114 E.01543
G1 X63.096 Y182.135 E1.28277
G1 X63.096 Y181.642 E.01543
G1 X92.569 Y211.114 E1.30459
G1 X93.062 Y211.114 E.01543
G1 X63.096 Y181.149 E1.32641
G1 X63.096 Y180.656 E.01543
G1 X93.555 Y211.114 E1.34824
G1 X94.048 Y211.114 E.01543
G1 X63.096 Y180.163 E1.37006
G1 X63.096 Y179.67 E.01543
G1 X94.541 Y211.114 E1.39188
G1 X95.033 Y211.114 E.0154
G1 X63.096 Y179.177 E1.41368
G1 X63.096 Y178.684 E.01543
G1 X95.526 Y211.114 E1.43551
G1 X96.019 Y211.114 E.01543
G1 X63.096 Y178.191 E1.45733
G1 X63.096 Y177.698 E.01543
G1 X96.512 Y211.114 E1.47915
G1 X97.005 Y211.114 E.01543
G1 X63.096 Y177.205 E1.50097
G1 X63.096 Y176.713 E.0154
G1 X97.498 Y211.114 E1.52277
G1 X97.991 Y211.114 E.01543
G1 X63.096 Y176.22 E1.5446
G1 X63.096 Y175.727 E.01543
G1 X98.484 Y211.114 E1.56642
G1 X98.977 Y211.114 E.01543
G1 X63.096 Y175.234 E1.58824
G1 X63.096 Y174.741 E.01543
G1 X99.47 Y211.114 E1.61006
G1 X99.963 Y211.114 E.01543
G1 X63.096 Y174.248 E1.63189
G1 X63.096 Y173.755 E.01543
G1 X100.455 Y211.114 E1.65369
G1 X100.948 Y211.114 E.01543
G1 X63.096 Y173.262 E1.67551
G1 X63.096 Y172.769 E.01543
G1 X101.441 Y211.114 E1.69733
G1 X101.934 Y211.114 E.01543
G1 X63.096 Y172.276 E1.71915
G1 X63.096 Y171.783 E.01543
G1 X102.427 Y211.114 E1.74098
G1 X102.92 Y211.114 E.01543
G1 X63.096 Y171.29 E1.7628
G1 X63.096 Y170.798 E.0154
G1 X103.413 Y211.114 E1.7846
G1 X103.906 Y211.114 E.01543
G1 X63.096 Y170.305 E1.80642
G1 X63.096 Y169.812 E.01543
G1 X104.399 Y211.114 E1.82824
G1 X104.892 Y211.114 E.01543
G1 X63.096 Y169.319 E1.85007
G1 X63.096 Y168.826 E.01543
G1 X105.385 Y211.114 E1.87189
G1 X105.878 Y211.114 E.01543
G1 X63.096 Y168.333 E1.89371
G1 X63.096 Y167.84 E.01543
G1 X106.37 Y211.114 E1.91551
G1 X106.863 Y211.114 E.01543
G1 X63.096 Y167.347 E1.93733
G1 X63.096 Y166.854 E.01543
G1 X107.356 Y211.114 E1.95916
G1 X107.849 Y211.114 E.01543
G1 X63.096 Y166.361 E1.98098
G1 X63.096 Y165.868 E.01543
G1 X108.342 Y211.114 E2.0028
G1 X108.835 Y211.114 E.01543
G1 X63.096 Y165.376 E2.0246
G1 X63.096 Y164.883 E.01543
G1 X109.328 Y211.114 E2.04643
G1 X109.821 Y211.114 E.01543
G1 X63.096 Y164.39 E2.06825
G1 X63.096 Y163.897 E.01543
G1 X110.314 Y211.114 E2.09007
G1 X110.807 Y211.114 E.01543
G1 X63.096 Y163.404 E2.11189
G1 X63.096 Y162.911 E.01543
G1 X111.3 Y211.114 E2.13372
G1 X111.792 Y211.114 E.0154
G1 X63.096 Y162.418 E2.15552
G1 X63.096 Y161.925 E.01543
G1 X112.285 Y211.114 E2.17734
G1 X112.778 Y211.114 E.01543
G1 X63.096 Y161.432 E2.19916
G1 X63.096 Y160.939 E.01543
G1 X113.271 Y211.114 E2.22098
G1 X113.764 Y211.114 E.01543
G1 X63.096 Y160.446 E2.24281
G1 X63.096 Y159.953 E.01543
G1 X114.257 Y211.114 E2.26463
G1 X114.75 Y211.114 E.01543
G1 X63.096 Y159.461 E2.28643
G1 X63.096 Y158.968 E.01543
G1 X115.243 Y211.114 E2.30825
G1 X115.736 Y211.114 E.01543
G1 X63.096 Y158.475 E2.33007
G1 X63.096 Y157.982 E.01543
G1 X116.229 Y211.114 E2.3519
G1 X116.722 Y211.114 E.01543
G1 X63.096 Y157.489 E2.37372
G1 X63.096 Y156.996 E.01543
G1 X117.214 Y211.114 E2.39552
G1 X117.707 Y211.114 E.01543
G1 X63.096 Y156.503 E2.41734
G1 X63.096 Y156.01 E.01543
G1 X118.2 Y211.114 E2.43916
G1 X118.693 Y211.114 E.01543
G1 X63.096 Y155.517 E2.46099
G1 X63.096 Y155.024 E.01543
G1 X119.186 Y211.114 E2.48281
G1 X119.679 Y211.114 E.01543
G1 X63.096 Y154.531 E2.50463
G1 X63.096 Y154.039 E.0154
G1 X120.172 Y211.114 E2.52643
G1 X120.665 Y211.114 E.01543
G1 X63.096 Y153.546 E2.54825
G1 X63.096 Y153.053 E.01543
G1 X121.158 Y211.114 E2.57008
G1 X121.651 Y211.114 E.01543
G1 X63.096 Y152.56 E2.5919
G1 X63.096 Y152.067 E.01543
G1 X122.144 Y211.114 E2.61372
G1 X122.637 Y211.114 E.01543
G1 X63.096 Y151.574 E2.63554
G1 X63.096 Y151.081 E.01543
G1 X123.129 Y211.114 E2.65734
G1 X123.622 Y211.114 E.01543
G1 X63.096 Y150.588 E2.67917
G1 X63.096 Y150.095 E.01543
G1 X124.115 Y211.114 E2.70099
G1 X124.608 Y211.114 E.01543
G1 X63.096 Y149.602 E2.72281
G1 X63.096 Y149.109 E.01543
G1 X125.101 Y211.114 E2.74463
G1 X125.594 Y211.114 E.01543
G1 X63.096 Y148.616 E2.76646
G1 X63.096 Y148.124 E.0154
G1 X126.087 Y211.114 E2.78826
G1 X126.58 Y211.114 E.01543
G1 X63.096 Y147.631 E2.81008
G1 X63.096 Y147.138 E.01543
G1 X127.073 Y211.114 E2.8319
G1 X127.566 Y211.114 E.01543
G1 X63.096 Y146.645 E2.85373
G1 X63.096 Y146.152 E.01543
G1 X128.059 Y211.114 E2.87555
G1 X128.551 Y211.114 E.0154
G1 X63.096 Y145.659 E2.89735
G1 X63.096 Y145.166 E.01543
G1 X129.044 Y211.114 E2.91917
G1 X129.537 Y211.114 E.01543
G1 X63.096 Y144.673 E2.94099
G1 X63.096 Y144.18 E.01543
G1 X130.03 Y211.114 E2.96282
G1 X130.523 Y211.114 E.01543
G1 X63.096 Y143.687 E2.98464
G1 X63.096 Y143.194 E.01543
G1 X131.016 Y211.114 E3.00646
G1 X131.509 Y211.114 E.01543
G1 X63.096 Y142.702 E3.02826
G1 X63.096 Y142.209 E.01543
G1 X132.002 Y211.114 E3.05008
G1 X132.495 Y211.114 E.01543
G1 X63.096 Y141.716 E3.07191
G1 X63.096 Y141.223 E.01543
G1 X132.988 Y211.114 E3.09373
G1 X133.481 Y211.114 E.01543
G1 X63.096 Y140.73 E3.11555
G1 X63.096 Y140.237 E.01543
G1 X133.974 Y211.114 E3.13737
G1 X134.466 Y211.114 E.0154
G1 X63.096 Y139.744 E3.15917
G1 X63.096 Y139.251 E.01543
G1 X134.959 Y211.114 E3.181
G1 X135.452 Y211.114 E.01543
G1 X63.096 Y138.758 E3.20282
G1 X63.096 Y138.265 E.01543
G1 X135.945 Y211.114 E3.22464
G1 X136.438 Y211.114 E.01543
G1 X63.096 Y137.772 E3.24646
G1 X63.096 Y137.279 E.01543
G1 X136.931 Y211.114 E3.26829
G1 X137.424 Y211.114 E.01543
G1 X63.096 Y136.787 E3.29009
G1 X63.096 Y136.294 E.01543
G1 X137.917 Y211.114 E3.31191
G1 X138.41 Y211.114 E.01543
G1 X63.096 Y135.801 E3.33373
G1 X63.096 Y135.308 E.01543
G1 X138.903 Y211.114 E3.35555
G1 X139.396 Y211.114 E.01543
G1 X63.096 Y134.815 E3.37738
G1 X63.096 Y134.322 E.01543
G1 X139.888 Y211.114 E3.39918
G1 X140.381 Y211.114 E.01543
G1 X63.096 Y133.829 E3.421
G1 X63.096 Y133.336 E.01543
G1 X140.874 Y211.114 E3.44282
G1 X141.367 Y211.114 E.01543
G1 X63.096 Y132.843 E3.46465
G1 X63.096 Y132.35 E.01543
G1 X141.86 Y211.114 E3.48647
G1 X142.353 Y211.114 E.01543
G1 X63.096 Y131.857 E3.50829
G1 X63.096 Y131.365 E.0154
G1 X142.846 Y211.114 E3.53009
G1 X143.339 Y211.114 E.01543
G1 X63.096 Y130.872 E3.55191
G1 X63.096 Y130.379 E.01543
G1 X143.832 Y211.114 E3.57374
G1 X144.325 Y211.114 E.01543
G1 X63.096 Y129.886 E3.59556
G1 X63.096 Y129.393 E.01543
G1 X144.818 Y211.114 E3.61738
G1 X145.311 Y211.114 E.01543
G1 X63.096 Y128.9 E3.6392
G1 X63.096 Y128.407 E.01543
G1 X145.803 Y211.114 E3.661
G1 X146.296 Y211.114 E.01543
G1 X63.096 Y127.914 E3.68283
G1 X63.096 Y127.421 E.01543
G1 X146.789 Y211.114 E3.70465
G1 X147.282 Y211.114 E.01543
G1 X63.096 Y126.928 E3.72647
G1 X63.096 Y126.435 E.01543
G1 X147.775 Y211.114 E3.74829
G1 X148.268 Y211.114 E.01543
G1 X63.096 Y125.942 E3.77012
G1 X63.096 Y125.45 E.0154
G1 X148.761 Y211.114 E3.79192
G1 X149.254 Y211.114 E.01543
G1 X63.096 Y124.957 E3.81374
G1 X63.096 Y124.464 E.01543
G1 X149.747 Y211.114 E3.83556
G1 X150.24 Y211.114 E.01543
G1 X63.096 Y123.971 E3.85738
G1 X63.096 Y123.478 E.01543
G1 X150.733 Y211.114 E3.87921
G1 X151.225 Y211.114 E.0154
G1 X63.096 Y122.985 E3.90101
G1 X63.096 Y122.492 E.01543
G1 X151.718 Y211.114 E3.92283
G1 X152.211 Y211.114 E.01543
G1 X63.096 Y121.999 E3.94465
G1 X63.096 Y121.506 E.01543
G1 X152.704 Y211.114 E3.96647
G1 X153.197 Y211.114 E.01543
G1 X63.096 Y121.013 E3.9883
G1 X63.096 Y120.52 E.01543
G1 X153.69 Y211.114 E4.01012
G1 X154.183 Y211.114 E.01543
G1 X63.096 Y120.028 E4.03192
G1 X63.096 Y119.535 E.01543
G1 X154.676 Y211.114 E4.05374
G1 X155.169 Y211.114 E.01543
G1 X63.096 Y119.042 E4.07556
G1 X63.096 Y118.549 E.01543
G1 X155.662 Y211.114 E4.09739
G1 X156.155 Y211.114 E.01543
G1 X63.096 Y118.056 E4.11921
G1 X63.096 Y117.563 E.01543
G1 X156.648 Y211.114 E4.14103
G1 X157.14 Y211.114 E.0154
G1 X63.096 Y117.07 E4.16283
G1 X63.096 Y116.577 E.01543
G1 X157.633 Y211.114 E4.18466
G1 X158.126 Y211.114 E.01543
G1 X63.096 Y116.084 E4.20648
G1 X63.096 Y115.591 E.01543
