; generated by PrusaSlicer 2.6.0-alpha6+win64 on 2023-07-28 at 09:31:27 UTC

; 

; external perimeters extrusion width = 0.40mm
; perimeters extrusion width = 0.40mm
; infill extrusion width = 0.40mm
; solid infill extrusion width = 0.40mm
; top infill extrusion width = 0.40mm
; support material extrusion width = 0.40mm
; first layer extrusion width = 0.40mm

M190 S55 ; set bed temperature and wait for it to be reached
M104 S210 ; set temperature
;TYPE:Custom
print_start EXTRUDER=210 BED=55
M109 S210 ; set temperature and wait for it to be reached
G21 ; set units to millimeters
G90 ; use absolute coordinates
M83 ; use relative distances for extrusion
;Filament gcode
M107
;LAYER_CHANGE
;Z:0.24
;HEIGHT:0.24
G1 Z.24 F6000
G1 E-.75 F3000
G1 X116.276 Y115.011 F6000
G1 E.75 F1800
M204 S7800
;TYPE:Skirt/Brim
;WIDTH:0.4
G1 F4200
G1 X117.855 Y113.974 E.05912
G1 X119.614 Y113.288 E.05909
G1 X121.477 Y112.982 E.05909
G1 X178.523 Y112.982 E1.7853
G1 X179.364 Y113.07 E.02646
G1 X181.191 Y113.549 E.05911
G1 X182.145 Y113.974 E.03268
G1 X183.724 Y115.011 E.05912
G1 X184.352 Y115.577 E.02646
G1 X185.052 Y116.354 E.03273
G1 X186.071 Y117.944 E.0591
G1 X186.738 Y119.71 E.05908
G1 X187.023 Y121.577 E.05911
G1 X187.045 Y178 E1.7658
G1 X186.914 Y179.463 E.04597
G1 X186.415 Y181.284 E.05909
G1 X185.549 Y182.962 E.0591
G1 X185.052 Y183.646 E.02646
G1 X183.723 Y184.989 E.05913
G1 X182.146 Y186.026 E.05907
G1 X180.386 Y186.712 E.05912
G1 X178.523 Y187.018 E.05909
G1 X121.477 Y187.018 E1.7853
G1 X119.614 Y186.712 E.05909
G1 X118.809 Y186.451 E.02648
G1 X117.122 Y185.603 E.05909
G1 X116.276 Y184.989 E.03271
G1 X114.949 Y183.646 E.05909
G1 X113.929 Y182.057 E.05909
G1 X113.262 Y180.29 E.05911
G1 X113.086 Y179.462 E.02649
G1 X112.955 Y178 E.04594
G1 X112.955 Y122 E1.75256
G1 X113.086 Y120.538 E.04594
G1 X113.585 Y118.716 E.05912
G1 X113.929 Y117.944 E.02645
G1 X114.949 Y116.354 E.05912
G1 X116.234 Y115.054 E.05721
G1 X116.479 Y115.295 F6000
G1 F4200
G1 X117.996 Y114.293 E.0569
G1 X119.686 Y113.629 E.05683
G1 X121.477 Y113.33 E.05683
G1 X178.523 Y113.33 E1.7853
G1 X179.291 Y113.411 E.02417
G1 X181.049 Y113.867 E.05684
G1 X182.004 Y114.293 E.03273
G1 X183.519 Y115.293 E.05681
G1 X184.093 Y115.811 E.0242
G1 X184.793 Y116.587 E.03271
G1 X185.769 Y118.118 E.05682
G1 X186.407 Y119.818 E.05683
G1 X186.677 Y121.613 E.05681
G1 X186.697 Y178 E1.76467
G1 X186.567 Y179.426 E.04481
G1 X186.084 Y181.176 E.05682
G1 X185.247 Y182.787 E.05682
G1 X184.793 Y183.413 E.0242
G1 X183.519 Y184.707 E.05683
G1 X182.004 Y185.707 E.05681
G1 X180.314 Y186.372 E.05684
G1 X178.523 Y186.67 E.05682
G1 X121.477 Y186.67 E1.7853
G1 X119.686 Y186.372 E.05682
G1 X118.951 Y186.133 E.02419
G1 X117.327 Y185.321 E.05682
G1 X116.481 Y184.707 E.03271
G1 X115.208 Y183.413 E.05681
G1 X114.231 Y181.882 E.05684
G1 X113.593 Y180.182 E.05683
G1 X113.433 Y179.426 E.02418
G1 X113.303 Y178 E.04481
G1 X113.303 Y122 E1.75256
G1 X113.433 Y120.574 E.04481
G1 X113.916 Y118.824 E.05682
G1 X114.231 Y118.118 E.02419
G1 X115.208 Y116.587 E.05684
G1 X116.437 Y115.338 E.05484
G1 X116.683 Y115.579 F6000
G1 F4200
G1 X118.138 Y114.611 E.05469
G1 X119.759 Y113.969 E.05456
G1 X121.477 Y113.679 E.05453
G1 X178.523 Y113.679 E1.7853
G1 X179.219 Y113.752 E.0219
G1 X180.907 Y114.186 E.05455
G1 X181.862 Y114.611 E.03271
G1 X183.314 Y115.575 E.05454
G1 X183.834 Y116.044 E.02192
G1 X184.534 Y116.821 E.03273
G1 X185.468 Y118.292 E.05453
G1 X186.075 Y119.926 E.05455
G1 X186.33 Y121.65 E.05454
G1 X186.348 Y178 E1.76351
G1 X186.221 Y179.39 E.04368
G1 X185.752 Y181.068 E.05453
G1 X184.945 Y182.613 E.05455
G1 X184.534 Y183.179 E.02189
G1 X183.314 Y184.425 E.05457
G1 X181.862 Y185.389 E.05454
G1 X180.241 Y186.031 E.05456
G1 X178.523 Y186.321 E.05453
G1 X121.477 Y186.321 E1.7853
G1 X119.759 Y186.031 E.05453
G1 X119.093 Y185.814 E.02192
G1 X117.532 Y185.039 E.05454
G1 X116.686 Y184.425 E.03271
G1 X115.467 Y183.179 E.05455
G1 X114.532 Y181.708 E.05455
G1 X113.925 Y180.074 E.05455
G1 X113.779 Y179.39 E.02189
G1 X113.652 Y178 E.04368
G1 X113.652 Y122 E1.75256
G1 X113.779 Y120.61 E.04368
G1 X114.248 Y118.932 E.05453
G1 X114.532 Y118.292 E.02191
G1 X115.467 Y116.821 E.05455
G1 X116.641 Y115.622 E.05252
; printing object square_tower.stl id:0 copy 0
G1 E-.75 F3000
G1 X179.345 Y174.261 F6000
G1 E.75 F1800
;TYPE:Perimeter
;WIDTH:0.399999
G1 F4200
G1 X179.47 Y174.357 E.00493
G1 X179.974 Y174.582 E.01727
G1 X180.641 Y175.067 E.02581
G1 X181.193 Y175.68 E.02582
G1 X181.606 Y176.395 E.02584
G1 X181.861 Y177.179 E.0258
G1 X181.947 Y178 E.02583
G1 X181.861 Y178.821 E.02583
G1 X181.606 Y179.606 E.02583
G1 X181.193 Y180.32 E.02581
G1 X180.641 Y180.933 E.02582
G1 X179.974 Y181.418 E.02581
G1 X179.22 Y181.754 E.02583
G1 X178.413 Y181.926 E.02582
G1 X177.587 Y181.926 E.02585
G1 X176.78 Y181.754 E.02582
G1 X176.026 Y181.418 E.02583
G1 X175.359 Y180.933 E.02581
G1 X174.807 Y180.32 E.02582
G1 X174.511 Y179.809 E.01848
G1 X174.266 Y179.33 E.01684
G1 X174.092 Y179.143 E.00799
G1 X173.845 Y179.005 E.00885
G1 X173.549 Y178.953 E.00941
G1 X126.451 Y178.953 E1.47396
G1 X126.3 Y178.966 E.00474
G1 X125.908 Y179.143 E.01346
G1 X125.733 Y179.33 E.00802
G1 X125.606 Y179.606 E.00951
G1 X125.193 Y180.32 E.02581
G1 X124.641 Y180.933 E.02582
G1 X123.974 Y181.418 E.02581
G1 X123.22 Y181.754 E.02583
G1 X122.413 Y181.926 E.02582
G1 X121.587 Y181.926 E.02585
G1 X120.78 Y181.754 E.02582
G1 X120.026 Y181.418 E.02583
G1 X119.359 Y180.933 E.02581
G1 X118.807 Y180.32 E.02582
G1 X118.394 Y179.605 E.02584
G1 X118.139 Y178.821 E.0258
G1 X118.053 Y178 E.02583
G1 X118.139 Y177.179 E.02583
G1 X118.394 Y176.395 E.0258
G1 X118.807 Y175.68 E.02584
G1 X119.359 Y175.067 E.02582
G1 X120.026 Y174.582 E.02581
G1 X120.53 Y174.357 E.01727
G1 X120.859 Y174.101 E.01305
G1 X120.996 Y173.855 E.00881
G1 X121.047 Y173.561 E.00934
G1 X121.047 Y126.439 E1.47471
G1 X120.996 Y126.145 E.00934
G1 X120.859 Y125.899 E.00881
G1 X120.53 Y125.643 E.01305
G1 X120.026 Y125.418 E.01727
G1 X119.359 Y124.933 E.02581
G1 X118.807 Y124.32 E.02582
G1 X118.394 Y123.605 E.02584
G1 X118.139 Y122.821 E.0258
G1 X118.053 Y122 E.02583
G1 X118.139 Y121.179 E.02583
G1 X118.394 Y120.395 E.0258
G1 X118.807 Y119.68 E.02584
G1 X119.359 Y119.067 E.02582
G1 X120.026 Y118.582 E.02581
G1 X120.78 Y118.246 E.02583
G1 X121.587 Y118.074 E.02582
G1 X122.413 Y118.074 E.02585
G1 X123.22 Y118.246 E.02582
G1 X123.974 Y118.582 E.02583
G1 X124.641 Y119.067 E.02581
G1 X125.193 Y119.68 E.02582
G1 X125.488 Y120.19 E.01844
G1 X125.733 Y120.67 E.01687
G1 X125.908 Y120.857 E.00802
G1 X126.155 Y120.995 E.00885
G1 X126.451 Y121.047 E.00941
G1 X173.549 Y121.047 E1.47396
G1 X173.699 Y121.034 E.00471
G1 X174.092 Y120.857 E.01349
G1 X174.266 Y120.67 E.00799
G1 X174.394 Y120.395 E.00949
G1 X174.807 Y119.68 E.02584
G1 X175.359 Y119.067 E.02582
G1 X176.026 Y118.582 E.02581
G1 X176.78 Y118.246 E.02583
G1 X177.587 Y118.074 E.02582
G1 X178.413 Y118.074 E.02585
G1 X179.22 Y118.246 E.02582
G1 X179.974 Y118.582 E.02583
G1 X180.641 Y119.067 E.02581
G1 X181.193 Y119.68 E.02582
G1 X181.606 Y120.394 E.02581
G1 X181.861 Y121.179 E.02583
G1 X181.947 Y122 E.02583
G1 X181.861 Y122.821 E.02583
G1 X181.606 Y123.606 E.02583
G1 X181.193 Y124.32 E.02581
G1 X180.641 Y124.933 E.02582
G1 X179.974 Y125.418 E.02581
G1 X179.47 Y125.643 E.01727
G1 X179.141 Y125.899 E.01305
G1 X179.004 Y126.145 E.00881
G1 X178.953 Y126.439 E.00934
G1 X178.953 Y173.561 E1.47471
G1 X178.966 Y173.712 E.00474
G1 X179.141 Y174.101 E.01335
G1 X179.298 Y174.224 E.00624
G1 X179.549 Y173.991 F6000
G1 F4200
G1 X179.612 Y174.039 E.00248
G1 X180.149 Y174.278 E.0184
G1 X180.876 Y174.806 E.02812
G1 X181.477 Y175.474 E.02812
G1 X181.926 Y176.252 E.02811
G1 X182.204 Y177.106 E.02811
G1 X182.298 Y178 E.02813
G1 X182.204 Y178.894 E.02813
G1 X181.926 Y179.748 E.02811
G1 X181.477 Y180.526 E.02811
G1 X180.876 Y181.194 E.02812
G1 X180.149 Y181.722 E.02812
G1 X179.328 Y182.087 E.02812
G1 X178.449 Y182.274 E.02812
G1 X177.551 Y182.274 E.0281
G1 X176.672 Y182.087 E.02812
G1 X175.851 Y181.722 E.02812
G1 X175.124 Y181.194 E.02812
G1 X174.523 Y180.526 E.02812
G1 X174.21 Y179.983 E.01961
G1 X173.979 Y179.528 E.01597
G1 X173.726 Y179.333 E.01
G1 X173.549 Y179.302 E.00562
G1 X126.451 Y179.302 E1.47396
G1 X126.273 Y179.333 E.00565
G1 X126.02 Y179.528 E.01
G1 X125.926 Y179.748 E.00749
G1 X125.477 Y180.526 E.02811
G1 X124.876 Y181.194 E.02812
G1 X124.149 Y181.722 E.02812
G1 X123.328 Y182.087 E.02812
G1 X122.449 Y182.274 E.02812
G1 X121.551 Y182.274 E.0281
G1 X120.672 Y182.087 E.02812
G1 X119.851 Y181.722 E.02812
G1 X119.124 Y181.194 E.02812
G1 X118.523 Y180.526 E.02812
G1 X118.074 Y179.748 E.02811
G1 X117.796 Y178.894 E.02811
G1 X117.702 Y178 E.02813
G1 X117.796 Y177.106 E.02813
G1 X118.074 Y176.252 E.02811
G1 X118.523 Y175.474 E.02811
G1 X119.124 Y174.806 E.02812
G1 X119.851 Y174.278 E.02812
G1 X120.48 Y173.987 E.02169
G1 X120.668 Y173.738 E.00976
G1 X120.698 Y173.561 E.00562
G1 X120.698 Y126.439 E1.47471
G1 X120.668 Y126.262 E.00562
G1 X120.586 Y126.115 E.00527
G1 X120.388 Y125.961 E.00785
G1 X119.851 Y125.722 E.0184
G1 X119.124 Y125.194 E.02812
G1 X118.523 Y124.526 E.02812
G1 X118.074 Y123.748 E.02811
G1 X117.796 Y122.894 E.02811
G1 X117.702 Y122 E.02813
G1 X117.796 Y121.106 E.02813
G1 X118.074 Y120.252 E.02811
G1 X118.523 Y119.474 E.02811
G1 X119.124 Y118.806 E.02812
G1 X119.851 Y118.278 E.02812
G1 X120.672 Y117.913 E.02812
G1 X121.551 Y117.726 E.02812
G1 X122.449 Y117.726 E.0281
G1 X123.328 Y117.913 E.02812
G1 X124.149 Y118.278 E.02812
G1 X124.876 Y118.806 E.02812
G1 X125.477 Y119.474 E.02812
G1 X125.789 Y120.015 E.01954
G1 X126.02 Y120.472 E.01603
G1 X126.273 Y120.667 E.01
G1 X126.451 Y120.699 E.00566
G1 X173.549 Y120.699 E1.47396
G1 X173.726 Y120.667 E.00563
G1 X173.979 Y120.472 E.01
G1 X174.074 Y120.252 E.0075
G1 X174.523 Y119.474 E.02811
G1 X175.124 Y118.806 E.02812
G1 X175.851 Y118.278 E.02812
G1 X176.672 Y117.913 E.02812
G1 X177.551 Y117.726 E.02812
G1 X178.449 Y117.726 E.0281
G1 X179.328 Y117.913 E.02812
G1 X180.149 Y118.278 E.02812
G1 X180.876 Y118.806 E.02812
G1 X181.477 Y119.474 E.02812
G1 X181.926 Y120.252 E.02811
G1 X182.204 Y121.106 E.02811
G1 X182.298 Y122 E.02813
G1 X182.204 Y122.894 E.02813
G1 X181.926 Y123.748 E.02811
G1 X181.477 Y124.526 E.02811
G1 X180.876 Y125.194 E.02812
G1 X180.149 Y125.722 E.02812
G1 X179.52 Y126.014 E.0217
G1 X179.332 Y126.262 E.00974
G1 X179.302 Y126.439 E.00562
G1 X179.302 Y173.561 E1.47471
G1 X179.309 Y173.652 E.00286
G1 X179.414 Y173.885 E.008
G1 X179.502 Y173.954 E.0035
G1 X179.753 Y173.721 F6000
;TYPE:External perimeter
G1 F4200
G1 X180.324 Y173.975 E.01956
G1 X181.11 Y174.546 E.0304
G1 X181.76 Y175.268 E.0304
G1 X182.246 Y176.109 E.0304
G1 X182.546 Y177.034 E.03043
G1 X182.648 Y178 E.0304
G1 X182.546 Y178.966 E.0304
G1 X182.246 Y179.891 E.03043
G1 X181.76 Y180.732 E.0304
G1 X181.11 Y181.454 E.0304
G1 X180.324 Y182.025 E.0304
G1 X179.436 Y182.421 E.03043
G1 X178.486 Y182.623 E.0304
G1 X177.514 Y182.623 E.03042
G1 X176.564 Y182.421 E.0304
G1 X175.676 Y182.025 E.03043
G1 X174.89 Y181.454 E.0304
G1 X174.24 Y180.732 E.0304
G1 X173.692 Y179.725 E.03588
G1 X173.549 Y179.65 E.00505
G1 X126.451 Y179.65 E1.47396
G1 X126.342 Y179.688 E.00361
G1 X126.246 Y179.891 E.00703
G1 X125.76 Y180.732 E.0304
G1 X125.11 Y181.454 E.0304
G1 X124.324 Y182.025 E.0304
G1 X123.436 Y182.421 E.03043
G1 X122.486 Y182.623 E.0304
G1 X121.514 Y182.623 E.03042
G1 X120.564 Y182.421 E.0304
G1 X119.676 Y182.025 E.03043
G1 X118.89 Y181.454 E.0304
G1 X118.24 Y180.732 E.0304
G1 X117.754 Y179.891 E.0304
G1 X117.454 Y178.966 E.03043
G1 X117.352 Y178 E.0304
G1 X117.454 Y177.034 E.0304
G1 X117.754 Y176.109 E.03043
G1 X118.24 Y175.268 E.0304
G1 X118.89 Y174.546 E.0304
G1 X119.676 Y173.975 E.0304
G1 X120.277 Y173.703 E.02065
G1 X120.35 Y173.561 E.005
G1 X120.35 Y126.439 E1.47471
G1 X120.34 Y126.38 E.00187
G1 X120.247 Y126.279 E.0043
G1 X119.676 Y126.025 E.01956
G1 X118.89 Y125.454 E.0304
G1 X118.24 Y124.732 E.0304
G1 X117.754 Y123.891 E.0304
G1 X117.454 Y122.966 E.03043
G1 X117.352 Y122 E.0304
G1 X117.454 Y121.034 E.0304
G1 X117.754 Y120.109 E.03043
G1 X118.24 Y119.268 E.0304
G1 X118.89 Y118.546 E.0304
G1 X119.676 Y117.975 E.0304
G1 X120.564 Y117.579 E.03043
G1 X121.514 Y117.377 E.0304
G1 X122.486 Y117.377 E.03042
G1 X123.436 Y117.579 E.0304
G1 X124.324 Y117.975 E.03043
G1 X125.11 Y118.546 E.0304
G1 X125.76 Y119.268 E.0304
G1 X126.307 Y120.275 E.03586
G1 X126.451 Y120.35 E.00508
G1 X173.549 Y120.35 E1.47396
G1 X173.657 Y120.312 E.00358
G1 X173.754 Y120.11 E.00701
G1 X174.24 Y119.268 E.03043
G1 X174.89 Y118.546 E.0304
G1 X175.676 Y117.975 E.0304
G1 X176.564 Y117.579 E.03043
G1 X177.514 Y117.377 E.0304
G1 X178.486 Y117.377 E.03042
G1 X179.436 Y117.579 E.0304
G1 X180.324 Y117.975 E.03043
G1 X181.11 Y118.546 E.0304
G1 X181.76 Y119.268 E.0304
G1 X182.246 Y120.109 E.0304
G1 X182.546 Y121.034 E.03043
G1 X182.648 Y122 E.0304
G1 X182.546 Y122.966 E.0304
G1 X182.246 Y123.891 E.03043
G1 X181.76 Y124.732 E.0304
G1 X181.11 Y125.454 E.0304
G1 X180.324 Y126.025 E.0304
G1 X179.723 Y126.297 E.02065
G1 X179.65 Y126.439 E.005
G1 X179.65 Y173.561 E1.47471
G1 X179.66 Y173.62 E.00187
G1 X179.713 Y173.677 E.00244
G1 X179.719 Y174.119 F6000
G1 E-.75 F3000
G1 X124.526 Y124.011 F6000
G1 E.75 F1800
;TYPE:Perimeter
G1 F4200
G1 X124.824 Y123.953 E.0095
G1 X148.133 Y123.953 E.72947
G1 X148.284 Y123.64 E.01088
G1 X148.674 Y123.466 E.01336
G1 X151.176 Y123.453 E.0783
G1 X151.469 Y123.504 E.00931
G1 X151.716 Y123.64 E.00882
G1 X151.867 Y123.953 E.01088
G1 X175.176 Y123.953 E.72947
G1 X175.428 Y123.99 E.00797
G1 X175.751 Y124.17 E.01157
G1 X175.947 Y124.419 E.00992
G1 X176.047 Y124.824 E.01306
G1 X176.047 Y148.133 E.72947
G1 X176.36 Y148.284 E.01088
G1 X176.496 Y148.531 E.00882
G1 X176.547 Y148.824 E.00931
G1 X176.547 Y151.176 E.07361
G1 X176.496 Y151.469 E.00931
G1 X176.36 Y151.716 E.00882
G1 X176.047 Y151.867 E.01088
G1 X176.047 Y175.176 E.72947
G1 X175.947 Y175.581 E.01306
G1 X175.719 Y175.857 E.0112
G1 X175.428 Y176.01 E.01029
G1 X175.176 Y176.047 E.00797
G1 X151.867 Y176.047 E.72947
G1 X151.716 Y176.36 E.01088
G1 X151.326 Y176.534 E.01336
G1 X148.824 Y176.547 E.0783
G1 X148.531 Y176.496 E.00931
G1 X148.284 Y176.36 E.00882
G1 X148.133 Y176.047 E.01088
G1 X124.824 Y176.047 E.72947
G1 X124.571 Y176.009 E.00801
G1 X124.249 Y175.83 E.01153
G1 X124.053 Y175.581 E.00992
G1 X123.953 Y175.176 E.01306
G1 X123.953 Y147.867 E.85465
G1 X123.64 Y147.716 E.01088
G1 X123.466 Y147.326 E.01336
G1 X123.453 Y144.824 E.0783
G1 X123.504 Y144.531 E.00931
G1 X123.64 Y144.284 E.00882
G1 X123.953 Y144.133 E.01088
G1 X123.953 Y124.824 E.60429
G1 X124.053 Y124.419 E.01306
G1 X124.102 Y124.338 E.00296
G1 X124.353 Y124.091 E.01102
G1 X124.472 Y124.037 E.00409
G1 X124.677 Y124.339 F6000
G1 F4200
G1 X124.824 Y124.302 E.00474
G1 X148.313 Y124.302 E.7351
G1 X148.5 Y123.914 E.01348
G1 X148.734 Y123.809 E.00803
G1 X151.176 Y123.802 E.07642
G1 X151.352 Y123.832 E.00559
G1 X151.5 Y123.914 E.0053
G1 X151.687 Y124.302 E.01348
G1 X175.176 Y124.302 E.7351
G1 X175.458 Y124.385 E.0092
G1 X175.639 Y124.581 E.00835
G1 X175.698 Y124.824 E.00783
G1 X175.698 Y148.313 E.7351
G1 X176.086 Y148.5 E.01348
G1 X176.168 Y148.648 E.0053
G1 X176.198 Y148.824 E.00559
G1 X176.198 Y151.176 E.07361
G1 X176.168 Y151.352 E.00559
G1 X176.086 Y151.5 E.0053
G1 X175.698 Y151.687 E.01348
G1 X175.698 Y175.176 E.7351
G1 X175.622 Y175.448 E.00884
G1 X175.427 Y175.634 E.00843
G1 X175.176 Y175.699 E.00811
G1 X151.687 Y175.699 E.7351
G1 X151.5 Y176.086 E.01345
G1 X151.266 Y176.191 E.00803
G1 X151.176 Y176.199 E.00283
G1 X148.824 Y176.199 E.07361
G1 X148.648 Y176.168 E.00559
G1 X148.5 Y176.086 E.0053
G1 X148.313 Y175.699 E.01345
G1 X124.824 Y175.699 E.7351
G1 X124.542 Y175.616 E.0092
G1 X124.361 Y175.419 E.00837
G1 X124.302 Y175.176 E.00783
G1 X124.302 Y147.687 E.86029
G1 X123.914 Y147.5 E.01348
G1 X123.809 Y147.266 E.00803
G1 X123.802 Y144.824 E.07642
G1 X123.832 Y144.648 E.00559
G1 X123.914 Y144.5 E.0053
G1 X124.302 Y144.313 E.01348
G1 X124.302 Y124.824 E.60992
G1 X124.391 Y124.532 E.00955
G1 X124.573 Y124.366 E.00771
G1 X124.619 Y124.354 E.00149
G1 X124.774 Y124.658 F6000
;TYPE:External perimeter
G1 F4200
