; generated by PrusaSlicer 2.6.0-alpha6+win64 on 2023-07-28 at 10:34:47 UTC

; 

; external perimeters extrusion width = 0.40mm
; perimeters extrusion width = 0.40mm
; infill extrusion width = 0.40mm
; solid infill extrusion width = 0.40mm
; top infill extrusion width = 0.40mm
; support material extrusion width = 0.40mm
; first layer extrusion width = 0.40mm

M190 S55 ; set bed temperature and wait for it to be reached
M104 S210 ; set temperature
;TYPE:Custom
print_start EXTRUDER=210 BED=55
M109 S210 ; set temperature and wait for it to be reached
G21 ; set units to millimeters
G90 ; use absolute coordinates
M83 ; use relative distances for extrusion
;Filament gcode
M107
;LAYER_CHANGE
;Z:0.24
;HEIGHT:0.24
G1 Z.24 F6000
G1 E-.75 F3000
G1 X36.224 Y25.651 F6000
G1 E.75 F1800
M204 S7800
;TYPE:Skirt/Brim
;WIDTH:0.4
G1 F3000
G1 X37.109 Y24.798 E.03847
G1 X38.185 Y24.203 E.03848
G1 X39.206 Y23.93 E.03308
G1 X39.907 Y23.872 E.02201
G1 X215.624 Y23.907 E5.49919
G1 X216.979 Y24.27 E.0439
G1 X218.033 Y24.904 E.03849
G1 X218.779 Y25.651 E.03304
G1 X219.481 Y26.866 E.04391
G1 X219.754 Y27.886 E.03305
G1 X219.812 Y28.588 E.02204
G1 X219.812 Y152.198 E3.86846
G1 X219.754 Y152.899 E.02201
G1 X219.414 Y154.081 E.03849
G1 X218.779 Y155.134 E.03848
G1 X217.894 Y155.987 E.03847
G1 X216.818 Y156.582 E.03848
G1 X215.798 Y156.856 E.03305
G1 X215.096 Y156.913 E.02204
G1 X39.907 Y156.913 E5.48267
G1 X39.206 Y156.856 E.02201
G1 X38.024 Y156.515 E.0385
G1 X36.971 Y155.881 E.03847
G1 X36.117 Y154.995 E.03851
G1 X35.522 Y153.919 E.03848
G1 X35.249 Y152.899 E.03305
G1 X35.192 Y152.198 E.02201
G1 X35.192 Y28.588 E3.86846
G1 X35.249 Y27.886 E.02204
G1 X35.589 Y26.705 E.03846
G1 X36.193 Y25.703 E.03661
G1 X36.489 Y25.882 F6000
G1 F3000
G1 X37.322 Y25.074 E.03632
G1 X38.319 Y24.525 E.03562
G1 X39.251 Y24.275 E.0302
G1 X39.907 Y24.221 E.0206
G1 X215.579 Y24.252 E5.49778
G1 X216.846 Y24.592 E.04105
G1 X217.82 Y25.181 E.03562
G1 X218.503 Y25.863 E.03021
G1 X219.159 Y27 E.04108
G1 X219.409 Y27.932 E.0302
G1 X219.463 Y28.588 E.0206
G1 X219.463 Y152.198 E3.86846
G1 X219.409 Y152.854 E.0206
G1 X219.092 Y153.947 E.03562
G1 X218.503 Y154.922 E.03565
G1 X217.682 Y155.711 E.03564
G1 X216.684 Y156.26 E.03565
G1 X215.752 Y156.51 E.0302
G1 X215.096 Y156.565 E.0206
G1 X39.907 Y156.565 E5.48267
G1 X39.251 Y156.51 E.0206
G1 X38.157 Y156.193 E.03565
G1 X37.183 Y155.604 E.03562
G1 X36.394 Y154.783 E.03564
G1 X35.844 Y153.786 E.03563
G1 X35.595 Y152.854 E.03019
G1 X35.54 Y152.198 E.0206
G1 X35.54 Y28.588 E3.86846
G1 X35.595 Y27.932 E.0206
G1 X35.911 Y26.838 E.03564
G1 X36.458 Y25.933 E.03309
G1 X36.754 Y26.113 F6000
G1 F3000
G1 X37.534 Y25.351 E.03413
G1 X38.452 Y24.847 E.03277
G1 X39.297 Y24.621 E.02737
G1 X39.907 Y24.569 E.01916
G1 X215.533 Y24.598 E5.49634
G1 X216.712 Y24.914 E.0382
G1 X217.608 Y25.457 E.03279
G1 X218.226 Y26.075 E.02735
G1 X218.837 Y27.133 E.03824
G1 X219.063 Y27.977 E.02734
G1 X219.115 Y28.588 E.01919
G1 X219.115 Y152.198 E3.86846
G1 X219.063 Y152.808 E.01916
G1 X218.77 Y153.814 E.03279
G1 X218.226 Y154.71 E.0328
G1 X217.47 Y155.434 E.03276
G1 X216.551 Y155.938 E.0328
G1 X215.707 Y156.165 E.02735
G1 X215.096 Y156.216 E.01919
G1 X39.907 Y156.216 E5.48267
G1 X39.297 Y156.165 E.01916
G1 X38.291 Y155.871 E.0328
G1 X37.395 Y155.328 E.03279
G1 X36.67 Y154.571 E.0328
G1 X36.166 Y153.653 E.03277
G1 X35.94 Y152.808 E.02737
G1 X35.889 Y152.198 E.01916
G1 X35.889 Y28.588 E3.86846
G1 X35.94 Y27.977 E.01919
G1 X36.233 Y26.971 E.03279
G1 X36.723 Y26.164 E.02955
; printing object top window.stl id:0 copy 0
G1 E-.75
G1 X212.016 Y29.01 F6000
G1 E.75 F1800
;TYPE:Perimeter
;WIDTH:0.480392
G1 F3000
G1 X211.832 Y29.084 E.00764
;WIDTH:0.439294
G1 X211.238 Y29.384 E.02317
;WIDTH:0.399999
G1 X210.73 Y29.811 E.02077
G1 X210.35 Y30.356 E.02079
G1 X210.123 Y30.98 E.02078
G1 X210.066 Y31.641 E.02076
G1 X210.182 Y32.295 E.02079
G1 X210.463 Y32.897 E.02079
G1 X210.891 Y33.405 E.02079
G1 X211.435 Y33.785 E.02077
G1 X211.938 Y33.987 E.01696
G1 X212.493 Y34.069 E.01756
G1 X213.155 Y34.012 E.02079
G1 X213.779 Y33.785 E.02078
G1 X214.323 Y33.405 E.02077
G1 X214.719 Y32.938 E.01916
G1 X214.719 Y96.491 E1.98893
G1 X214.57 Y96.209 E.00998
G1 X214.142 Y95.7 E.02081
G1 X213.598 Y95.32 E.02077
G1 X212.954 Y95.091 E.02139
G1 X212.271 Y95.042 E.02143
G1 X211.659 Y95.153 E.01947
G1 X211.136 Y95.38 E.01784
G1 X210.709 Y95.701 E.01672
G1 X210.537 Y95.877 E.0077
G1 X210.153 Y96.444 E.02143
G1 X209.942 Y97.03 E.01949
G1 X209.885 Y97.691 E.02076
G1 X210.001 Y98.345 E.02079
G1 X210.282 Y98.947 E.02079
G1 X210.71 Y99.455 E.02079
G1 X211.254 Y99.835 E.02077
G1 X211.757 Y100.037 E.01696
G1 X212.312 Y100.119 E.01756
G1 X212.974 Y100.062 E.02079
G1 X213.598 Y99.835 E.02078
G1 X214.142 Y99.455 E.02077
G1 X214.57 Y98.947 E.02079
G1 X214.719 Y98.664 E.01001
G1 X214.719 Y147.852 E1.53937
G1 X214.312 Y147.37 E.01974
G1 X213.768 Y146.99 E.02077
G1 X213.124 Y146.761 E.02139
G1 X212.441 Y146.712 E.02143
G1 X211.829 Y146.823 E.01947
G1 X211.227 Y147.104 E.02079
G1 X210.719 Y147.531 E.02077
G1 X210.339 Y148.076 E.02079
G1 X210.112 Y148.7 E.02078
G1 X210.055 Y149.361 E.02076
G1 X210.171 Y150.015 E.02079
G1 X210.452 Y150.617 E.02079
G1 X210.88 Y151.125 E.02079
G1 X211.424 Y151.505 E.02077
;WIDTH:0.444745
G1 X211.733 Y151.641 E.01192
;WIDTH:0.48949
G1 X212.042 Y151.776 E.01326
G1 X211.702 Y151.798 E.0134
;WIDTH:0.444745
G1 X211.361 Y151.821 E.01207
;WIDTH:0.399999
G1 X182.115 Y151.821 E.91527
;WIDTH:0.437137
G1 X181.86 Y151.802 E.00886
;WIDTH:0.474274
G1 X181.606 Y151.784 E.00967
G1 X181.789 Y151.711 E.00748
;WIDTH:0.43644
G1 X182.263 Y151.462 E.01851
;WIDTH:0.399999
G1 X182.668 Y151.115 E.01669
G1 X182.911 Y150.785 E.01283
G1 X188.823 Y140.546 E.37002
G1 X189.013 Y140.096 E.01529
G1 X189.092 Y139.559 E.01699
G1 X189.027 Y139.017 E.01708
G1 X188.822 Y138.516 E.01694
G1 X188.495 Y138.087 E.01688
G1 X188.078 Y137.766 E.01647
G1 X177.839 Y131.854 E.37002
G1 X177.463 Y131.69 E.01284
G1 X176.882 Y131.593 E.01843
G1 X176.295 Y131.654 E.01847
G1 X175.808 Y131.854 E.01648
G1 X175.379 Y132.181 E.01688
G1 X175.058 Y132.599 E.01649
G1 X169.146 Y142.838 E.37002
G1 X168.983 Y143.214 E.01283
G1 X168.884 Y143.738 E.01669
G1 X168.936 Y144.339 E.01888
G1 X169.139 Y144.855 E.01735
G1 X169.477 Y145.301 E.01751
G1 X169.892 Y145.619 E.01636
G1 X180.233 Y151.581 E.37356
;WIDTH:0.434179
G1 X180.477 Y151.684 E.0091
;WIDTH:0.468358
G1 X180.721 Y151.787 E.00991
G1 X180.453 Y151.804 E.01005
;WIDTH:0.434179
G1 X180.185 Y151.821 E.00923
;WIDTH:0.399999
G1 X166.675 Y151.821 E.4228
;WIDTH:0.430882
G1 X166.082 Y151.805 E.02021
G1 X166.265 Y151.744 E.00657
;WIDTH:0.415526
G1 X166.825 Y151.471 E.02037
;WIDTH:0.399999
G1 X167.333 Y151.044 E.02077
G1 X167.714 Y150.5 E.02079
G1 X167.94 Y149.876 E.02077
G1 X167.997 Y149.214 E.02079
G1 X167.881 Y148.56 E.02079
G1 X167.6 Y147.959 E.02076
G1 X167.258 Y147.525 E.01729
G1 X166.825 Y147.184 E.01725
G1 X166.469 Y147.004 E.01248
G1 X165.984 Y146.841 E.01601
G1 X165.301 Y146.792 E.02143
G1 X164.689 Y146.903 E.01947
G1 X164.087 Y147.184 E.02079
G1 X163.579 Y147.611 E.02077
G1 X163.199 Y148.156 E.02079
G1 X162.972 Y148.78 E.02078
G1 X162.915 Y149.441 E.02076
G1 X163.031 Y150.095 E.02079
G1 X163.312 Y150.697 E.02079
G1 X163.74 Y151.205 E.02079
G1 X164.284 Y151.585 E.02077
;WIDTH:0.409148
G1 X164.908 Y151.816 E.02137
G1 X164.237 Y151.821 E.02155
;WIDTH:0.399999
G1 X127.707 Y151.821 E1.14323
;WIDTH:0.437662
G1 X127.387 Y151.802 E.01112
;WIDTH:0.475324
G1 X127.067 Y151.783 E.0122
G1 X127.251 Y151.71 E.00753
;WIDTH:0.436929
G1 X127.845 Y151.411 E.02302
;WIDTH:0.399999
G1 X128.365 Y150.968 E.02138
G1 X128.749 Y150.401 E.02143
G1 X128.96 Y149.816 E.01946
G1 X129.017 Y149.154 E.02079
G1 X128.901 Y148.5 E.02079
G1 X128.62 Y147.899 E.02076
G1 X128.192 Y147.39 E.02081
G1 X127.751 Y147.061 E.01722
G1 X127.243 Y146.843 E.0173
G1 X127.004 Y146.781 E.00773
G1 X126.321 Y146.732 E.02143
G1 X125.709 Y146.843 E.01947
G1 X125.175 Y147.077 E.01825
G1 X124.76 Y147.39 E.01627
G1 X124.544 Y147.622 E.00992
G1 X124.219 Y148.096 E.01799
G1 X123.992 Y148.72 E.02078
G1 X123.935 Y149.381 E.02076
G1 X124.051 Y150.035 E.02079
G1 X124.332 Y150.637 E.02079
G1 X124.76 Y151.145 E.02079
G1 X125.304 Y151.525 E.02077
;WIDTH:0.434702
G1 X125.614 Y151.656 E.01158
;WIDTH:0.469404
G1 X125.924 Y151.786 E.01262
G1 X125.584 Y151.803 E.01278
;WIDTH:0.434702
G1 X125.245 Y151.821 E.01168
;WIDTH:0.399999
G1 X86.188 Y151.821 E1.22232
;WIDTH:0.437663
G1 X85.868 Y151.802 E.01112
;WIDTH:0.475326
G1 X85.548 Y151.783 E.0122
G1 X85.732 Y151.71 E.00753
;WIDTH:0.436932
G1 X86.326 Y151.411 E.02302
;WIDTH:0.399999
G1 X86.846 Y150.968 E.02138
G1 X87.23 Y150.401 E.02143
G1 X87.441 Y149.816 E.01946
G1 X87.498 Y149.154 E.02079
G1 X87.382 Y148.5 E.02079
G1 X87.101 Y147.899 E.02076
G1 X86.673 Y147.39 E.02081
G1 X86.2 Y147.043 E.01836
G1 X85.724 Y146.843 E.01616
G1 X85.485 Y146.781 E.00773
G1 X84.802 Y146.732 E.02143
G1 X84.19 Y146.843 E.01947
G1 X83.677 Y147.064 E.01748
G1 X83.265 Y147.372 E.0161
G1 X83.002 Y147.658 E.01216
G1 X82.684 Y148.134 E.01792
G1 X82.473 Y148.72 E.01949
G1 X82.416 Y149.381 E.02076
G1 X82.532 Y150.035 E.02079
G1 X82.813 Y150.637 E.02079
G1 X83.241 Y151.145 E.02079
G1 X83.785 Y151.525 E.02077
;WIDTH:0.434701
G1 X84.095 Y151.656 E.01158
;WIDTH:0.469402
G1 X84.405 Y151.786 E.01262
G1 X84.065 Y151.803 E.01278
;WIDTH:0.434701
G1 X83.726 Y151.821 E.01168
;WIDTH:0.399999
G1 X43.639 Y151.821 E1.25455
;WIDTH:0.433614
G1 X43.438 Y151.804 E.00692
;WIDTH:0.467228
G1 X43.238 Y151.787 E.00749
;WIDTH:0.500842
G1 X43.038 Y151.77 E.0081
G1 X43.129 Y151.73 E.00401
;WIDTH:0.474784
G1 X43.221 Y151.69 E.00381
;WIDTH:0.448725
G1 X43.774 Y151.402 E.02224
;WIDTH:0.399999
G1 X44.295 Y150.96 E.02138
G1 X44.68 Y150.393 E.02145
G1 X44.89 Y149.807 E.01948
G1 X44.945 Y149.127 E.02135
G1 X44.817 Y148.453 E.02147
G1 X44.552 Y147.89 E.01947
G1 X44.125 Y147.382 E.02077
G1 X43.622 Y147.019 E.01941
G1 X43.158 Y146.826 E.01573
G1 X42.463 Y146.72 E.022
G1 X41.861 Y146.774 E.01892
G1 X41.237 Y146.999 E.02076
G1 X40.692 Y147.379 E.02079
G1 X40.284 Y147.876 E.02012
G1 X40.284 Y94.797 E1.66114
G1 X40.681 Y95.265 E.01921
G1 X41.225 Y95.645 E.02077
G1 X41.849 Y95.872 E.02078
G1 X42.511 Y95.929 E.02079
G1 X43.165 Y95.813 E.02079
G1 X43.766 Y95.531 E.02078
G1 X44.274 Y95.104 E.02077
G1 X44.565 Y94.715 E.0152
G1 X44.573 Y98.454 E.11701
G1 X44.67 Y98.967 E.01634
G1 X44.901 Y99.448 E.0167
G1 X45.185 Y99.798 E.01411
G1 X45.58 Y100.098 E.01552
G1 X46.078 Y100.306 E.01689
G1 X46.601 Y100.376 E.01651
G1 X58.424 Y100.376 E.37001
G1 X58.946 Y100.306 E.01648
G1 X59.444 Y100.098 E.01689
G1 X59.858 Y99.779 E.01636
G1 X60.182 Y99.36 E.01658
G1 X60.39 Y98.863 E.01686
G1 X60.459 Y98.34 E.01651
G1 X60.459 Y86.517 E.37001
G1 X60.39 Y85.995 E.01648
G1 X60.182 Y85.497 E.01689
G1 X59.858 Y85.078 E.01658
G1 X59.444 Y84.759 E.01636
G1 X58.946 Y84.551 E.01689
G1 X58.424 Y84.482 E.01648
G1 X46.601 Y84.482 E.37001
G1 X45.974 Y84.587 E.0199
G1 X45.493 Y84.818 E.0167
G1 X45.088 Y85.166 E.01671
G1 X44.788 Y85.607 E.01669
G1 X44.611 Y86.11 E.01669
G1 X44.565 Y86.517 E.01282
G1 X44.565 Y92.061 E.1735
G1 X44.113 Y91.51 E.0223
G1 X43.569 Y91.13 E.02077
G1 X42.925 Y90.901 E.02139
G1 X42.376 Y90.845 E.01727
G1 X41.849 Y90.904 E.0166
G1 X41.225 Y91.13 E.02077
G1 X40.681 Y91.51 E.02077
G1 X40.284 Y91.979 E.01923
G1 X40.284 Y32.934 E1.84785
G1 X40.691 Y33.415 E.01972
G1 X41.235 Y33.795 E.02077
G1 X41.859 Y34.022 E.02078
G1 X42.521 Y34.079 E.02079
G1 X43.175 Y33.963 E.02079
G1 X43.776 Y33.681 E.02078
G1 X44.284 Y33.254 E.02077
G1 X44.665 Y32.71 E.02079
G1 X44.891 Y32.086 E.02077
G1 X44.948 Y31.424 E.02079
G1 X44.832 Y30.77 E.02079
G1 X44.551 Y30.169 E.02076
G1 X44.123 Y29.66 E.02081
G1 X43.579 Y29.28 E.02077
;WIDTH:0.443396
G1 X43.259 Y29.144 E.01224
;WIDTH:0.486792
G1 X42.94 Y29.008 E.01356
G1 X43.291 Y28.986 E.01375
;WIDTH:0.443396
G1 X43.642 Y28.965 E.01237
;WIDTH:0.399999
G1 X83.759 Y28.966 E1.25549
;WIDTH:0.438108
G1 X83.973 Y28.985 E.00746
;WIDTH:0.476217
G1 X84.188 Y29.004 E.00823
;WIDTH:0.514326
G1 X84.403 Y29.023 E.00897
G1 X84.311 Y29.065 E.0042
;WIDTH:0.48456
G1 X84.219 Y29.107 E.00393
;WIDTH:0.454794
G1 X83.924 Y29.261 E.01205
;WIDTH:0.427397
G1 X83.628 Y29.414 E.01125
;WIDTH:0.399999
G1 X83.108 Y29.857 E.02138
G1 X82.724 Y30.424 E.02143
G1 X82.513 Y31.01 E.01949
G1 X82.456 Y31.671 E.02076
G1 X82.572 Y32.325 E.02079
G1 X82.853 Y32.927 E.02079
G1 X83.222 Y33.386 E.01843
G1 X83.628 Y33.701 E.01608
G1 X83.934 Y33.86 E.01079
G1 X84.449 Y34.042 E.01709
G1 X85.111 Y34.099 E.02079
G1 X85.765 Y33.983 E.02079
G1 X86.366 Y33.701 E.02078
G1 X86.874 Y33.274 E.02077
G1 X87.255 Y32.73 E.02079
G1 X87.481 Y32.106 E.02077
G1 X87.538 Y31.444 E.02079
G1 X87.422 Y30.79 E.02079
G1 X87.141 Y30.189 E.02076
G1 X86.713 Y29.68 E.02081
G1 X86.169 Y29.3 E.02077
;WIDTH:0.435208
G1 X85.956 Y29.206 E.00802
;WIDTH:0.470417
G1 X85.744 Y29.113 E.00871
;WIDTH:0.505626
G1 X85.531 Y29.019 E.00949
G1 X85.766 Y29.001 E.00961
;WIDTH:0.470417
G1 X86.001 Y28.984 E.00886
;WIDTH:0.435208
G1 X86.236 Y28.966 E.00812
;WIDTH:0.399999
G1 X125.273 Y28.967 E1.22169
;WIDTH:0.446479
G1 X125.594 Y28.99 E.01141
;WIDTH:0.492958
G1 X125.914 Y29.014 E.01272
G1 X125.731 Y29.092 E.00789
;WIDTH:0.445107
G1 X125.138 Y29.394 E.02352
;WIDTH:0.399999
G1 X124.63 Y29.821 E.02077
G1 X124.25 Y30.366 E.02079
G1 X124.023 Y30.99 E.02078
G1 X123.966 Y31.651 E.02076
G1 X124.082 Y32.305 E.02079
G1 X124.316 Y32.838 E.01822
G1 X124.619 Y33.239 E.01573
G1 X124.88 Y33.483 E.01118
G1 X125.335 Y33.795 E.01727
G1 X125.959 Y34.022 E.02078
G1 X126.621 Y34.079 E.02079
G1 X127.275 Y33.963 E.02079
G1 X127.876 Y33.681 E.02078
G1 X128.384 Y33.254 E.02077
G1 X128.765 Y32.71 E.02079
G1 X128.991 Y32.086 E.02077
G1 X129.048 Y31.424 E.02079
G1 X128.932 Y30.77 E.02079
G1 X128.651 Y30.169 E.02076
G1 X128.223 Y29.66 E.02081
G1 X127.679 Y29.28 E.02077
;WIDTH:0.442179
G1 X127.359 Y29.145 E.01218
;WIDTH:0.484358
G1 X127.04 Y29.009 E.01348
G1 X127.39 Y28.988 E.01363
;WIDTH:0.442179
G1 X127.741 Y28.967 E.01234
;WIDTH:0.399999
G1 X164.26 Y28.968 E1.14289
;WIDTH:0.433972
G1 X164.474 Y28.985 E.00737
;WIDTH:0.467945
G1 X164.688 Y29.002 E.00803
;WIDTH:0.501918
G1 X164.903 Y29.019 E.00872
G1 X164.811 Y29.06 E.00407
;WIDTH:0.475564
G1 X164.719 Y29.1 E.00382
;WIDTH:0.44921
G1 X164.127 Y29.404 E.02377
;WIDTH:0.399999
G1 X163.619 Y29.831 E.02077
G1 X163.239 Y30.376 E.02079
G1 X163.012 Y31 E.02078
G1 X162.955 Y31.661 E.02076
G1 X163.071 Y32.315 E.02079
G1 X163.352 Y32.917 E.02079
G1 X163.78 Y33.425 E.02079
G1 X164.324 Y33.805 E.02077
G1 X164.948 Y34.032 E.02078
G1 X165.61 Y34.089 E.02079
G1 X166.264 Y33.973 E.02079
G1 X166.865 Y33.691 E.02078
G1 X167.373 Y33.264 E.02077
G1 X167.754 Y32.72 E.02079
G1 X167.98 Y32.096 E.02077
G1 X168.037 Y31.434 E.02079
G1 X167.921 Y30.78 E.02079
G1 X167.64 Y30.179 E.02076
G1 X167.212 Y29.67 E.02081
G1 X166.668 Y29.29 E.02077
;WIDTH:0.44664
G1 X166.349 Y29.153 E.01232
;WIDTH:0.49328
G1 X166.029 Y29.015 E.01383
G1 X166.381 Y28.992 E.01399
;WIDTH:0.44664
G1 X166.732 Y28.968 E.01248
;WIDTH:0.399999
G1 X211.375 Y28.97 E1.39713
;WIDTH:0.440196
G1 X211.695 Y28.99 E.01119
;WIDTH:0.480392
G1 X211.956 Y29.006 E.01007
G1 X213.238 Y29.021 F6000
;WIDTH:0.497915
G1 F3000
G1 X213.139 Y29.006 E.00401
;WIDTH:0.511354
G1 X213.489 Y29.025 E.01447
;WIDTH:0.550856
G1 X213.839 Y29.045 E.01572
G1 X214.644 Y29.045 E.0361
G1 X214.644 Y29.895 E.03812
G1 X214.544 Y29.765 E.00735
G1 X214.242 Y29.493 E.01823
G1 X213.808 Y29.201 E.02346
G1 X213.398 Y29.045 E.01967
;WIDTH:0.523978
G1 X213.297 Y29.03 E.00433
G1 X213.216 Y29.432 F6000
;WIDTH:0.399999
G1 F3000
G1 X213.646 Y29.592 E.01436
G1 X214.111 Y29.927 E.01794
G1 X214.474 Y30.371 E.01795
G1 X214.707 Y30.895 E.01795
;WIDTH:0.393233
G1 X214.782 Y31.462 E.01755
;WIDTH:0.358808
G1 X214.785 Y31.528 E.00182
;WIDTH:0.387507
G1 X214.739 Y32.029 E.01518
;WIDTH:0.399999
G1 X214.543 Y32.566 E.01789
G1 X214.208 Y33.032 E.01796
G1 X213.764 Y33.395 E.01795
G1 X213.241 Y33.631 E.01796
G1 X212.675 Y33.723 E.01795
G1 X212.105 Y33.666 E.01793
G1 X211.568 Y33.463 E.01797
G1 X211.103 Y33.128 E.01794
G1 X210.74 Y32.685 E.01792
G1 X210.504 Y32.162 E.01796
