; generated by PrusaSlicer 2.6.0-alpha6+win64 on 2023-07-27 at 17:11:39 UTC

; 

; external perimeters extrusion width = 0.38mm
; perimeters extrusion width = 0.38mm
; infill extrusion width = 0.45mm
; solid infill extrusion width = 0.45mm
; top infill extrusion width = 0.44mm
; support material extrusion width = 0.40mm
; first layer extrusion width = 0.40mm

M190 S55 ; set bed temperature and wait for it to be reached
M104 S210 ; set temperature
;TYPE:Custom
print_start EXTRUDER=210 BED=55
M109 S210 ; set temperature and wait for it to be reached
G21 ; set units to millimeters
G90 ; use absolute coordinates
M83 ; use relative distances for extrusion
;Filament gcode
M107
;LAYER_CHANGE
;Z:0.24
;HEIGHT:0.24
G1 Z.24 F12000
G1 E-.75 F3000
G1 X58.593 Y41.344 F12000
G1 E.75 F1800
M204 S4000
;TYPE:Skirt/Brim
;WIDTH:0.4
G1 F3000
G1 X59.55 Y40.435 E.04131
G1 X60.71 Y39.806 E.0413
G1 X61.73 Y39.532 E.03305
G1 X62.521 Y39.463 E.02485
G1 X238.238 Y39.498 E5.49919
G1 X239.766 Y39.907 E.0495
G1 X240.868 Y40.579 E.04039
G1 X241.638 Y41.344 E.03397
G1 X242.429 Y42.714 E.04951
G1 X242.702 Y43.734 E.03305
G1 X242.772 Y44.525 E.02485
G1 X242.772 Y168.135 E3.86846
G1 X242.702 Y168.926 E.02485
G1 X242.327 Y170.191 E.04129
G1 X241.638 Y171.316 E.04129
G1 X240.681 Y172.225 E.04131
G1 X239.521 Y172.854 E.0413
G1 X238.501 Y173.127 E.03305
G1 X237.71 Y173.197 E.02485
G1 X62.521 Y173.197 E5.48267
G1 X61.73 Y173.127 E.02485
G1 X60.465 Y172.753 E.04128
G1 X59.339 Y172.063 E.04133
G1 X58.431 Y171.106 E.04129
G1 X57.802 Y169.946 E.0413
G1 X57.528 Y168.926 E.03305
G1 X57.459 Y168.135 E.02485
G1 X57.459 Y44.525 E3.86846
G1 X57.528 Y43.734 E.02485
G1 X57.903 Y42.468 E.04132
G1 X58.561 Y41.395 E.03939
G1 X58.856 Y41.576 F12000
G1 F3000
G1 X59.762 Y40.712 E.03918
G1 X60.843 Y40.128 E.03845
G1 X61.775 Y39.878 E.0302
G1 X62.521 Y39.812 E.02344
G1 X238.192 Y39.843 E5.49775
G1 X239.633 Y40.229 E.04669
G1 X240.656 Y40.855 E.03753
G1 X241.361 Y41.556 E.03111
G1 X242.107 Y42.847 E.04666
G1 X242.357 Y43.779 E.0302
G1 X242.423 Y44.525 E.02344
G1 X242.423 Y168.135 E3.86846
G1 X242.357 Y168.881 E.02344
G1 X242.005 Y170.058 E.03845
G1 X241.361 Y171.104 E.03844
G1 X240.469 Y171.948 E.03843
G1 X239.387 Y172.532 E.03848
G1 X238.455 Y172.782 E.0302
G1 X237.71 Y172.848 E.02341
G1 X62.521 Y172.848 E5.48267
G1 X61.775 Y172.782 E.02344
G1 X60.598 Y172.431 E.03844
G1 X59.551 Y171.786 E.03849
G1 X58.708 Y170.894 E.03841
G1 X58.124 Y169.813 E.03845
G1 X57.874 Y168.881 E.0302
G1 X57.808 Y168.135 E.02344
G1 X57.808 Y44.525 E3.86846
G1 X57.874 Y43.779 E.02344
G1 X58.225 Y42.602 E.03844
G1 X58.825 Y41.627 E.03583
G1 X59.12 Y41.81 F12000
G1 F3000
G1 X59.974 Y40.988 E.0371
G1 X60.977 Y40.45 E.03562
G1 X61.821 Y40.223 E.02735
G1 X62.521 Y40.16 E.022
G1 X238.147 Y40.189 E5.49634
G1 X239.499 Y40.551 E.0438
G1 X240.256 Y40.988 E.02736
G1 X241.085 Y41.768 E.03562
G1 X241.785 Y42.981 E.04383
G1 X242.011 Y43.825 E.02734
G1 X242.075 Y44.525 E.022
G1 X242.075 Y168.135 E3.86846
G1 X242.011 Y168.835 E.022
G1 X241.683 Y169.924 E.03559
G1 X241.085 Y170.892 E.03561
G1 X240.256 Y171.672 E.03562
G1 X239.254 Y172.21 E.03559
G1 X238.41 Y172.436 E.02734
G1 X237.71 Y172.5 E.022
G1 X62.521 Y172.5 E5.48267
G1 X61.821 Y172.436 E.022
G1 X60.731 Y172.109 E.03561
G1 X59.764 Y171.51 E.0356
G1 X58.984 Y170.681 E.03562
G1 X58.446 Y169.679 E.03559
G1 X58.219 Y168.835 E.02735
G1 X58.156 Y168.135 E.022
G1 X58.156 Y44.525 E3.86846
G1 X58.219 Y43.825 E.022
G1 X58.547 Y42.735 E.03562
G1 X59.088 Y41.861 E.03217
G1 E-.75
G1 X62.95 Y44.954 F12000
G1 E.75 F1800
;TYPE:Perimeter
;WIDTH:0.399999
G1 F3000
G1 X237.281 Y44.954 E5.45581
G1 X237.281 Y167.706 E3.84161
G1 X62.95 Y167.706 E5.45581
G1 X62.95 Y45.014 E3.83973
G1 X62.602 Y44.606 F12000
G1 F3000
G1 X237.629 Y44.606 E5.47759
G1 X237.629 Y168.054 E3.86339
G1 X62.602 Y168.054 E5.47759
G1 X62.602 Y44.666 E3.86151
G1 X62.291 Y44.425 F12000
G1 F3000
G1 X62.363 Y44.319 E.00401
G1 X62.57 Y44.257 E.00676
G1 X237.638 Y44.257 E5.47887
G1 X237.775 Y44.272 E.00431
G1 X237.915 Y44.367 E.00529
G1 X237.978 Y44.574 E.00677
G1 X237.978 Y168.064 E3.8647
G1 X237.936 Y168.266 E.00646
G1 X237.809 Y168.374 E.00522
G1 X237.661 Y168.403 E.00472
G1 X62.592 Y168.403 E5.4789
G1 X62.453 Y168.387 E.00438
G1 X62.315 Y168.293 E.00523
G1 X62.253 Y168.086 E.00676
G1 X62.253 Y44.596 E3.8647
G1 X62.266 Y44.478 E.00372
G1 X61.99 Y44.219 F12000
;TYPE:External perimeter
G1 F3000
G1 X62.214 Y43.994 E.00994
G1 X62.547 Y43.909 E.01076
G1 X237.684 Y43.909 E5.48103
G1 X238.016 Y43.994 E.01073
G1 X238.24 Y44.219 E.00994
G1 X238.326 Y44.551 E.01073
G1 X238.326 Y168.064 E3.86542
G1 X238.302 Y168.294 E.00724
G1 X238.143 Y168.568 E.00991
G1 X237.942 Y168.696 E.00746
G1 X237.684 Y168.751 E.00826
G1 X62.547 Y168.751 E5.48103
G1 X62.214 Y168.666 E.01076
G1 X61.99 Y168.441 E.00994
G1 X61.905 Y168.109 E.01073
G1 X61.905 Y44.551 E3.86683
G1 X61.975 Y44.277 E.00885
G1 X62.307 Y44.219 F12000
G1 E-.75 F3000
G1 X63.759 Y167.601 F12000
G1 E.75 F1800
;TYPE:Solid infill
;WIDTH:0.400046
G1 F3000
G1 X63.211 Y167.053 E.02426
G1 X63.211 Y166.561 E.0154
G1 X64.095 Y167.444 E.03911
G1 X64.588 Y167.444 E.01543
G1 X63.211 Y166.068 E.06093
G1 X63.211 Y165.575 E.01543
G1 X65.081 Y167.444 E.08275
G1 X65.574 Y167.444 E.01543
G1 X63.211 Y165.082 E.10458
G1 X63.211 Y164.589 E.01543
G1 X66.067 Y167.444 E.1264
G1 X66.56 Y167.444 E.01543
G1 X63.211 Y164.096 E.14822
G1 X63.211 Y163.603 E.01543
G1 X67.053 Y167.444 E.17004
G1 X67.546 Y167.444 E.01543
G1 X63.211 Y163.11 E.19187
G1 X63.211 Y162.617 E.01543
G1 X68.038 Y167.444 E.21367
G1 X68.531 Y167.444 E.01543
G1 X63.211 Y162.124 E.23549
G1 X63.211 Y161.631 E.01543
G1 X69.024 Y167.444 E.25731
G1 X69.517 Y167.444 E.01543
G1 X63.211 Y161.138 E.27913
G1 X63.211 Y160.646 E.0154
G1 X70.01 Y167.444 E.30093
G1 X70.503 Y167.444 E.01543
G1 X63.211 Y160.153 E.32276
G1 X63.211 Y159.66 E.01543
G1 X70.996 Y167.444 E.34458
G1 X71.489 Y167.444 E.01543
G1 X63.211 Y159.167 E.3664
G1 X63.211 Y158.674 E.01543
G1 X71.982 Y167.444 E.38822
G1 X72.475 Y167.444 E.01543
G1 X63.211 Y158.181 E.41005
G1 X63.211 Y157.688 E.01543
G1 X72.968 Y167.444 E.43187
G1 X73.461 Y167.444 E.01543
G1 X63.211 Y157.195 E.45369
G1 X63.211 Y156.702 E.01543
G1 X73.953 Y167.444 E.47549
G1 X74.446 Y167.444 E.01543
G1 X63.211 Y156.209 E.49731
G1 X63.211 Y155.716 E.01543
G1 X74.939 Y167.444 E.51914
G1 X75.432 Y167.444 E.01543
G1 X63.211 Y155.224 E.54094
G1 X63.211 Y154.731 E.01543
G1 X75.925 Y167.444 E.56276
G1 X76.418 Y167.444 E.01543
G1 X63.211 Y154.238 E.58458
G1 X63.211 Y153.745 E.01543
G1 X76.911 Y167.444 E.6064
G1 X77.404 Y167.444 E.01543
G1 X63.211 Y153.252 E.62823
G1 X63.211 Y152.759 E.01543
G1 X77.897 Y167.444 E.65005
G1 X78.39 Y167.444 E.01543
G1 X63.211 Y152.266 E.67187
G1 X63.211 Y151.773 E.01543
G1 X78.883 Y167.444 E.69369
G1 X79.375 Y167.444 E.0154
G1 X63.211 Y151.28 E.7155
G1 X63.211 Y150.787 E.01543
G1 X79.868 Y167.444 E.73732
G1 X80.361 Y167.444 E.01543
G1 X63.211 Y150.294 E.75914
G1 X63.211 Y149.801 E.01543
G1 X80.854 Y167.444 E.78096
G1 X81.347 Y167.444 E.01543
G1 X63.211 Y149.309 E.80276
G1 X63.211 Y148.816 E.01543
G1 X81.84 Y167.444 E.82459
G1 X82.333 Y167.444 E.01543
G1 X63.211 Y148.323 E.84641
G1 X63.211 Y147.83 E.01543
G1 X82.826 Y167.444 E.86823
G1 X83.319 Y167.444 E.01543
G1 X63.211 Y147.337 E.89005
G1 X63.211 Y146.844 E.01543
G1 X83.812 Y167.444 E.91188
G1 X84.305 Y167.444 E.01543
G1 X63.211 Y146.351 E.9337
G1 X63.211 Y145.858 E.01543
G1 X84.798 Y167.444 E.95552
G1 X85.29 Y167.444 E.0154
G1 X63.211 Y145.365 E.97732
G1 X63.211 Y144.872 E.01543
G1 X85.783 Y167.444 E.99914
G1 X86.276 Y167.444 E.01543
G1 X63.211 Y144.379 E1.02097
G1 X63.211 Y143.887 E.0154
G1 X86.769 Y167.444 E1.04277
G1 X87.262 Y167.444 E.01543
G1 X63.211 Y143.394 E1.06459
G1 X63.211 Y142.901 E.01543
G1 X87.755 Y167.444 E1.08641
G1 X88.248 Y167.444 E.01543
G1 X63.211 Y142.408 E1.10823
G1 X63.211 Y141.915 E.01543
G1 X88.741 Y167.444 E1.13006
G1 X89.234 Y167.444 E.01543
G1 X63.211 Y141.422 E1.15188
G1 X63.211 Y140.929 E.01543
G1 X89.727 Y167.444 E1.1737
G1 X90.22 Y167.444 E.01543
G1 X63.211 Y140.436 E1.19552
G1 X63.211 Y139.943 E.01543
G1 X90.712 Y167.444 E1.21732
G1 X91.205 Y167.444 E.01543
G1 X63.211 Y139.45 E1.23915
G1 X63.211 Y138.957 E.01543
G1 X91.698 Y167.444 E1.26097
G1 X92.191 Y167.444 E.01543
G1 X63.211 Y138.464 E1.28279
G1 X63.211 Y137.972 E.0154
G1 X92.684 Y167.444 E1.30459
G1 X93.177 Y167.444 E.01543
G1 X63.211 Y137.479 E1.32641
G1 X63.211 Y136.986 E.01543
G1 X93.67 Y167.444 E1.34824
G1 X94.163 Y167.444 E.01543
G1 X63.211 Y136.493 E1.37006
G1 X63.211 Y136 E.01543
G1 X94.656 Y167.444 E1.39188
G1 X95.149 Y167.444 E.01543
G1 X63.211 Y135.507 E1.4137
G1 X63.211 Y135.014 E.01543
G1 X95.642 Y167.444 E1.43553
G1 X96.135 Y167.444 E.01543
G1 X63.211 Y134.521 E1.45735
G1 X63.211 Y134.028 E.01543
G1 X96.627 Y167.444 E1.47915
G1 X97.12 Y167.444 E.01543
G1 X63.211 Y133.535 E1.50097
G1 X63.211 Y133.042 E.01543
G1 X97.613 Y167.444 E1.5228
G1 X98.106 Y167.444 E.01543
G1 X63.211 Y132.55 E1.5446
G1 X63.211 Y132.057 E.01543
G1 X98.599 Y167.444 E1.56642
G1 X99.092 Y167.444 E.01543
G1 X63.211 Y131.564 E1.58824
G1 X63.211 Y131.071 E.01543
G1 X99.585 Y167.444 E1.61006
G1 X100.078 Y167.444 E.01543
G1 X63.211 Y130.578 E1.63189
G1 X63.211 Y130.085 E.01543
G1 X100.571 Y167.444 E1.65371
G1 X101.064 Y167.444 E.01543
G1 X63.211 Y129.592 E1.67553
G1 X63.211 Y129.099 E.01543
G1 X101.557 Y167.444 E1.69735
G1 X102.049 Y167.444 E.0154
G1 X63.211 Y128.606 E1.71915
G1 X63.211 Y128.113 E.01543
G1 X102.542 Y167.444 E1.74098
G1 X103.035 Y167.444 E.01543
G1 X63.211 Y127.62 E1.7628
G1 X63.211 Y127.127 E.01543
G1 X103.528 Y167.444 E1.78462
G1 X104.021 Y167.444 E.01543
G1 X63.211 Y126.635 E1.80642
G1 X63.211 Y126.142 E.01543
G1 X104.514 Y167.444 E1.82824
G1 X105.007 Y167.444 E.01543
G1 X63.211 Y125.649 E1.85007
G1 X63.211 Y125.156 E.01543
G1 X105.5 Y167.444 E1.87189
G1 X105.993 Y167.444 E.01543
G1 X63.211 Y124.663 E1.89371
G1 X63.211 Y124.17 E.01543
G1 X106.486 Y167.444 E1.91553
G1 X106.979 Y167.444 E.01543
G1 X63.211 Y123.677 E1.93736
G1 X63.211 Y123.184 E.01543
G1 X107.472 Y167.444 E1.95918
G1 X107.964 Y167.444 E.0154
G1 X63.211 Y122.691 E1.98098
G1 X63.211 Y122.198 E.01543
G1 X108.457 Y167.444 E2.0028
G1 X108.95 Y167.444 E.01543
G1 X63.211 Y121.705 E2.02462
G1 X63.211 Y121.213 E.0154
G1 X109.443 Y167.444 E2.04643
G1 X109.936 Y167.444 E.01543
G1 X63.211 Y120.72 E2.06825
G1 X63.211 Y120.227 E.01543
G1 X110.429 Y167.444 E2.09007
G1 X110.922 Y167.444 E.01543
G1 X63.211 Y119.734 E2.11189
G1 X63.211 Y119.241 E.01543
G1 X111.415 Y167.444 E2.13372
G1 X111.908 Y167.444 E.01543
G1 X63.211 Y118.748 E2.15554
G1 X63.211 Y118.255 E.01543
G1 X112.401 Y167.444 E2.17736
G1 X112.894 Y167.444 E.01543
G1 X63.211 Y117.762 E2.19918
G1 X63.211 Y117.269 E.01543
G1 X113.386 Y167.444 E2.22098
G1 X113.879 Y167.444 E.01543
G1 X63.211 Y116.776 E2.24281
G1 X63.211 Y116.283 E.01543
G1 X114.372 Y167.444 E2.26463
G1 X114.865 Y167.444 E.01543
G1 X63.211 Y115.79 E2.28645
G1 X63.211 Y115.298 E.0154
G1 X115.358 Y167.444 E2.30825
G1 X115.851 Y167.444 E.01543
G1 X63.211 Y114.805 E2.33007
G1 X63.211 Y114.312 E.01543
G1 X116.344 Y167.444 E2.3519
G1 X116.837 Y167.444 E.01543
G1 X63.211 Y113.819 E2.37372
G1 X63.211 Y113.326 E.01543
G1 X117.33 Y167.444 E2.39554
G1 X117.823 Y167.444 E.01543
G1 X63.211 Y112.833 E2.41736
G1 X63.211 Y112.34 E.01543
G1 X118.316 Y167.444 E2.43919
G1 X118.809 Y167.444 E.01543
G1 X63.211 Y111.847 E2.46101
G1 X63.211 Y111.354 E.01543
G1 X119.301 Y167.444 E2.48281
G1 X119.794 Y167.444 E.01543
G1 X63.211 Y110.861 E2.50463
G1 X63.211 Y110.368 E.01543
G1 X120.287 Y167.444 E2.52645
G1 X120.78 Y167.444 E.01543
G1 X63.211 Y109.876 E2.54825
G1 X63.211 Y109.383 E.01543
G1 X121.273 Y167.444 E2.57008
G1 X121.766 Y167.444 E.01543
G1 X63.211 Y108.89 E2.5919
G1 X63.211 Y108.397 E.01543
G1 X122.259 Y167.444 E2.61372
G1 X122.752 Y167.444 E.01543
G1 X63.211 Y107.904 E2.63554
G1 X63.211 Y107.411 E.01543
G1 X123.245 Y167.444 E2.65737
G1 X123.738 Y167.444 E.01543
G1 X63.211 Y106.918 E2.67919
G1 X63.211 Y106.425 E.01543
G1 X124.231 Y167.444 E2.70101
G1 X124.723 Y167.444 E.0154
G1 X63.211 Y105.932 E2.72281
G1 X63.211 Y105.439 E.01543
G1 X125.216 Y167.444 E2.74463
G1 X125.709 Y167.444 E.01543
G1 X63.211 Y104.946 E2.76646
G1 X63.211 Y104.453 E.01543
G1 X126.202 Y167.444 E2.78828
G1 X126.695 Y167.444 E.01543
G1 X63.211 Y103.961 E2.81008
G1 X63.211 Y103.468 E.01543
G1 X127.188 Y167.444 E2.8319
G1 X127.681 Y167.444 E.01543
G1 X63.211 Y102.975 E2.85373
G1 X63.211 Y102.482 E.01543
G1 X128.174 Y167.444 E2.87555
G1 X128.667 Y167.444 E.01543
G1 X63.211 Y101.989 E2.89737
G1 X63.211 Y101.496 E.01543
G1 X129.16 Y167.444 E2.91919
G1 X129.653 Y167.444 E.01543
G1 X63.211 Y101.003 E2.94102
G1 X63.211 Y100.51 E.01543
G1 X130.146 Y167.444 E2.96284
G1 X130.638 Y167.444 E.0154
G1 X63.211 Y100.017 E2.98464
G1 X63.211 Y99.524 E.01543
G1 X131.131 Y167.444 E3.00646
G1 X131.624 Y167.444 E.01543
G1 X63.211 Y99.031 E3.02828
G1 X63.211 Y98.539 E.0154
G1 X132.117 Y167.444 E3.05008
G1 X132.61 Y167.444 E.01543
G1 X63.211 Y98.046 E3.07191
G1 X63.211 Y97.553 E.01543
G1 X133.103 Y167.444 E3.09373
G1 X133.596 Y167.444 E.01543
G1 X63.211 Y97.06 E3.11555
G1 X63.211 Y96.567 E.01543
G1 X134.089 Y167.444 E3.13737
G1 X134.582 Y167.444 E.01543
G1 X63.211 Y96.074 E3.1592
G1 X63.211 Y95.581 E.01543
G1 X135.075 Y167.444 E3.18102
G1 X135.568 Y167.444 E.01543
G1 X63.211 Y95.088 E3.20284
G1 X63.211 Y94.595 E.01543
G1 X136.06 Y167.444 E3.22464
G1 X136.553 Y167.444 E.01543
G1 X63.211 Y94.102 E3.24646
G1 X63.211 Y93.609 E.01543
G1 X137.046 Y167.444 E3.26829
G1 X137.539 Y167.444 E.01543
G1 X63.211 Y93.116 E3.29011
G1 X63.211 Y92.624 E.0154
G1 X138.032 Y167.444 E3.31191
G1 X138.525 Y167.444 E.01543
G1 X63.211 Y92.131 E3.33373
G1 X63.211 Y91.638 E.01543
G1 X139.018 Y167.444 E3.35555
G1 X139.511 Y167.444 E.01543
G1 X63.211 Y91.145 E3.37738
G1 X63.211 Y90.652 E.01543
G1 X140.004 Y167.444 E3.3992
G1 X140.497 Y167.444 E.01543
G1 X63.211 Y90.159 E3.42102
G1 X63.211 Y89.666 E.01543
G1 X140.99 Y167.444 E3.44284
G1 X141.483 Y167.444 E.01543
G1 X63.211 Y89.173 E3.46467
G1 X63.211 Y88.68 E.01543
G1 X141.975 Y167.444 E3.48647
G1 X142.468 Y167.444 E.01543
G1 X63.211 Y88.187 E3.50829
G1 X63.211 Y87.694 E.01543
G1 X142.961 Y167.444 E3.53011
G1 X143.454 Y167.444 E.01543
G1 X63.211 Y87.202 E3.55191
G1 X63.211 Y86.709 E.01543
G1 X143.947 Y167.444 E3.57374
G1 X144.44 Y167.444 E.01543
G1 X63.211 Y86.216 E3.59556
G1 X63.211 Y85.723 E.01543
G1 X144.933 Y167.444 E3.61738
G1 X145.426 Y167.444 E.01543
G1 X63.211 Y85.23 E3.6392
G1 X63.211 Y84.737 E.01543
G1 X145.919 Y167.444 E3.66103
G1 X146.412 Y167.444 E.01543
G1 X63.211 Y84.244 E3.68285
G1 X63.211 Y83.751 E.01543
G1 X146.905 Y167.444 E3.70467
G1 X147.397 Y167.444 E.0154
G1 X63.211 Y83.258 E3.72647
G1 X63.211 Y82.765 E.01543
G1 X147.89 Y167.444 E3.74829
G1 X148.383 Y167.444 E.01543
G1 X63.211 Y82.272 E3.77012
G1 X63.211 Y81.78 E.0154
G1 X148.876 Y167.444 E3.79192
G1 X149.369 Y167.444 E.01543
G1 X63.211 Y81.287 E3.81374
G1 X63.211 Y80.794 E.01543
G1 X149.862 Y167.444 E3.83556
G1 X150.355 Y167.444 E.01543
G1 X63.211 Y80.301 E3.85738
G1 X63.211 Y79.808 E.01543
G1 X150.848 Y167.444 E3.87921
G1 X151.341 Y167.444 E.01543
G1 X63.211 Y79.315 E3.90103
G1 X63.211 Y78.822 E.01543
G1 X151.834 Y167.444 E3.92285
G1 X152.327 Y167.444 E.01543
G1 X63.211 Y78.329 E3.94467
G1 X63.211 Y77.836 E.01543
G1 X152.819 Y167.444 E3.96647
G1 X153.312 Y167.444 E.01543
G1 X63.211 Y77.343 E3.9883
G1 X63.211 Y76.85 E.01543
G1 X153.805 Y167.444 E4.01012
G1 X154.298 Y167.444 E.01543
G1 X63.211 Y76.357 E4.03194
G1 X63.211 Y75.865 E.0154
G1 X154.791 Y167.444 E4.05374
G1 X155.284 Y167.444 E.01543
G1 X63.211 Y75.372 E4.07556
G1 X63.211 Y74.879 E.01543
G1 X155.777 Y167.444 E4.09739
G1 X156.27 Y167.444 E.01543
G1 X63.211 Y74.386 E4.11921
G1 X63.211 Y73.893 E.01543
G1 X156.763 Y167.444 E4.14103
G1 X157.256 Y167.444 E.01543
G1 X63.211 Y73.4 E4.16285
G1 X63.211 Y72.907 E.01543
G1 X157.749 Y167.444 E4.18468
G1 X158.242 Y167.444 E.01543
G1 X63.211 Y72.414 E4.2065
G1 X63.211 Y71.921 E.01543
G1 X158.734 Y167.444 E4.2283
G1 X159.227 Y167.444 E.01543
G1 X63.211 Y71.428 E4.25012
