; generated by PrusaSlicer 2.6.0-alpha6+win64 on 2023-07-17 at 11:54:20 UTC

; 

; external perimeters extrusion width = 0.38mm
; perimeters extrusion width = 0.38mm
; infill extrusion width = 0.45mm
; solid infill extrusion width = 0.45mm
; top infill extrusion width = 0.44mm
; support material extrusion width = 0.40mm
; first layer extrusion width = 0.40mm

M190 S100 ; set bed temperature and wait for it to be reached
M104 S250 ; set temperature
;TYPE:Custom
print_start EXTRUDER=250 BED=100
M109 S250 ; set temperature and wait for it to be reached
G21 ; set units to millimeters
G90 ; use absolute coordinates
M83 ; use relative distances for extrusion
;Filament gcode
M107
;LAYER_CHANGE
;Z:0.24
;HEIGHT:0.24
G1 Z.24 F72000
G1 E-.75 F3000
G1 X127.85 Y57.034 F72000
G1 E.75 F1800
M204 S4000
;TYPE:Skirt/Brim
;WIDTH:0.4
G1 F9000
G1 X128.843 Y55.577 E.05518
G1 X131.772 Y52.648 E.12963
G1 X133.393 Y51.587 E.06063
G1 X135.126 Y51.259 E.0552
G1 X168.768 Y51.259 E1.05285
G1 X170.664 Y51.655 E.06062
G1 X172.121 Y52.648 E.05518
G1 X175.05 Y55.577 E.12963
G1 X176.111 Y57.198 E.06063
G1 X176.439 Y58.931 E.0552
G1 X176.439 Y72.073 E.41129
G1 X176.043 Y73.969 E.06062
G1 X175.05 Y75.426 E.05518
G1 X172.121 Y78.355 E.12963
G1 X170.5 Y79.416 E.06063
G1 X168.768 Y79.744 E.05517
G1 X135.126 Y79.744 E1.05285
G1 X133.229 Y79.348 E.06065
G1 X131.772 Y78.355 E.05518
G1 X128.843 Y75.426 E.12963
G1 X127.782 Y73.805 E.06063
G1 X127.454 Y72.073 E.05517
G1 X127.454 Y58.931 E.41129
G1 X127.838 Y57.093 E.05876
G1 X128.185 Y57.168 F72000
G1 F9000
G1 X128.198 Y57.109 E.00189
G1 X129.09 Y55.824 E.04895
G1 X132.019 Y52.895 E.12963
G1 X133.586 Y51.886 E.05833
G1 X135.126 Y51.608 E.04897
G1 X168.768 Y51.608 E1.05285
G1 X170.589 Y52.003 E.05831
G1 X171.875 Y52.895 E.04898
G1 X174.804 Y55.824 E.12963
G1 X175.812 Y57.391 E.05831
G1 X176.091 Y58.931 E.04898
G1 X176.091 Y72.073 E.41129
G1 X175.695 Y73.894 E.05832
G1 X174.804 Y75.18 E.04896
G1 X171.875 Y78.109 E.12963
G1 X170.307 Y79.117 E.05834
G1 X168.768 Y79.396 E.04895
G1 X135.126 Y79.396 E1.05285
G1 X133.304 Y79 E.05835
G1 X132.019 Y78.109 E.04894
G1 X129.09 Y75.18 E.12963
G1 X128.081 Y73.612 E.05835
G1 X127.803 Y72.073 E.04894
G1 X127.803 Y58.931 E.41129
G1 X128.173 Y57.227 E.05457
G1 X128.519 Y57.305 F72000
G1 F9000
G1 X128.546 Y57.187 E.00379
G1 X129.336 Y56.07 E.04282
G1 X132.265 Y53.141 E.12963
G1 X133.777 Y52.187 E.05595
G1 X135.126 Y51.956 E.04283
G1 X168.768 Y51.956 E1.05285
G1 X170.511 Y52.351 E.05593
G1 X171.628 Y53.141 E.04282
G1 X174.557 Y56.07 E.12963
G1 X175.511 Y57.582 E.05595
G1 X175.742 Y58.931 E.04283
G1 X175.742 Y72.073 E.41129
G1 X175.347 Y73.816 E.05593
G1 X174.557 Y74.933 E.04282
G1 X171.628 Y77.862 E.12963
G1 X170.116 Y78.816 E.05595
G1 X168.768 Y79.047 E.0428
G1 X135.126 Y79.047 E1.05285
G1 X133.382 Y78.652 E.05596
G1 X132.265 Y77.862 E.04282
G1 X129.336 Y74.933 E.12963
G1 X128.382 Y73.421 E.05595
G1 X128.151 Y72.073 E.0428
G1 X128.151 Y58.931 E.41129
G1 X128.506 Y57.364 E.05028
G1 X128.852 Y57.446 F72000
G1 F9000
G1 X128.894 Y57.269 E.00569
G1 X129.582 Y56.316 E.03678
G1 X132.511 Y53.387 E.12963
G1 X133.966 Y52.491 E.05348
G1 X135.126 Y52.305 E.03677
G1 X168.768 Y52.305 E1.05285
G1 X170.43 Y52.699 E.05346
G1 X171.382 Y53.387 E.03676
G1 X174.311 Y56.316 E.12963
G1 X175.207 Y57.771 E.05348
G1 X175.394 Y58.931 E.03677
G1 X175.394 Y72.073 E.41129
G1 X174.999 Y73.735 E.05346
G1 X174.311 Y74.687 E.03676
G1 X171.382 Y77.616 E.12963
G1 X169.928 Y78.512 E.05345
G1 X168.768 Y78.699 E.03677
G1 X135.126 Y78.699 E1.05285
G1 X133.464 Y78.304 E.05346
G1 X132.511 Y77.616 E.03678
G1 X129.582 Y74.687 E.12963
G1 X128.686 Y73.233 E.05345
G1 X128.5 Y72.073 E.03677
G1 X128.5 Y58.931 E.41129
G1 X128.838 Y57.504 E.04589
G1 X129.183 Y57.591 F72000
G1 F9000
G1 X129.242 Y57.355 E.00761
G1 X129.829 Y56.563 E.03085
G1 X132.758 Y53.634 E.12963
G1 X134.151 Y52.798 E.05084
G1 X135.126 Y52.653 E.03085
G1 X168.768 Y52.653 E1.05285
G1 X170.344 Y53.047 E.05084
G1 X171.135 Y53.634 E.03083
G1 X174.064 Y56.563 E.12963
G1 X174.9 Y57.956 E.05084
G1 X175.045 Y58.931 E.03085
G1 X175.045 Y72.073 E.41129
G1 X174.651 Y73.649 E.05084
G1 X174.064 Y74.44 E.03083
G1 X171.135 Y77.369 E.12963
G1 X169.743 Y78.205 E.05082
G1 X168.768 Y78.35 E.03085
G1 X135.126 Y78.35 E1.05285
G1 X133.55 Y77.956 E.05084
G1 X132.758 Y77.369 E.03085
G1 X129.829 Y74.44 E.12963
G1 X128.993 Y73.047 E.05084
G1 X128.848 Y72.073 E.03082
G1 X128.848 Y58.931 E.41129
G1 X129.169 Y57.649 E.04136
G1 E-.75 F3000
G1 X132.859 Y59.101 F72000
G1 E.75 F1800
G1 F9000
G1 X133.477 Y58.088 E.03714
G1 X134.326 Y57.243 E.03749
G1 X135.328 Y56.649 E.03645
G1 X136.755 Y56.297 E.046
G1 X167.163 Y56.3 E.95164
G1 X168.108 Y56.48 E.03011
G1 X169.024 Y56.87 E.03116
G1 X170.233 Y57.876 E.04922
G1 X171.027 Y59.085 E.04527
G1 X171.402 Y60.51 E.04611
G1 X171.352 Y70.849 E.32357
G1 X171.007 Y71.964 E.03653
G1 X170.407 Y72.927 E.03551
G1 X169.556 Y73.769 E.03747
G1 X168.559 Y74.357 E.03622
G1 X167.139 Y74.706 E.04576
G1 X136.704 Y74.706 E.95249
G1 X135.456 Y74.405 E.04018
G1 X134.435 Y73.837 E.03656
G1 X133.509 Y72.962 E.03987
G1 X132.848 Y71.879 E.03971
G1 X132.492 Y70.442 E.04633
G1 X132.531 Y60.219 E.31994
G1 X132.842 Y59.159 E.03457
G1 X133.169 Y59.261 F72000
G1 F9000
G1 X133.739 Y58.318 E.03448
G1 X134.523 Y57.532 E.03474
G1 X135.484 Y56.962 E.03497
G1 X136.776 Y56.645 E.04163
G1 X167.146 Y56.649 E.95045
G1 X168.023 Y56.819 E.02796
G1 X168.862 Y57.18 E.02858
G1 X169.988 Y58.126 E.04602
G1 X170.719 Y59.251 E.04199
G1 X171.053 Y60.531 E.0414
G1 X171.011 Y70.773 E.32053
G1 X170.699 Y71.799 E.03356
G1 X170.122 Y72.725 E.03415
G1 X169.328 Y73.505 E.03483
G1 X168.405 Y74.043 E.03343
G1 X167.118 Y74.358 E.04147
G1 X136.725 Y74.358 E.95117
G1 X135.563 Y74.073 E.03744
G1 X134.626 Y73.545 E.03366
G1 X133.767 Y72.727 E.03712
G1 X133.161 Y71.722 E.03673
G1 X132.84 Y70.422 E.04191
G1 X132.873 Y60.292 E.31703
G1 X133.153 Y59.319 E.03169
G1 X133.487 Y59.415 F72000
G1 F9000
G1 X134.025 Y58.519 E.03271
G1 X134.752 Y57.795 E.03211
G1 X135.638 Y57.276 E.03214
G1 X136.796 Y56.994 E.0373
G1 X167.129 Y56.997 E.94929
G1 X167.936 Y57.157 E.02575
G1 X168.699 Y57.489 E.02604
G1 X169.744 Y58.375 E.04288
G1 X170.39 Y59.368 E.03707
G1 X170.704 Y60.553 E.03837
G1 X170.67 Y70.698 E.3175
G1 X170.39 Y71.636 E.03064
G1 X169.861 Y72.492 E.03149
G1 X169.132 Y73.215 E.03213
G1 X168.252 Y73.73 E.03191
G1 X167.097 Y74.009 E.03719
G1 X136.747 Y74.009 E.94983
G1 X135.671 Y73.741 E.0347
G1 X134.817 Y73.253 E.03078
G1 X134.053 Y72.527 E.03298
G1 X133.473 Y71.565 E.03516
G1 X133.189 Y70.402 E.03747
G1 X133.214 Y60.365 E.31412
G1 X133.471 Y59.473 E.02905
G1 X133.801 Y59.566 F72000
G1 F9000
G1 X134.288 Y58.749 E.02977
G1 X134.949 Y58.084 E.02934
G1 X135.792 Y57.589 E.03059
G1 X136.817 Y57.342 E.033
G1 X167.111 Y57.346 E.94807
G1 X167.848 Y57.494 E.02353
G1 X168.534 Y57.797 E.02347
G1 X169.497 Y58.622 E.03969
G1 X170.082 Y59.532 E.03386
G1 X170.356 Y60.575 E.03375
G1 X170.329 Y70.622 E.31443
G1 X170.063 Y71.514 E.02913
G1 X169.578 Y72.289 E.02861
G1 X168.905 Y72.951 E.02954
G1 X168.1 Y73.415 E.02908
G1 X167.077 Y73.661 E.03293
G1 X136.769 Y73.661 E.94851
G1 X135.781 Y73.409 E.03191
G1 X135.011 Y72.962 E.02786
G1 X134.312 Y72.292 E.0303
G1 X133.786 Y71.41 E.03214
G1 X133.537 Y70.382 E.0331
G1 X133.556 Y60.436 E.31127
G1 X133.785 Y59.623 E.02643
G1 X134.115 Y59.714 F72000
G1 F9000
G1 X134.55 Y58.979 E.02673
G1 X135.179 Y58.346 E.02793
G1 X135.943 Y57.904 E.02762
G1 X136.837 Y57.691 E.02876
G1 X167.093 Y57.694 E.94688
G1 X167.758 Y57.832 E.02126
G1 X168.368 Y58.104 E.0209
G1 X169.25 Y58.869 E.03654
G1 X169.752 Y59.649 E.02903
G1 X170.007 Y60.598 E.03075
G1 X169.987 Y70.549 E.31142
G1 X169.754 Y71.351 E.02614
G1 X169.317 Y72.057 E.02598
G1 X168.71 Y72.66 E.02678
G1 X167.948 Y73.1 E.02754
G1 X167.057 Y73.312 E.02866
G1 X136.792 Y73.312 E.94717
G1 X135.894 Y73.079 E.02903
G1 X135.207 Y72.673 E.02497
G1 X134.572 Y72.059 E.02764
G1 X134.099 Y71.256 E.02917
G1 X133.886 Y70.362 E.02876
G1 X133.898 Y60.505 E.30848
G1 X134.099 Y59.772 E.02379
G1 X134.435 Y59.864 F72000
G1 F9000
G1 X134.449 Y59.814 E.00162
G1 X134.836 Y59.179 E.02327
G1 X135.408 Y58.61 E.02525
G1 X136.093 Y58.219 E.02468
G1 X136.857 Y58.039 E.02456
G1 X167.075 Y58.043 E.94569
G1 X167.633 Y58.158 E.01783
G1 X168.201 Y58.411 E.01946
G1 X169 Y59.114 E.03331
G1 X169.444 Y59.813 E.02592
G1 X169.659 Y60.62 E.02614
G1 X169.646 Y70.478 E.30851
G1 X169.444 Y71.191 E.02319
G1 X169.056 Y71.825 E.02326
G1 X168.482 Y72.396 E.02534
G1 X167.798 Y72.785 E.02463
G1 X167.037 Y72.964 E.02447
G1 X136.815 Y72.964 E.94582
G1 X136.008 Y72.749 E.02614
G1 X135.405 Y72.386 E.02203
G1 X134.833 Y71.827 E.02503
G1 X134.414 Y71.104 E.02615
G1 X134.234 Y70.342 E.0245
G1 X134.241 Y60.575 E.30567
G1 X134.42 Y59.922 E.02119
G1 X134.756 Y60.014 F72000
G1 F9000
G1 X134.779 Y59.931 E.0027
G1 X135.098 Y59.41 E.01912
G1 X135.602 Y58.9 E.02244
G1 X136.244 Y58.535 E.02311
G1 X136.876 Y58.388 E.02031
G1 X167.056 Y58.391 E.94451
G1 X167.541 Y58.494 E.01552
G1 X168.032 Y58.717 E.01688
G1 X168.75 Y59.357 E.0301
G1 X169.115 Y59.931 E.02129
G1 X169.31 Y60.644 E.02313
G1 X169.304 Y70.406 E.30551
G1 X169.115 Y71.072 E.02167
G1 X168.772 Y71.623 E.02031
G1 X168.255 Y72.131 E.02268
G1 X167.65 Y72.468 E.02167
G1 X167.017 Y72.615 E.02034
G1 X136.839 Y72.615 E.94444
G1 X136.126 Y72.42 E.02313
G1 X135.605 Y72.1 E.01914
G1 X135.095 Y71.597 E.02242
G1 X134.73 Y70.955 E.02311
G1 X134.583 Y70.322 E.02034
G1 X134.583 Y60.644 E.30288
G1 X134.74 Y60.072 E.01856
G1 X135.074 Y60.167 F72000
G1 F9000
G1 X135.106 Y60.051 E.00377
G1 X135.382 Y59.613 E.0162
G1 X135.83 Y59.165 E.01983
G1 X136.391 Y58.851 E.02012
G1 X136.895 Y58.736 E.01618
G1 X167.037 Y58.74 E.94332
G1 X167.447 Y58.83 E.01314
G1 X167.861 Y59.022 E.01428
G1 X168.499 Y59.599 E.02692
G1 X168.787 Y60.051 E.01677
G1 X168.962 Y60.669 E.0201
G1 X168.962 Y70.334 E.30247
G1 X168.787 Y70.952 E.0201
G1 X168.511 Y71.39 E.0162
G1 X168.063 Y71.839 E.01985
G1 X167.502 Y72.152 E.0201
G1 X166.998 Y72.267 E.01618
G1 X136.864 Y72.267 E.94307
G1 X136.246 Y72.092 E.0201
G1 X135.808 Y71.816 E.0162
G1 X135.36 Y71.368 E.01983
G1 X135.046 Y70.807 E.02012
G1 X134.931 Y70.303 E.01618
G1 X134.931 Y60.669 E.3015
G1 X135.057 Y60.224 E.01447
G1 X135.39 Y60.322 F72000
G1 F9000
G1 X135.433 Y60.174 E.00482
G1 X135.642 Y59.846 E.01217
G1 X136.058 Y59.429 E.01843
G1 X136.535 Y59.17 E.01699
G1 X136.914 Y59.085 E.01216
G1 X167.016 Y59.088 E.94206
G1 X167.348 Y59.165 E.01067
G1 X167.686 Y59.325 E.0117
G1 X168.246 Y59.84 E.02381
G1 X168.46 Y60.174 E.01241
G1 X168.613 Y60.695 E.01699
G1 X168.613 Y70.308 E.30085
G1 X168.46 Y70.829 E.01699
G1 X168.252 Y71.157 E.01215
G1 X167.835 Y71.574 E.01846
G1 X167.358 Y71.834 E.017
G1 X166.979 Y71.918 E.01215
G1 X136.89 Y71.918 E.94166
G1 X136.369 Y71.765 E.01699
G1 X136.041 Y71.557 E.01215
G1 X135.624 Y71.14 E.01846
G1 X135.365 Y70.663 E.01699
G1 X135.28 Y70.284 E.01216
G1 X135.28 Y60.695 E.30009
G1 X135.373 Y60.38 E.01028
G1 X135.703 Y60.482 F72000
G1 F9000
G1 X135.759 Y60.301 E.00593
G1 X135.901 Y60.08 E.00822
G1 X136.285 Y59.695 E.01702
G1 X136.675 Y59.489 E.0138
G1 X136.932 Y59.433 E.00823
G1 X166.996 Y59.437 E.94087
G1 X167.216 Y59.488 E.00707
G1 X167.512 Y59.628 E.01025
G1 X167.991 Y60.079 E.02059
G1 X168.135 Y60.301 E.00828
G1 X168.265 Y60.722 E.01379
G1 X168.265 Y70.281 E.29916
G1 X168.135 Y70.702 E.01379
G1 X167.993 Y70.924 E.00825
G1 X167.608 Y71.308 E.01702
G1 X167.218 Y71.514 E.0138
G1 X166.961 Y71.57 E.00823
G1 X136.917 Y71.57 E.94025
G1 X136.496 Y71.44 E.01379
G1 X136.275 Y71.298 E.00822
G1 X135.89 Y70.913 E.01704
G1 X135.684 Y70.523 E.0138
G1 X135.628 Y70.266 E.00823
G1 X135.628 Y60.722 E.29869
G1 X135.685 Y60.539 E.006
G1 X136.012 Y60.646 F72000
G1 F9000
G1 X136.081 Y60.433 E.00701
G1 X136.159 Y60.314 E.00445
G1 X136.511 Y59.962 E.01558
G1 X136.81 Y59.811 E.01048
G1 X136.95 Y59.782 E.00447
G1 X166.976 Y59.785 E.93969
G1 X167.084 Y59.811 E.00348
G1 X167.336 Y59.93 E.00872
G1 X167.735 Y60.315 E.01735
G1 X167.812 Y60.433 E.00441
G1 X167.916 Y60.751 E.01047
G1 X167.916 Y70.252 E.29734
G1 X167.812 Y70.57 E.01047
G1 X167.734 Y70.689 E.00445
G1 X167.382 Y71.041 E.01558
G1 X167.083 Y71.192 E.01048
G1 X166.944 Y71.221 E.00444
G1 X136.947 Y71.221 E.93878
G1 X136.628 Y71.117 E.0105
G1 X136.509 Y71.039 E.00445
G1 X136.157 Y70.687 E.01558
G1 X136.006 Y70.388 E.01048
G1 X135.977 Y70.249 E.00444
G1 X135.977 Y60.751 E.29725
G1 X135.993 Y60.703 E.00158
G1 X136.325 Y60.784 F72000
G1 F9000
G1 X136.417 Y60.549 E.0079
G1 X136.735 Y60.232 E.01405
G1 X136.966 Y60.13 E.0079
G1 X166.957 Y60.136 E.93859
G1 X167.159 Y60.232 E.007
G1 X167.476 Y60.549 E.01403
G1 X167.568 Y60.784 E.0079
G1 X167.568 Y70.219 E.29528
G1 X167.476 Y70.454 E.0079
G1 X167.159 Y70.772 E.01405
G1 X166.927 Y70.873 E.00792
G1 X136.979 Y70.873 E.93724
G1 X136.744 Y70.781 E.0079
G1 X136.427 Y70.464 E.01403
G1 X136.325 Y70.232 E.00793
G1 X136.325 Y60.844 E.2938
G1 X136.674 Y60.844 F72000
G1 F9000
G1 X136.7 Y60.759 E.00278
G1 X136.954 Y60.505 E.01124
G1 X137.018 Y60.479 E.00216
G1 X166.876 Y60.479 E.93443
G1 X166.94 Y60.505 E.00216
G1 X167.193 Y60.759 E.01122
G1 X167.219 Y60.823 E.00216
G1 X167.219 Y70.181 E.29287
G1 X167.193 Y70.245 E.00216
G1 X166.94 Y70.498 E.0112
G1 X166.876 Y70.524 E.00216
G1 X137.018 Y70.524 E.93443
G1 X136.954 Y70.498 E.00216
G1 X136.7 Y70.245 E.01122
G1 X136.674 Y70.181 E.00216
G1 X136.674 Y60.904 E.29033
G1 X137.022 Y60.929 F72000
G1 F9000
G1 X137.124 Y60.827 E.00451
G1 X166.769 Y60.827 E.92776
G1 X166.871 Y60.929 E.00451
G1 X166.871 Y70.074 E.2862
G1 X166.769 Y70.176 E.00451
G1 X137.124 Y70.176 E.92776
G1 X137.022 Y70.074 E.00451
G1 X137.022 Y60.989 E.28432
G1 E-.75 F3000
G1 X165.451 Y68.756 F72000
G1 E.75 F1800
;TYPE:Perimeter
;WIDTH:0.399999
G1 F9000
G1 X159.91 Y68.756 E.17341
G1 X160.304 Y68.371 E.01724
G1 X160.827 Y67.593 E.02934
G1 X161.159 Y66.72 E.02923
G1 X161.285 Y65.809 E.02878
G1 X161.202 Y64.875 E.02935
G1 X160.908 Y63.981 E.02945
G1 X160.412 Y63.169 E.02978
G1 X159.976 Y62.693 E.0202
G1 X159.381 Y62.247 E.02327
G1 X165.451 Y62.247 E.18996
G1 X165.451 Y68.696 E.20183
G1 X165.8 Y69.105 F72000
G1 F9000
G1 X158.765 Y69.105 E.22017
G1 X159.385 Y68.751 E.02234
G1 X160.021 Y68.167 E.02702
G1 X160.505 Y67.458 E.02687
G1 X160.816 Y66.66 E.0268
G1 X160.937 Y65.828 E.02631
G1 X160.867 Y64.972 E.02688
G1 X160.605 Y64.153 E.02691
G1 X160.156 Y63.405 E.0273
G1 X159.57 Y62.8 E.02636
G1 X158.893 Y62.35 E.02544
;WIDTH:0.446612
G1 X158.759 Y62.283 E.00532
;WIDTH:0.493224
G1 X158.626 Y62.216 E.00591
;WIDTH:0.539836
G1 X158.492 Y62.149 E.00657
;WIDTH:0.586448
G1 X158.359 Y62.082 E.00715
;WIDTH:0.63306
G1 X158.225 Y62.015 E.00782
G1 X158.312 Y61.992 E.0047
;WIDTH:0.586448
G1 X158.398 Y61.969 E.00428
;WIDTH:0.539836
G1 X158.484 Y61.945 E.00392
;WIDTH:0.493224
G1 X158.57 Y61.922 E.00353
;WIDTH:0.446612
G1 X158.656 Y61.899 E.00316
;WIDTH:0.399999
G1 X165.8 Y61.899 E.22358
G1 X165.8 Y64.398 E.07821
G1 X165.8 Y69.045 E.14543
G1 E-.75 F3000
G1 X143.965 Y68.756 F72000
G1 E.75 F1800
G1 F9000
G1 X138.442 Y68.756 E.17285
G1 X138.442 Y62.247 E.2037
G1 X144.493 Y62.247 E.18937
G1 X144.298 Y62.379 E.00737
G1 X143.735 Y62.868 E.02334
G1 X143.34 Y63.333 E.01909
G1 X142.918 Y64.105 E.02753
G1 X142.671 Y64.949 E.02752
G1 X142.608 Y65.818 E.02727
G1 X142.731 Y66.71 E.02818
G1 X143.046 Y67.553 E.02816
G1 X143.536 Y68.308 E.02817
G1 X143.923 Y68.713 E.01753
G1 X145.103 Y69.105 F72000
G1 F9000
G1 X138.094 Y69.105 E.21935
G1 X138.094 Y61.899 E.22552
G1 X144.525 Y61.899 E.20126
;WIDTH:0.449162
G1 X145.18 Y61.923 E.02341
;WIDTH:0.498879
G1 X145.259 Y61.948 E.00333
;WIDTH:0.548595
G1 X145.338 Y61.973 E.0037
;WIDTH:0.598312
G1 X145.417 Y61.998 E.00407
;WIDTH:0.648028
G1 X145.496 Y62.023 E.00444
G1 X145.435 Y62.07 E.00413
;WIDTH:0.598312
G1 X145.373 Y62.116 E.00379
;WIDTH:0.548595
G1 X145.312 Y62.163 E.00344
;WIDTH:0.498879
G1 X145.251 Y62.21 E.00309
;WIDTH:0.449162
G1 X144.524 Y62.645 E.03025
;WIDTH:0.399999
G1 X143.989 Y63.107 E.02212
G1 X143.64 Y63.509 E.01666
G1 X143.249 Y64.213 E.0252
G1 X143.018 Y64.985 E.02522
G1 X142.954 Y65.781 E.02499
G1 X143.062 Y66.599 E.02582
G1 X143.344 Y67.373 E.02578
