; generated by PrusaSlicer 2.6.0-alpha6+win64 on 2023-07-17 at 11:20:54 UTC

; 

; external perimeters extrusion width = 0.38mm
; perimeters extrusion width = 0.38mm
; infill extrusion width = 0.45mm
; solid infill extrusion width = 0.45mm
; top infill extrusion width = 0.44mm
; support material extrusion width = 0.40mm
; first layer extrusion width = 0.40mm

M190 S100 ; set bed temperature and wait for it to be reached
M104 S250 ; set temperature
;TYPE:Custom
print_start EXTRUDER=250 BED=100
M109 S250 ; set temperature and wait for it to be reached
G21 ; set units to millimeters
G90 ; use absolute coordinates
M83 ; use relative distances for extrusion
;Filament gcode
M107
;LAYER_CHANGE
;Z:0.24
;HEIGHT:0.24
G1 Z.24 F72000
G1 E-.75 F3000
G1 X137.147 Y129.825 F72000
G1 E.75 F1800
M204 S4000
;TYPE:Skirt/Brim
;WIDTH:0.4
G1 F9000
G1 X140.075 Y126.897 E.12959
G1 X141.697 Y125.835 E.06067
G1 X143.429 Y125.508 E.05516
G1 X156.571 Y125.508 E.41129
G1 X158.468 Y125.903 E.06064
G1 X159.925 Y126.897 E.0552
G1 X162.853 Y129.825 E.12959
G1 X163.915 Y131.447 E.06067
G1 X164.242 Y133.179 E.05516
G1 X164.242 Y166.821 E1.05285
G1 X163.847 Y168.718 E.06064
G1 X162.853 Y170.175 E.0552
G1 X159.925 Y173.103 E.12959
G1 X158.304 Y174.165 E.06065
G1 X156.571 Y174.492 E.05519
G1 X143.429 Y174.492 E.41129
G1 X141.532 Y174.097 E.06064
G1 X140.075 Y173.103 E.0552
G1 X137.147 Y170.175 E.12959
G1 X136.085 Y168.554 E.06065
G1 X135.758 Y166.821 E.05519
G1 X135.758 Y133.179 E1.05285
G1 X136.153 Y131.282 E.06064
G1 X137.113 Y129.875 E.05331
G1 X137.393 Y130.072 F72000
G1 F9000
G1 X140.322 Y127.143 E.12963
G1 X141.89 Y126.134 E.05835
G1 X143.429 Y125.856 E.04894
G1 X156.571 Y125.856 E.41129
G1 X158.393 Y126.251 E.05835
G1 X159.678 Y127.143 E.04895
G1 X162.607 Y130.072 E.12963
G1 X163.616 Y131.64 E.05835
G1 X163.894 Y133.179 E.04894
G1 X163.894 Y166.821 E1.05285
G1 X163.499 Y168.643 E.05835
G1 X162.607 Y169.928 E.04895
G1 X159.678 Y172.857 E.12963
G1 X158.11 Y173.866 E.05835
G1 X156.571 Y174.144 E.04894
G1 X143.429 Y174.144 E.41129
G1 X141.607 Y173.749 E.05835
G1 X140.322 Y172.857 E.04895
G1 X137.393 Y169.928 E.12963
G1 X136.384 Y168.36 E.05835
G1 X136.106 Y166.821 E.04894
G1 X136.106 Y133.179 E1.05285
G1 X136.501 Y131.357 E.05835
G1 X137.359 Y130.121 E.04709
G1 X137.639 Y130.319 F72000
G1 F9000
G1 X140.568 Y127.389 E.12966
G1 X142.081 Y126.436 E.05596
G1 X143.429 Y126.205 E.0428
G1 X156.571 Y126.205 E.41129
G1 X158.315 Y126.6 E.05596
G1 X159.432 Y127.389 E.0428
G1 X162.361 Y130.318 E.12963
G1 X163.314 Y131.831 E.05596
G1 X163.545 Y133.179 E.0428
G1 X163.545 Y166.821 E1.05285
G1 X163.15 Y168.565 E.05596
G1 X162.361 Y169.682 E.0428
G1 X159.432 Y172.611 E.12963
G1 X157.919 Y173.564 E.05596
G1 X156.571 Y173.795 E.0428
G1 X143.429 Y173.795 E.41129
G1 X141.685 Y173.4 E.05596
G1 X140.568 Y172.611 E.0428
G1 X137.639 Y169.682 E.12963
G1 X136.686 Y168.169 E.05596
G1 X136.455 Y166.821 E.0428
G1 X136.455 Y133.179 E1.05285
G1 X136.85 Y131.435 E.05596
G1 X137.604 Y130.368 E.04089
G1 X137.882 Y130.569 F72000
G1 F9000
G1 X140.815 Y127.636 E.12981
G1 X142.269 Y126.74 E.05345
G1 X143.429 Y126.553 E.03677
G1 X156.571 Y126.553 E.41129
G1 X158.233 Y126.948 E.05346
G1 X159.185 Y127.636 E.03676
G1 X162.114 Y130.565 E.12963
G1 X163.01 Y132.019 E.05345
G1 X163.197 Y133.179 E.03677
G1 X163.197 Y166.821 E1.05285
G1 X162.802 Y168.483 E.05346
G1 X162.114 Y169.435 E.03676
G1 X159.185 Y172.364 E.12963
G1 X157.731 Y173.26 E.05345
G1 X156.571 Y173.447 E.03677
G1 X143.429 Y173.447 E.41129
G1 X141.767 Y173.052 E.05346
G1 X140.815 Y172.364 E.03676
G1 X137.886 Y169.435 E.12963
G1 X136.99 Y167.981 E.05345
G1 X136.803 Y166.821 E.03677
G1 X136.803 Y133.179 E1.05285
G1 X137.198 Y131.517 E.05346
G1 X137.847 Y130.618 E.0347
G1 X138.124 Y130.823 F72000
G1 F9000
G1 X141.061 Y127.882 E.13008
G1 X142.454 Y127.047 E.05083
G1 X143.429 Y126.902 E.03085
G1 X156.571 Y126.902 E.41129
G1 X158.147 Y127.296 E.05084
G1 X158.939 Y127.882 E.03083
G1 X161.868 Y130.811 E.12963
G1 X162.703 Y132.204 E.05083
G1 X162.848 Y133.179 E.03085
G1 X162.848 Y166.821 E1.05285
G1 X162.454 Y168.397 E.05084
G1 X161.868 Y169.189 E.03083
G1 X158.939 Y172.118 E.12963
G1 X157.546 Y172.953 E.05083
G1 X156.571 Y173.098 E.03085
G1 X143.429 Y173.098 E.41129
G1 X141.853 Y172.704 E.05084
G1 X141.061 Y172.118 E.03083
G1 X138.132 Y169.189 E.12963
G1 X137.297 Y167.796 E.05083
G1 X137.152 Y166.821 E.03085
G1 X137.152 Y133.179 E1.05285
G1 X137.546 Y131.603 E.05084
G1 X138.088 Y130.871 E.0285
G1 E-.75 F3000
G1 X141.482 Y132.75 F72000
G1 E.75 F1800
G1 F9000
G1 X142.417 Y131.675 E.04459
G1 X143.409 Y131.001 E.03753
G1 X144.57 Y130.609 E.03835
G1 X155.258 Y130.581 E.33449
G1 X156.088 Y130.787 E.02676
G1 X156.842 Y131.127 E.02589
G1 X158.037 Y132.126 E.04875
G1 X158.83 Y133.334 E.04522
G1 X159.205 Y134.755 E.04599
G1 X159.205 Y165.131 E.95064
G1 X159.098 Y165.91 E.02461
G1 X158.518 Y167.25 E.0457
G1 X157.583 Y168.325 E.04459
G1 X156.591 Y168.999 E.03753
G1 X155.431 Y169.391 E.03832
G1 X145.124 Y169.455 E.32257
G1 X144.341 Y169.348 E.02473
G1 X143 Y168.768 E.04572
G1 X141.919 Y167.828 E.04483
G1 X141.164 Y166.655 E.04366
G1 X140.795 Y165.243 E.04567
G1 X140.795 Y134.869 E.95058
G1 X140.902 Y134.09 E.02461
G1 X141.459 Y132.805 E.04383
G1 X141.777 Y132.945 F72000
G1 F9000
G1 X142.663 Y131.922 E.04235
G1 X143.583 Y131.303 E.0347
G1 X144.653 Y130.948 E.03528
G1 X155.196 Y130.925 E.32995
G1 X155.96 Y131.111 E.02461
G1 X156.677 Y131.434 E.02461
G1 X157.792 Y132.375 E.04566
G1 X158.523 Y133.499 E.04196
G1 X158.856 Y134.777 E.04133
G1 X158.856 Y165.119 E.94957
G1 X158.756 Y165.837 E.02269
G1 X158.21 Y167.085 E.04263
G1 X157.337 Y168.078 E.04138
G1 X156.417 Y168.697 E.0347
G1 X155.348 Y169.052 E.03525
G1 X145.135 Y169.106 E.31963
G1 X144.413 Y169.006 E.02281
G1 X143.165 Y168.46 E.04263
G1 X142.168 Y167.583 E.04156
G1 X141.473 Y166.491 E.04051
G1 X141.144 Y165.221 E.04106
G1 X141.144 Y134.881 E.94951
G1 X141.244 Y134.163 E.02269
G1 X141.753 Y133 E.03973
G1 X142.071 Y133.141 F72000
G1 F9000
G1 X142.097 Y133.082 E.00202
G1 X142.908 Y132.171 E.03817
G1 X143.756 Y131.607 E.03187
G1 X144.734 Y131.288 E.03219
G1 X155.135 Y131.268 E.32551
G1 X155.832 Y131.436 E.02244
G1 X156.511 Y131.742 E.02331
G1 X157.547 Y132.624 E.04258
G1 X158.193 Y133.616 E.03705
G1 X158.508 Y134.8 E.03834
G1 X158.508 Y165.107 E.94848
G1 X158.415 Y165.764 E.02077
G1 X157.903 Y166.918 E.03951
G1 X157.092 Y167.829 E.03817
G1 X156.244 Y168.393 E.03187
G1 X155.266 Y168.712 E.03219
G1 X145.146 Y168.758 E.31672
G1 X144.486 Y168.665 E.02086
G1 X143.332 Y168.153 E.03951
G1 X142.419 Y167.34 E.03826
G1 X141.783 Y166.329 E.03738
G1 X141.492 Y165.2 E.03649
G1 X141.492 Y134.893 E.94848
G1 X141.585 Y134.236 E.02077
G1 X142.047 Y133.196 E.03561
G1 X142.364 Y133.339 F72000
G1 F9000
G1 X142.404 Y133.251 E.00303
G1 X143.151 Y132.422 E.03492
G1 X143.927 Y131.912 E.02906
G1 X144.814 Y131.628 E.02915
G1 X155.074 Y131.612 E.32109
G1 X155.734 Y131.77 E.02124
G1 X156.343 Y132.048 E.02095
G1 X157.3 Y132.871 E.0395
G1 X157.885 Y133.781 E.03386
G1 X158.159 Y134.823 E.03372
G1 X158.159 Y165.094 E.94735
G1 X158.073 Y165.69 E.01885
G1 X157.596 Y166.749 E.03635
G1 X156.849 Y167.578 E.03492
G1 X156.074 Y168.088 E.02903
G1 X155.186 Y168.372 E.02918
G1 X145.158 Y168.409 E.31384
G1 X144.561 Y168.323 E.01888
G1 X143.501 Y167.846 E.03638
G1 X142.67 Y167.098 E.03499
G1 X142.113 Y166.214 E.0327
G1 X141.841 Y165.177 E.03355
G1 X141.841 Y134.906 E.94735
G1 X141.927 Y134.31 E.01885
G1 X142.34 Y133.393 E.03147
G1 X142.652 Y133.531 F72000
G1 F9000
G1 X142.681 Y133.463 E.00231
G1 X143.394 Y132.672 E.03333
G1 X144.095 Y132.218 E.02614
G1 X144.892 Y131.969 E.02613
G1 X155.014 Y131.956 E.31678
G1 X155.605 Y132.095 E.019
G1 X156.175 Y132.355 E.01961
G1 X157.053 Y133.117 E.03638
G1 X157.556 Y133.898 E.02907
G1 X157.811 Y134.846 E.03072
G1 X157.811 Y165.083 E.94629
G1 X157.744 Y165.572 E.01545
G1 X157.319 Y166.537 E.033
G1 X156.606 Y167.328 E.03333
G1 X155.905 Y167.782 E.02614
G1 X155.108 Y168.031 E.02613
G1 X145.168 Y168.061 E.31108
G1 X144.678 Y167.994 E.01548
G1 X143.713 Y167.569 E.033
G1 X142.922 Y166.856 E.03333
G1 X142.423 Y166.053 E.02959
G1 X142.189 Y165.155 E.02904
G1 X142.189 Y134.917 E.94632
G1 X142.256 Y134.428 E.01545
G1 X142.627 Y133.586 E.0288
G1 X142.944 Y133.728 F72000
G1 F9000
G1 X142.987 Y133.632 E.00329
G1 X143.635 Y132.925 E.03001
G1 X144.262 Y132.525 E.02328
G1 X144.969 Y132.31 E.02313
G1 X154.954 Y132.3 E.31249
G1 X155.508 Y132.43 E.01781
G1 X156.005 Y132.66 E.01714
G1 X156.803 Y133.362 E.03326
G1 X157.247 Y134.061 E.02592
G1 X157.462 Y134.869 E.02617
G1 X157.462 Y165.07 E.94516
G1 X157.403 Y165.499 E.01355
G1 X157.013 Y166.368 E.02981
G1 X156.365 Y167.075 E.03001
G1 X155.738 Y167.475 E.02328
G1 X155.032 Y167.69 E.0231
G1 X145.18 Y167.712 E.30833
G1 X144.751 Y167.653 E.01355
G1 X143.882 Y167.263 E.02981
G1 X143.175 Y166.615 E.03001
G1 X142.753 Y165.938 E.02497
G1 X142.538 Y165.131 E.02614
G1 X142.538 Y134.93 E.94516
G1 X142.597 Y134.501 E.01355
G1 X142.92 Y133.783 E.02464
G1 X143.235 Y133.927 F72000
G1 F9000
G1 X143.292 Y133.804 E.00424
G1 X143.874 Y133.179 E.02673
G1 X144.386 Y132.851 E.01903
G1 X145.045 Y132.651 E.02155
G1 X154.896 Y132.644 E.30829
G1 X155.378 Y132.754 E.01547
G1 X155.835 Y132.965 E.01575
G1 X156.553 Y133.606 E.03012
G1 X156.918 Y134.179 E.02126
G1 X157.114 Y134.893 E.02317
G1 X157.114 Y165.058 E.94404
G1 X157.061 Y165.424 E.01157
G1 X156.708 Y166.196 E.02657
G1 X156.126 Y166.821 E.02673
G1 X155.614 Y167.149 E.01903
G1 X154.955 Y167.349 E.02155
G1 X145.192 Y167.364 E.30554
G1 X144.826 Y167.311 E.01157
G1 X144.054 Y166.958 E.02657
G1 X143.43 Y166.376 E.0267
G1 X143.082 Y165.82 E.02053
G1 X142.886 Y165.108 E.02311
G1 X142.886 Y134.942 E.94407
G1 X142.939 Y134.576 E.01157
G1 X143.21 Y133.982 E.02043
G1 X143.524 Y134.129 F72000
G1 F9000
G1 X143.595 Y133.979 E.00519
G1 X144.111 Y133.436 E.02344
G1 X144.55 Y133.159 E.01625
G1 X145.119 Y132.992 E.01856
G1 X154.84 Y132.988 E.30423
G1 X155.25 Y133.078 E.01314
G1 X155.664 Y133.27 E.01428
G1 X156.302 Y133.848 E.02694
G1 X156.59 Y134.299 E.01675
G1 X156.765 Y134.917 E.0201
G1 X156.765 Y165.045 E.94288
G1 X156.721 Y165.347 E.00955
G1 X156.405 Y166.021 E.0233
G1 X155.889 Y166.564 E.02344
G1 X155.45 Y166.841 E.01625
G1 X154.881 Y167.008 E.01856
G1 X145.205 Y167.015 E.30282
G1 X144.903 Y166.971 E.00955
G1 X144.229 Y166.655 E.0233
G1 X143.686 Y166.139 E.02344
G1 X143.41 Y165.701 E.0162
G1 X143.235 Y165.083 E.0201
G1 X143.235 Y134.955 E.94288
G1 X143.279 Y134.653 E.00955
G1 X143.499 Y134.183 E.01624
G1 X143.811 Y134.333 F72000
G1 F9000
G1 X143.896 Y134.156 E.00614
G1 X144.345 Y133.694 E.02016
G1 X144.672 Y133.487 E.01211
G1 X145.193 Y133.333 E.017
G1 X154.82 Y133.337 E.30128
G1 X155.152 Y133.413 E.01066
G1 X155.49 Y133.573 E.0117
G1 X156.049 Y134.088 E.02379
G1 X156.263 Y134.423 E.01244
G1 X156.417 Y134.943 E.01697
G1 X156.417 Y165.031 E.94163
G1 X156.38 Y165.268 E.00751
G1 X156.104 Y165.844 E.01999
G1 X155.655 Y166.306 E.02016
G1 X155.328 Y166.513 E.01211
G1 X154.807 Y166.667 E.017
G1 X145.219 Y166.667 E.30006
G1 X144.982 Y166.63 E.00751
G1 X144.406 Y166.354 E.01999
G1 X143.944 Y165.905 E.02016
G1 X143.737 Y165.578 E.01211
G1 X143.583 Y165.057 E.017
G1 X143.583 Y134.969 E.94163
G1 X143.62 Y134.732 E.00751
G1 X143.785 Y134.387 E.01197
G1 X144.095 Y134.54 F72000
G1 F9000
G1 X144.194 Y134.338 E.00704
G1 X144.578 Y133.954 E.017
G1 X144.799 Y133.812 E.00822
G1 X145.221 Y133.682 E.01382
G1 X154.799 Y133.685 E.29975
G1 X155.02 Y133.736 E.0071
G1 X155.315 Y133.876 E.01022
G1 X155.795 Y134.327 E.02061
G1 X155.938 Y134.549 E.00826
G1 X156.068 Y134.971 E.01382
G1 X156.068 Y165.016 E.94028
G1 X156.041 Y165.185 E.00536
G1 X155.806 Y165.662 E.01664
G1 X155.422 Y166.046 E.017
G1 X155.201 Y166.188 E.00822
G1 X154.779 Y166.318 E.01382
G1 X145.234 Y166.318 E.29872
G1 X145.065 Y166.291 E.00536
G1 X144.588 Y166.056 E.01664
G1 X144.204 Y165.672 E.017
G1 X144.062 Y165.451 E.00822
G1 X143.932 Y165.029 E.01382
G1 X143.932 Y134.984 E.94028
G1 X143.959 Y134.815 E.00536
G1 X144.068 Y134.593 E.00774
G1 X144.374 Y134.742 F72000
G1 F9000
G1 X144.462 Y134.563 E.00624
G1 X144.812 Y134.213 E.01549
G1 X144.932 Y134.135 E.00448
G1 X145.25 Y134.03 E.01048
G1 X154.779 Y134.034 E.29822
G1 X154.887 Y134.059 E.00347
G1 X155.14 Y134.178 E.00875
G1 X155.538 Y134.563 E.01733
G1 X155.615 Y134.682 E.00444
G1 X155.72 Y135 E.01048
G1 X155.72 Y165 E.93887
G1 X155.702 Y165.1 E.00318
G1 X155.538 Y165.437 E.01173
G1 X155.188 Y165.787 E.01549
G1 X155.068 Y165.865 E.00448
G1 X154.75 Y165.97 E.01048
G1 X145.25 Y165.97 E.29731
G1 X145.15 Y165.952 E.00318
G1 X144.813 Y165.788 E.01173
G1 X144.463 Y165.438 E.01549
G1 X144.385 Y165.318 E.00448
G1 X144.28 Y165 E.01048
G1 X144.28 Y135 E.93887
G1 X144.298 Y134.9 E.00318
G1 X144.348 Y134.796 E.00361
G1 X144.657 Y134.942 F72000
G1 F9000
G1 X144.73 Y134.788 E.00533
G1 X145.047 Y134.471 E.01403
G1 X145.282 Y134.379 E.0079
G1 X154.731 Y134.379 E.29571
G1 X154.962 Y134.48 E.00789
G1 X155.279 Y134.797 E.01403
G1 X155.371 Y135.032 E.0079
G1 X155.371 Y164.981 E.93728
G1 X155.27 Y165.212 E.00789
G1 X154.953 Y165.529 E.01403
G1 X154.718 Y165.621 E.0079
G1 X145.269 Y165.621 E.29571
G1 X145.038 Y165.52 E.00789
G1 X144.721 Y165.203 E.01403
G1 X144.629 Y164.968 E.0079
G1 X144.633 Y134.997 E.93796
G1 X144.977 Y135.071 F72000
G1 F9000
G1 X145.004 Y135.007 E.00217
G1 X145.257 Y134.754 E.0112
G1 X145.321 Y134.727 E.00217
G1 X154.679 Y134.727 E.29287
G1 X154.743 Y134.754 E.00217
G1 X154.996 Y135.007 E.0112
G1 X155.023 Y135.071 E.00217
G1 X155.023 Y164.929 E.93443
G1 X154.996 Y164.993 E.00217
G1 X154.743 Y165.246 E.0112
G1 X154.679 Y165.273 E.00217
G1 X145.321 Y165.273 E.29287
G1 X145.257 Y165.246 E.00217
G1 X145.004 Y164.993 E.0112
G1 X144.977 Y164.929 E.00217
G1 X144.977 Y135.131 E.93255
G1 X145.326 Y135.178 F72000
G1 F9000
G1 X145.428 Y135.076 E.00451
G1 X154.572 Y135.076 E.28617
G1 X154.674 Y135.178 E.00451
G1 X154.674 Y164.822 E.92773
G1 X154.572 Y164.924 E.00451
G1 X145.428 Y164.924 E.28617
G1 X145.326 Y164.822 E.00451
G1 X145.326 Y135.238 E.92585
G1 E-.75 F3000
G1 X153.255 Y143.359 F72000
G1 E.75 F1800
;TYPE:Perimeter
;WIDTH:0.399999
G1 F9000
G1 X153.209 Y143.186 E.0056
G1 X152.73 Y142.416 E.02838
G1 X152.106 Y141.8 E.02744
G1 X151.608 Y141.464 E.0188
G1 X151.329 Y141.324 E.00977
G1 X150.518 Y141.075 E.02655
G1 X149.66 Y141.013 E.02692
G1 X148.801 Y141.145 E.0272
G1 X147.983 Y141.477 E.02763
G1 X147.264 Y141.992 E.02768
G1 X146.745 Y142.578 E.0245
G1 X146.745 Y136.495 E.19037
G1 X153.255 Y136.495 E.20373
G1 X153.255 Y143.299 E.21294
G1 E-.75 F3000
G1 X151.74 Y158.427 F72000
G1 E.75 F1800
G1 F9000
G1 X151.913 Y158.338 E.00609
G1 X152.607 Y157.729 E.0289
G1 X152.983 Y157.229 E.01958
G1 X153.255 Y156.714 E.01823
G1 X153.255 Y163.505 E.21253
G1 X146.745 Y163.505 E.20373
G1 X146.745 Y157.422 E.19037
G1 X146.885 Y157.608 E.00729
G1 X147.553 Y158.246 E.02891
G1 X148.356 Y158.702 E.0289
G1 X148.952 Y158.893 E.01959
G1 X149.247 Y158.949 E.0094
G1 X149.949 Y158.991 E.02201
G1 X150.509 Y158.907 E.01772
G1 X151.09 Y158.76 E.01876
G1 X151.687 Y158.454 E.02099
G1 X151.576 Y158.127 F72000
G1 F9000
G1 X151.693 Y158.068 E.0041
G1 X152.329 Y157.52 E.02627
G1 X152.789 Y156.882 E.02462
;WIDTH:0.44203
G1 X152.882 Y156.712 E.0068
;WIDTH:0.484061
G1 X152.976 Y156.542 E.00755
;WIDTH:0.526091
G1 X153.069 Y156.372 E.00826
G1 X153.079 Y156.211 E.00687
;WIDTH:0.517281
G1 X153.079 Y143.789 E.51959
G1 X153.021 Y143.645 E.00649
;WIDTH:0.478187
G1 X152.963 Y143.502 E.00591
;WIDTH:0.439093
G1 X152.906 Y143.358 E.00539
;WIDTH:0.399999
G1 X152.477 Y142.655 E.02577
G1 X151.912 Y142.089 E.02503
G1 X151.214 Y141.653 E.02576
G1 X150.482 Y141.421 E.02403
G1 X149.7 Y141.359 E.02455
G1 X148.92 Y141.472 E.02467
G1 X148.175 Y141.768 E.02509
G1 X147.519 Y142.23 E.02511
G1 X146.988 Y142.832 E.02512
;WIDTH:0.444745
G1 X146.863 Y143.071 E.00952
;WIDTH:0.48949
G1 X146.737 Y143.31 E.01063
;WIDTH:0.534235
G1 X146.612 Y143.55 E.01173
;WIDTH:0.57898
G1 X146.486 Y143.789 E.0128
G1 X146.464 Y143.662 E.00611
;WIDTH:0.534235
G1 X146.442 Y143.535 E.00559
;WIDTH:0.48949
G1 X146.419 Y143.408 E.00508
;WIDTH:0.444745
