; generated by PrusaSlicer 2.6.0-alpha6+win64 on 2023-07-17 at 09:50:53 UTC

; 

; external perimeters extrusion width = 0.38mm
; perimeters extrusion width = 0.38mm
; infill extrusion width = 0.45mm
; solid infill extrusion width = 0.45mm
; top infill extrusion width = 0.44mm
; support material extrusion width = 0.40mm
; first layer extrusion width = 0.40mm

M190 S100 ; set bed temperature and wait for it to be reached
M104 S250 ; set temperature
;TYPE:Custom
print_start EXTRUDER=250 BED=100
M109 S250 ; set temperature and wait for it to be reached
G21 ; set units to millimeters
G90 ; use absolute coordinates
M83 ; use relative distances for extrusion
;Filament gcode
M107
;LAYER_CHANGE
;Z:0.24
;HEIGHT:0.24
G1 Z.24 F72000
G1 E-.75 F3000
G1 X137.294 Y133.607 F72000
G1 E.75 F1800
M204 S4000
;TYPE:Skirt/Brim
;WIDTH:0.4
G1 F9000
G1 X140.223 Y130.678 E.12963
G1 X141.896 Y129.566 E.06287
G1 X143.823 Y129.187 E.06146
G1 X156.177 Y129.187 E.38663
G1 X158.145 Y129.583 E.06282
G1 X159.777 Y130.678 E.06151
G1 X162.706 Y133.607 E.12963
G1 X163.818 Y135.279 E.06284
G1 X164.197 Y137.206 E.06146
G1 X164.197 Y162.794 E.8008
G1 X163.801 Y164.762 E.06282
G1 X162.706 Y166.393 E.06148
G1 X159.777 Y169.322 E.12963
G1 X158.104 Y170.434 E.06287
G1 X156.177 Y170.813 E.06146
G1 X143.823 Y170.813 E.38663
G1 X141.855 Y170.417 E.06282
G1 X140.223 Y169.322 E.06151
G1 X137.294 Y166.393 E.12963
G1 X136.182 Y164.721 E.06284
G1 X135.803 Y162.794 E.06146
G1 X135.803 Y137.206 E.8008
G1 X136.199 Y135.238 E.06282
G1 X137.261 Y133.656 E.05963
G1 X137.541 Y133.853 F72000
G1 F9000
G1 X140.47 Y130.924 E.12963
G1 X142.091 Y129.863 E.06063
G1 X143.823 Y129.535 E.05517
G1 X156.177 Y129.535 E.38663
G1 X158.073 Y129.931 E.06062
G1 X159.53 Y130.924 E.05518
G1 X162.459 Y133.853 E.12963
G1 X163.52 Y135.474 E.06063
G1 X163.848 Y137.206 E.05517
G1 X163.848 Y162.794 E.8008
G1 X163.452 Y164.69 E.06062
G1 X162.459 Y166.147 E.05518
G1 X159.53 Y169.076 E.12963
G1 X157.909 Y170.137 E.06063
G1 X156.177 Y170.465 E.05517
G1 X143.823 Y170.465 E.38663
G1 X141.927 Y170.069 E.06062
G1 X140.47 Y169.076 E.05518
G1 X137.541 Y166.147 E.12963
G1 X136.48 Y164.526 E.06063
G1 X136.152 Y162.794 E.05517
G1 X136.152 Y137.206 E.8008
G1 X136.548 Y135.31 E.06062
G1 X137.507 Y133.903 E.05329
G1 X137.787 Y134.099 F72000
G1 F9000
G1 X140.716 Y131.171 E.12961
G1 X142.284 Y130.162 E.05835
G1 X143.823 Y129.884 E.04894
G1 X156.177 Y129.884 E.38663
G1 X157.998 Y130.279 E.05831
G1 X159.284 Y131.171 E.04898
G1 X162.213 Y134.099 E.12961
G1 X163.221 Y135.667 E.05834
G1 X163.5 Y137.206 E.04895
G1 X163.5 Y162.794 E.8008
G1 X163.104 Y164.615 E.05832
G1 X162.213 Y165.901 E.04896
G1 X159.284 Y168.829 E.12961
G1 X157.716 Y169.838 E.05835
G1 X156.177 Y170.116 E.04894
G1 X143.823 Y170.116 E.38663
G1 X142.002 Y169.721 E.05831
G1 X140.716 Y168.829 E.04898
G1 X137.787 Y165.901 E.12961
G1 X136.779 Y164.333 E.05834
G1 X136.5 Y162.794 E.04895
G1 X136.5 Y137.206 E.8008
G1 X136.896 Y135.385 E.05832
G1 X137.753 Y134.149 E.04707
G1 X138.033 Y134.347 F72000
G1 F9000
G1 X140.963 Y131.417 E.12968
G1 X142.475 Y130.463 E.05595
G1 X143.823 Y130.232 E.0428
G1 X156.177 Y130.232 E.38663
G1 X157.92 Y130.627 E.05593
G1 X159.037 Y131.417 E.04282
G1 X161.966 Y134.346 E.12963
G1 X162.92 Y135.858 E.05595
G1 X163.151 Y137.206 E.0428
G1 X163.151 Y162.794 E.8008
G1 X162.756 Y164.537 E.05593
G1 X161.966 Y165.654 E.04282
G1 X159.037 Y168.583 E.12963
G1 X157.525 Y169.537 E.05595
G1 X156.177 Y169.768 E.0428
G1 X143.823 Y169.768 E.38663
G1 X142.08 Y169.373 E.05593
G1 X140.963 Y168.583 E.04282
G1 X138.034 Y165.654 E.12963
G1 X137.08 Y164.142 E.05595
G1 X136.849 Y162.794 E.0428
G1 X136.849 Y137.206 E.8008
G1 X137.244 Y135.463 E.05593
G1 X137.998 Y134.396 E.04089
G1 X138.277 Y134.597 F72000
G1 F9000
G1 X141.209 Y131.663 E.12981
G1 X142.663 Y130.767 E.05345
G1 X143.823 Y130.581 E.03677
G1 X156.177 Y130.581 E.38663
G1 X157.839 Y130.975 E.05346
G1 X158.791 Y131.663 E.03676
G1 X161.72 Y134.592 E.12963
G1 X162.616 Y136.046 E.05345
G1 X162.803 Y137.206 E.03677
G1 X162.803 Y162.794 E.8008
G1 X162.408 Y164.455 E.05343
G1 X161.72 Y165.408 E.03678
G1 X158.791 Y168.337 E.12963
G1 X157.337 Y169.233 E.05345
G1 X156.177 Y169.419 E.03677
G1 X143.823 Y169.419 E.38663
G1 X142.161 Y169.025 E.05346
G1 X141.209 Y168.337 E.03676
G1 X138.28 Y165.408 E.12963
G1 X137.384 Y163.954 E.05345
G1 X137.197 Y162.794 E.03677
G1 X137.197 Y137.206 E.8008
G1 X137.592 Y135.545 E.05343
G1 X138.242 Y134.646 E.03472
G1 X138.518 Y134.85 F72000
G1 F9000
G1 X141.456 Y131.91 E.13008
G1 X142.848 Y131.074 E.05082
G1 X143.823 Y130.929 E.03085
G1 X156.177 Y130.929 E.38663
G1 X157.753 Y131.323 E.05084
G1 X158.544 Y131.91 E.03083
G1 X161.473 Y134.839 E.12963
G1 X162.309 Y136.232 E.05084
G1 X162.454 Y137.206 E.03082
G1 X162.454 Y162.794 E.8008
G1 X162.06 Y164.369 E.05081
G1 X161.473 Y165.161 E.03085
G1 X158.544 Y168.09 E.12963
G1 X157.152 Y168.926 E.05082
G1 X156.177 Y169.071 E.03085
G1 X143.823 Y169.071 E.38663
G1 X142.247 Y168.677 E.05084
G1 X141.456 Y168.09 E.03083
G1 X138.527 Y165.161 E.12963
G1 X137.691 Y163.768 E.05084
G1 X137.546 Y162.794 E.03082
G1 X137.546 Y137.206 E.8008
G1 X137.94 Y135.631 E.05081
G1 X138.482 Y134.899 E.0285
G1 E-.75 F3000
G1 X141.967 Y136.64 F72000
G1 E.75 F1800
G1 F9000
G1 X142.838 Y135.677 E.04064
G1 X143.813 Y135.024 E.03672
G1 X144.968 Y134.636 E.03813
G1 X154.864 Y134.609 E.3097
G1 X155.694 Y134.814 E.02676
G1 X156.448 Y135.154 E.02589
G1 X157.643 Y136.153 E.04875
G1 X158.413 Y137.31 E.04349
G1 X158.798 Y138.692 E.0449
G1 X158.81 Y161.145 E.70268
G1 X158.6 Y162.22 E.03428
G1 X158.033 Y163.36 E.03985
G1 X157.161 Y164.323 E.04066
G1 X156.136 Y165.001 E.03846
G1 X154.965 Y165.375 E.03847
G1 X145.475 Y165.427 E.297
G1 X144.398 Y165.217 E.03434
G1 X143.174 Y164.592 E.04301
G1 X142.196 Y163.661 E.04226
G1 X141.513 Y162.521 E.04159
G1 X141.19 Y161.216 E.04207
G1 X141.19 Y138.855 E.6998
G1 X141.4 Y137.78 E.03428
G1 X141.94 Y136.694 E.03796
G1 X142.251 Y136.85 F72000
G1 F9000
G1 X143.081 Y135.928 E.03882
G1 X143.985 Y135.327 E.03397
G1 X145.05 Y134.975 E.0351
G1 X154.802 Y134.952 E.3052
G1 X155.566 Y135.139 E.02462
G1 X156.282 Y135.462 E.02458
G1 X157.399 Y136.403 E.04571
G1 X158.106 Y137.478 E.04027
G1 X158.456 Y138.761 E.04162
G1 X158.462 Y161.128 E.69999
G1 X158.263 Y162.128 E.03191
G1 X157.733 Y163.181 E.03689
G1 X156.919 Y164.072 E.03777
G1 X155.966 Y164.696 E.03565
G1 X154.886 Y165.035 E.03543
G1 X145.491 Y165.079 E.29403
G1 X144.489 Y164.88 E.03197
G1 X143.395 Y164.322 E.03843
G1 X142.481 Y163.46 E.03932
G1 X141.845 Y162.41 E.03842
G1 X141.538 Y161.194 E.03925
G1 X141.538 Y138.872 E.69858
G1 X141.737 Y137.872 E.03191
G1 X142.224 Y136.904 E.03391
G1 X142.535 Y137.061 F72000
G1 F9000
G1 X142.567 Y136.998 E.00221
G1 X143.322 Y136.181 E.03481
G1 X144.156 Y135.632 E.03125
G1 X145.132 Y135.315 E.03212
G1 X154.741 Y135.296 E.30072
G1 X155.438 Y135.463 E.02243
G1 X156.116 Y135.769 E.02328
G1 X157.153 Y136.651 E.0426
G1 X157.799 Y137.643 E.03705
G1 X158.113 Y138.828 E.03837
G1 X158.113 Y161.112 E.69739
G1 X157.941 Y161.993 E.02809
G1 X157.433 Y163.002 E.03535
G1 X156.678 Y163.82 E.03484
G1 X155.838 Y164.371 E.03144
G1 X154.807 Y164.695 E.03382
G1 X145.507 Y164.73 E.29105
G1 X144.624 Y164.558 E.02815
G1 X143.614 Y164.049 E.0354
G1 X142.765 Y163.256 E.03636
G1 X142.175 Y162.297 E.03524
G1 X141.887 Y161.171 E.03637
G1 X141.887 Y138.888 E.69736
G1 X142.059 Y138.007 E.02809
G1 X142.508 Y137.114 E.03128
G1 X142.818 Y137.272 F72000
G1 F9000
G1 X142.866 Y137.179 E.00328
G1 X143.561 Y136.435 E.03186
G1 X144.326 Y135.937 E.02857
G1 X145.211 Y135.655 E.02907
G1 X154.68 Y135.639 E.29634
G1 X155.34 Y135.798 E.02125
G1 X155.949 Y136.076 E.02095
G1 X156.906 Y136.898 E.03948
G1 X157.491 Y137.808 E.03386
G1 X157.765 Y138.85 E.03372
G1 X157.765 Y161.094 E.69614
G1 X157.604 Y161.9 E.02572
G1 X157.134 Y162.821 E.03236
G1 X156.439 Y163.565 E.03186
G1 X155.67 Y164.065 E.02871
G1 X154.73 Y164.354 E.03078
G1 X145.524 Y164.382 E.28811
G1 X144.716 Y164.221 E.02578
G1 X143.796 Y163.751 E.03233
G1 X143.022 Y163.02 E.03332
G1 X142.487 Y162.139 E.03226
G1 X142.235 Y161.15 E.03194
G1 X142.235 Y138.906 E.69614
G1 X142.396 Y138.1 E.02572
G1 X142.791 Y137.326 E.02719
G1 X143.099 Y137.486 F72000
G1 F9000
G1 X143.163 Y137.362 E.00437
G1 X143.799 Y136.69 E.02896
G1 X144.494 Y136.243 E.02586
G1 X145.289 Y135.996 E.02605
G1 X154.62 Y135.983 E.29202
G1 X155.211 Y136.122 E.019
G1 X155.781 Y136.382 E.01961
G1 X156.659 Y137.145 E.0364
G1 X157.161 Y137.925 E.02903
G1 X157.416 Y138.874 E.03075
G1 X157.416 Y161.076 E.69483
G1 X157.268 Y161.806 E.02331
G1 X156.837 Y162.638 E.02932
G1 X156.201 Y163.31 E.02896
G1 X155.503 Y163.758 E.02596
G1 X154.654 Y164.013 E.02774
G1 X145.541 Y164.033 E.2852
G1 X144.81 Y163.885 E.02334
G1 X143.979 Y163.454 E.0293
G1 X143.28 Y162.784 E.0303
G1 X142.817 Y162.026 E.0278
G1 X142.584 Y161.127 E.02906
G1 X142.584 Y138.924 E.69486
G1 X142.732 Y138.194 E.02331
G1 X143.071 Y137.539 E.02308
G1 X143.377 Y137.695 F72000
G1 F9000
G1 X143.434 Y137.583 E.00393
G1 X144.037 Y136.946 E.02745
G1 X144.659 Y136.551 E.02306
G1 X145.365 Y136.337 E.02309
G1 X154.56 Y136.327 E.28776
G1 X155.114 Y136.457 E.01781
G1 X155.611 Y136.687 E.01714
G1 X156.409 Y137.389 E.03326
G1 X156.853 Y138.089 E.02594
G1 X157.068 Y138.896 E.02614
G1 X157.068 Y161.059 E.69361
G1 X156.946 Y161.671 E.01953
G1 X156.566 Y162.417 E.0262
G1 X155.963 Y163.054 E.02745
G1 X155.338 Y163.45 E.02316
G1 X154.581 Y163.671 E.02468
G1 X145.557 Y163.685 E.28241
G1 X144.946 Y163.563 E.0195
G1 X144.199 Y163.183 E.02623
G1 X143.563 Y162.58 E.02743
G1 X143.147 Y161.91 E.02468
G1 X142.932 Y161.104 E.02611
G1 X142.932 Y138.941 E.69361
G1 X143.054 Y138.329 E.01953
G1 X143.35 Y137.748 E.02041
G1 X143.658 Y137.908 F72000
G1 F9000
G1 X143.731 Y137.767 E.00497
G1 X144.272 Y137.204 E.02444
G1 X144.823 Y136.859 E.02035
G1 X145.439 Y136.678 E.02009
G1 X154.502 Y136.671 E.28363
G1 X154.984 Y136.782 E.01548
G1 X155.44 Y136.993 E.01572
G1 X156.159 Y137.633 E.03012
G1 X156.524 Y138.207 E.02129
G1 X156.719 Y138.92 E.02313
G1 X156.719 Y161.041 E.69229
G1 X156.61 Y161.576 E.01709
G1 X156.269 Y162.233 E.02317
G1 X155.728 Y162.796 E.02444
G1 X155.176 Y163.141 E.02037
G1 X154.51 Y163.33 E.02167
G1 X145.575 Y163.336 E.27963
G1 X145.041 Y163.227 E.01706
G1 X144.383 Y162.886 E.02319
G1 X143.82 Y162.345 E.02444
G1 X143.476 Y161.793 E.02036
G1 X143.281 Y161.08 E.02313
G1 X143.281 Y138.959 E.69229
G1 X143.39 Y138.424 E.01709
G1 X143.63 Y137.961 E.01632
G1 X143.94 Y138.122 F72000
G1 F9000
G1 X144.028 Y137.951 E.00602
G1 X144.506 Y137.462 E.0214
G1 X144.944 Y137.187 E.01619
G1 X145.513 Y137.019 E.01857
G1 X154.446 Y137.016 E.27956
G1 X154.856 Y137.106 E.01314
G1 X155.27 Y137.298 E.01428
G1 X155.908 Y137.875 E.02692
G1 X156.196 Y138.327 E.01677
G1 X156.371 Y138.945 E.0201
G1 X156.371 Y161.025 E.69101
G1 X156.289 Y161.438 E.01318
G1 X155.972 Y162.049 E.02154
G1 X155.494 Y162.538 E.0214
G1 X155.056 Y162.813 E.01619
G1 X154.438 Y162.988 E.0201
G1 X145.592 Y162.988 E.27684
G1 X145.179 Y162.906 E.01318
G1 X144.567 Y162.589 E.02157
G1 X144.079 Y162.11 E.0214
G1 X143.804 Y161.673 E.01616
G1 X143.629 Y161.055 E.0201
G1 X143.629 Y138.975 E.69101
G1 X143.711 Y138.562 E.01318
G1 X143.912 Y138.175 E.01365
G1 X144.217 Y138.337 F72000
G1 F9000
G1 X144.323 Y138.138 E.00706
G1 X144.739 Y137.722 E.01841
G1 X145.067 Y137.514 E.01215
G1 X145.588 Y137.361 E.01699
G1 X154.425 Y137.364 E.27656
G1 X154.757 Y137.441 E.01067
G1 X155.095 Y137.601 E.0117
G1 X155.655 Y138.116 E.02381
G1 X155.869 Y138.45 E.01241
G1 X156.022 Y138.971 E.01699
G1 X156.022 Y161.006 E.6896
G1 X155.953 Y161.342 E.01073
G1 X155.677 Y161.862 E.01842
G1 X155.261 Y162.278 E.01841
G1 X154.933 Y162.486 E.01215
G1 X154.412 Y162.639 E.01699
G1 X145.61 Y162.639 E.27546
G1 X145.275 Y162.57 E.0107
G1 X144.755 Y162.294 E.01842
G1 X144.339 Y161.878 E.01841
G1 X144.131 Y161.55 E.01215
G1 X143.978 Y161.029 E.01699
G1 X143.978 Y138.994 E.6896
G1 X144.047 Y138.658 E.01073
G1 X144.189 Y138.39 E.00949
G1 X144.491 Y138.549 F72000
G1 F9000
G1 X144.588 Y138.366 E.00648
G1 X144.972 Y137.982 E.017
G1 X145.194 Y137.839 E.00826
G1 X145.615 Y137.709 E.01379
G1 X154.405 Y137.713 E.27509
G1 X154.625 Y137.764 E.00707
G1 X154.921 Y137.904 E.01025
G1 X155.4 Y138.355 E.02059
G1 X155.544 Y138.577 E.00828
G1 X155.674 Y138.998 E.01379
G1 X155.674 Y160.987 E.68816
G1 X155.618 Y161.244 E.00823
G1 X155.412 Y161.634 E.0138
G1 X155.028 Y162.018 E.017
G1 X154.806 Y162.161 E.00826
G1 X154.385 Y162.291 E.01379
G1 X145.63 Y162.291 E.27399
G1 X145.373 Y162.235 E.00823
G1 X144.983 Y162.029 E.0138
G1 X144.598 Y161.644 E.01704
G1 X144.456 Y161.423 E.00822
G1 X144.326 Y161.002 E.01379
G1 X144.326 Y139.013 E.68816
G1 X144.382 Y138.756 E.00823
G1 X144.463 Y138.602 E.00545
G1 X144.771 Y138.758 F72000
G1 F9000
G1 X144.855 Y138.592 E.00582
G1 X145.207 Y138.24 E.01558
G1 X145.326 Y138.162 E.00445
G1 X145.644 Y138.058 E.01047
G1 X154.385 Y138.061 E.27356
G1 X154.493 Y138.087 E.00348
G1 X154.745 Y138.206 E.00872
G1 X155.144 Y138.591 E.01735
G1 X155.221 Y138.709 E.00441
G1 X155.325 Y139.027 E.01047
G1 X155.325 Y160.97 E.68672
G1 X155.296 Y161.109 E.00444
G1 X155.145 Y161.408 E.01048
G1 X154.793 Y161.76 E.01558
G1 X154.674 Y161.838 E.00445
G1 X154.356 Y161.942 E.01047
G1 X145.647 Y161.942 E.27255
G1 X145.508 Y161.913 E.00444
G1 X145.209 Y161.762 E.01048
G1 X144.857 Y161.41 E.01558
G1 X144.779 Y161.291 E.00445
G1 X144.675 Y160.973 E.01047
G1 X144.675 Y139.03 E.68672
G1 X144.704 Y138.891 E.00444
G1 X144.744 Y138.812 E.00277
G1 X145.056 Y138.959 F72000
G1 F9000
G1 X145.124 Y138.815 E.00498
G1 X145.441 Y138.498 E.01403
G1 X145.677 Y138.406 E.00793
G1 X154.337 Y138.406 E.27102
G1 X154.568 Y138.508 E.0079
G1 X154.902 Y138.85 E.01496
G1 X154.977 Y139.06 E.00698
G1 X154.977 Y160.953 E.68516
G1 X154.876 Y161.185 E.00792
G1 X154.534 Y161.518 E.01494
G1 X154.323 Y161.594 E.00702
G1 X145.664 Y161.594 E.27099
G1 X145.432 Y161.492 E.00793
G1 X145.098 Y161.15 E.01496
G1 X145.023 Y160.94 E.00698
G1 X145.031 Y139.014 E.68619
G1 X145.372 Y139.099 F72000
G1 F9000
G1 X145.398 Y139.034 E.00219
G1 X145.651 Y138.781 E.0112
G1 X145.715 Y138.755 E.00216
G1 X154.285 Y138.755 E.2682
G1 X154.349 Y138.781 E.00216
G1 X154.602 Y139.034 E.0112
G1 X154.628 Y139.099 E.00219
G1 X154.628 Y160.901 E.68231
G1 X154.602 Y160.966 E.00219
G1 X154.349 Y161.219 E.0112
G1 X154.285 Y161.245 E.00216
G1 X145.715 Y161.245 E.2682
G1 X145.651 Y161.219 E.00216
G1 X145.398 Y160.966 E.0112
G1 X145.372 Y160.901 E.00219
G1 X145.372 Y139.159 E.68043
G1 X145.72 Y139.205 F72000
G1 F9000
G1 X145.822 Y139.103 E.00451
G1 X154.178 Y139.103 E.26151
G1 X154.28 Y139.205 E.00451
G1 X154.28 Y160.795 E.67567
G1 X154.178 Y160.897 E.00451
G1 X145.822 Y160.897 E.26151
G1 X145.72 Y160.795 E.00451
G1 X145.72 Y139.265 E.6738
G1 E-.75 F3000
G1 X147.14 Y142.287 F72000
G1 E.75 F1800
;TYPE:Perimeter
;WIDTH:0.399999
G1 F9000
G1 X147.14 Y140.523 E.05521
G1 X149.671 Y140.505 E.07921
;WIDTH:0.40766
G1 X149.738 Y140.527 E.00226
;WIDTH:0.452382
G1 X149.804 Y140.55 E.00252
;WIDTH:0.497104
G1 X149.871 Y140.573 E.00283
;WIDTH:0.541826
G1 X149.938 Y140.595 E.00311
;WIDTH:0.586548
G1 X150.004 Y140.618 E.00336
;WIDTH:0.63127
G1 X150.071 Y140.641 E.00369
G1 X150.007 Y140.67 E.00366
;WIDTH:0.586548
G1 X149.943 Y140.699 E.00338
;WIDTH:0.541826
G1 X149.879 Y140.728 E.00309
;WIDTH:0.497104
G1 X149.816 Y140.757 E.00278
;WIDTH:0.452382
G1 X149.752 Y140.786 E.00253
;WIDTH:0.40766
G1 X149.688 Y140.815 E.00225
;WIDTH:0.390305
G1 X149.236 Y140.878 E.01389
;WIDTH:0.399999
G1 X148.483 Y141.151 E.02507
G1 X147.808 Y141.582 E.02506
G1 X147.41 Y141.95 E.01696
G1 X147.177 Y142.241 E.01167
G1 E-.75 F3000
G1 X152.86 Y141.91 F72000
G1 E.75 F1800
G1 F9000
G1 X152.616 Y141.672 E.01067
G1 X151.957 Y141.216 E.02508
G1 X151.217 Y140.91 E.02506
;WIDTH:0.445952
G1 X151.133 Y140.869 E.00331
;WIDTH:0.491904
G1 X151.05 Y140.827 E.00368
;WIDTH:0.537856
G1 X150.966 Y140.786 E.00408
;WIDTH:0.583808
G1 X150.883 Y140.744 E.00445
;WIDTH:0.62976
G1 X150.799 Y140.702 E.00488
;WIDTH:0.675712
G1 X150.716 Y140.661 E.00519
G1 X150.806 Y140.638 E.00521
;WIDTH:0.62976
G1 X150.897 Y140.615 E.00487
