; generated by PrusaSlicer 2.6.0-alpha6+win64 on 2023-07-28 at 18:35:46 UTC

; 

; external perimeters extrusion width = 0.40mm
; perimeters extrusion width = 0.40mm
; infill extrusion width = 0.40mm
; solid infill extrusion width = 0.40mm
; top infill extrusion width = 0.40mm
; support material extrusion width = 0.40mm
; first layer extrusion width = 0.40mm

M190 S55 ; set bed temperature and wait for it to be reached
M104 S210 ; set temperature
;TYPE:Custom
print_start EXTRUDER=210 BED=55
M109 S210 ; set temperature and wait for it to be reached
G21 ; set units to millimeters
G90 ; use absolute coordinates
M83 ; use relative distances for extrusion
;Filament gcode
M107
;LAYER_CHANGE
;Z:0.24
;HEIGHT:0.24
G1 Z.24 F6000
G1 E-.75 F3000
G1 X59.435 Y84.105 F6000
G1 E.75 F1800
M204 S7800
;TYPE:Skirt/Brim
;WIDTH:0.4
G1 F3000
G1 X60.594 Y83.476 E.04127
G1 X61.614 Y83.202 E.03305
G1 X62.405 Y83.133 E.02485
G1 X238.123 Y83.168 E5.49922
G1 X239.651 Y83.577 E.0495
G1 X240.752 Y84.249 E.04037
G1 X241.523 Y85.014 E.03399
G1 X242.314 Y86.384 E.04951
G1 X242.587 Y87.404 E.03305
G1 X242.656 Y88.195 E.02485
G1 X242.656 Y211.805 E3.86846
G1 X242.587 Y212.596 E.02485
G1 X242.212 Y213.861 E.04129
G1 X241.523 Y214.986 E.04129
G1 X240.565 Y215.895 E.04133
G1 X239.406 Y216.524 E.04127
G1 X238.386 Y216.797 E.03305
G1 X237.594 Y216.867 E.02488
G1 X62.406 Y216.867 E5.48264
G1 X61.614 Y216.797 E.02488
G1 X60.349 Y216.423 E.04128
G1 X59.224 Y215.733 E.0413
G1 X58.316 Y214.776 E.04129
G1 X57.686 Y213.616 E.04131
G1 X57.413 Y212.596 E.03305
G1 X57.344 Y211.805 E.02485
G1 X57.344 Y88.195 E3.86846
G1 X57.413 Y87.404 E.02485
G1 X57.788 Y86.138 E.04132
G1 X58.477 Y85.014 E.04126
G1 X59.391 Y84.147 E.03943
G1 X59.629 Y84.399 F6000
G1 F3000
G1 X60.728 Y83.798 E.0392
G1 X61.66 Y83.548 E.0302
G1 X62.405 Y83.482 E.02341
G1 X238.077 Y83.513 E5.49778
G1 X239.517 Y83.899 E.04666
G1 X240.54 Y84.525 E.03753
G1 X241.246 Y85.226 E.03114
G1 X241.992 Y86.517 E.04666
G1 X242.241 Y87.449 E.03019
G1 X242.308 Y88.195 E.02344
G1 X242.308 Y211.805 E3.86846
G1 X242.241 Y212.551 E.02344
G1 X241.89 Y213.728 E.03844
G1 X241.246 Y214.774 E.03844
G1 X240.353 Y215.618 E.03845
G1 X239.272 Y216.202 E.03845
G1 X238.34 Y216.452 E.0302
G1 X237.594 Y216.518 E.02344
G1 X62.406 Y216.518 E5.48264
G1 X61.66 Y216.452 E.02344
G1 X60.483 Y216.101 E.03844
G1 X59.436 Y215.457 E.03847
G1 X58.592 Y214.564 E.03845
G1 X58.008 Y213.483 E.03845
G1 X57.758 Y212.551 E.0302
G1 X57.692 Y211.805 E.02344
G1 X57.692 Y88.195 E3.86846
G1 X57.758 Y87.449 E.02344
G1 X58.11 Y86.272 E.03845
G1 X58.754 Y85.226 E.03844
G1 X59.586 Y84.44 E.03582
G1 X59.823 Y84.692 F6000
G1 F3000
G1 X60.861 Y84.12 E.03709
G1 X61.705 Y83.894 E.02734
G1 X62.405 Y83.83 E.022
G1 X238.032 Y83.859 E5.49637
G1 X239.384 Y84.221 E.0438
G1 X240.328 Y84.802 E.03469
G1 X240.97 Y85.438 E.02828
G1 X241.67 Y86.651 E.04383
G1 X241.896 Y87.495 E.02734
G1 X241.959 Y88.195 E.022
G1 X241.959 Y211.805 E3.86846
G1 X241.896 Y212.505 E.022
G1 X241.568 Y213.594 E.03559
G1 X240.97 Y214.562 E.03561
G1 X240.141 Y215.342 E.03562
G1 X239.139 Y215.88 E.03559
G1 X238.295 Y216.106 E.02734
G1 X237.594 Y216.17 E.02203
G1 X62.406 Y216.17 E5.48264
G1 X61.705 Y216.106 E.02203
G1 X60.616 Y215.779 E.03558
G1 X59.648 Y215.18 E.03563
G1 X58.869 Y214.352 E.03558
G1 X58.33 Y213.349 E.03563
G1 X58.104 Y212.505 E.02734
G1 X58.041 Y211.805 E.022
G1 X58.041 Y88.195 E3.86846
G1 X58.104 Y87.495 E.022
G1 X58.432 Y86.405 E.03562
G1 X59.03 Y85.438 E.03558
G1 X59.779 Y84.733 E.03219
; printing object bottom (1) (1).stl id:0 copy 0
G1 E-.75
G1 X237.564 Y211.734 F6000
G1 E.75 F1800
;TYPE:Perimeter
;WIDTH:0.399999
G1 F3000
G1 X237.526 Y211.774 E.00173
G1 X62.477 Y211.774 E5.47828
G1 X62.436 Y211.736 E.00175
G1 X62.436 Y88.266 E3.86408
G1 X62.474 Y88.226 E.00173
G1 X237.523 Y88.226 E5.47828
G1 X237.564 Y88.266 E.00179
G1 X237.564 Y211.674 E3.86214
G1 X237.88 Y211.923 F6000
G1 F3000
G1 X237.75 Y212.075 E.00626
G1 X237.549 Y212.123 E.00647
G1 X62.477 Y212.123 E5.479
G1 X62.287 Y212.091 E.00603
G1 X62.136 Y211.961 E.00624
G1 X62.088 Y211.759 E.0065
G1 X62.088 Y88.266 E3.8648
G1 X62.12 Y88.077 E.006
G1 X62.25 Y87.925 E.00626
G1 X62.451 Y87.877 E.00647
G1 X237.523 Y87.877 E5.479
G1 X237.706 Y87.908 E.00581
G1 X237.864 Y88.039 E.00642
G1 X237.912 Y88.266 E.00726
G1 X237.912 Y211.734 E3.86401
G1 X237.89 Y211.864 E.00413
G1 X238.169 Y212.137 F6000
;TYPE:External perimeter
G1 F3000
G1 X237.926 Y212.379 E.01073
G1 X237.572 Y212.471 E.01145
G1 X62.428 Y212.471 E5.48125
G1 X62.074 Y212.379 E.01145
G1 X61.831 Y212.137 E.01073
G1 X61.739 Y211.782 E.01148
G1 X61.739 Y88.218 E3.86702
G1 X61.831 Y87.863 E.01148
G1 X62.074 Y87.621 E.01073
G1 X62.428 Y87.529 E.01145
G1 X237.523 Y87.529 E5.47972
G1 X237.758 Y87.553 E.00739
G1 X238.063 Y87.726 E.01097
G1 X238.202 Y87.943 E.00806
G1 X238.261 Y88.266 E.01028
G1 X238.261 Y211.782 E3.86552
G1 X238.184 Y212.079 E.0096
G1 X237.826 Y212.137 F6000
G1 E-.75 F3000
G1 X237.459 Y89.035 F6000
G1 E.75 F1800
;TYPE:Solid infill
;WIDTH:0.40018
G1 F3000
G1 X236.911 Y88.487 E.02427
G1 X236.418 Y88.487 E.01544
G1 X237.302 Y89.371 E.03915
G1 X237.302 Y89.865 E.01547
G1 X235.925 Y88.487 E.061
G1 X235.432 Y88.487 E.01544
G1 X237.302 Y90.358 E.08283
G1 X237.302 Y90.851 E.01544
G1 X234.939 Y88.487 E.10466
G1 X234.446 Y88.487 E.01544
G1 X237.302 Y91.344 E.12649
G1 X237.302 Y91.837 E.01544
G1 X233.953 Y88.487 E.14832
G1 X233.459 Y88.487 E.01547
G1 X237.302 Y92.33 E.17017
G1 X237.302 Y92.823 E.01544
G1 X232.966 Y88.487 E.19201
G1 X232.473 Y88.487 E.01544
G1 X237.302 Y93.316 E.21384
G1 X237.302 Y93.809 E.01544
G1 X231.98 Y88.487 E.23567
G1 X231.487 Y88.487 E.01544
G1 X237.302 Y94.302 E.2575
G1 X237.302 Y94.796 E.01547
G1 X230.994 Y88.487 E.27935
G1 X230.501 Y88.487 E.01544
G1 X237.302 Y95.289 E.30118
G1 X237.302 Y95.782 E.01544
G1 X230.008 Y88.487 E.32301
G1 X229.515 Y88.487 E.01544
G1 X237.302 Y96.275 E.34484
G1 X237.302 Y96.768 E.01544
G1 X229.022 Y88.487 E.36668
G1 X228.528 Y88.487 E.01547
G1 X237.302 Y97.261 E.38853
G1 X237.302 Y97.754 E.01544
G1 X228.035 Y88.487 E.41036
G1 X227.542 Y88.487 E.01544
G1 X237.302 Y98.247 E.43219
G1 X237.302 Y98.74 E.01544
G1 X227.049 Y88.487 E.45402
G1 X226.556 Y88.487 E.01544
G1 X237.302 Y99.233 E.47585
G1 X237.302 Y99.727 E.01547
G1 X226.063 Y88.487 E.4977
G1 X225.57 Y88.487 E.01544
G1 X237.302 Y100.22 E.51954
G1 X237.302 Y100.713 E.01544
G1 X225.077 Y88.487 E.54137
G1 X224.584 Y88.487 E.01544
G1 X237.302 Y101.206 E.5632
G1 X237.302 Y101.699 E.01544
G1 X224.091 Y88.487 E.58503
G1 X223.597 Y88.487 E.01547
G1 X237.302 Y102.192 E.60688
G1 X237.302 Y102.685 E.01544
G1 X223.104 Y88.487 E.62871
G1 X222.611 Y88.487 E.01544
G1 X237.302 Y103.178 E.65054
G1 X237.302 Y103.671 E.01544
G1 X222.118 Y88.487 E.67237
G1 X221.625 Y88.487 E.01544
G1 X237.302 Y104.165 E.69423
G1 X237.302 Y104.658 E.01544
G1 X221.132 Y88.487 E.71606
G1 X220.639 Y88.487 E.01544
G1 X237.302 Y105.151 E.73789
G1 X237.302 Y105.644 E.01544
G1 X220.146 Y88.487 E.75972
G1 X219.653 Y88.487 E.01544
G1 X237.302 Y106.137 E.78155
G1 X237.302 Y106.63 E.01544
G1 X219.16 Y88.487 E.80338
G1 X218.666 Y88.487 E.01547
G1 X237.302 Y107.123 E.82523
G1 X237.302 Y107.616 E.01544
G1 X218.173 Y88.487 E.84707
G1 X217.68 Y88.487 E.01544
G1 X237.302 Y108.109 E.8689
G1 X237.302 Y108.602 E.01544
G1 X217.187 Y88.487 E.89073
G1 X216.694 Y88.487 E.01544
G1 X237.302 Y109.096 E.91258
G1 X237.302 Y109.589 E.01544
G1 X216.201 Y88.487 E.93441
G1 X215.708 Y88.487 E.01544
G1 X237.302 Y110.082 E.95624
G1 X237.302 Y110.575 E.01544
G1 X215.215 Y88.487 E.97807
G1 X214.722 Y88.487 E.01544
G1 X237.302 Y111.068 E.9999
G1 X237.302 Y111.561 E.01544
G1 X214.228 Y88.487 E1.02176
G1 X213.735 Y88.487 E.01544
G1 X237.302 Y112.054 E1.04359
G1 X237.302 Y112.547 E.01544
G1 X213.242 Y88.487 E1.06542
G1 X212.749 Y88.487 E.01544
G1 X237.302 Y113.04 E1.08725
G1 X237.302 Y113.533 E.01544
G1 X212.256 Y88.487 E1.10908
G1 X211.763 Y88.487 E.01544
G1 X237.302 Y114.027 E1.13093
G1 X237.302 Y114.52 E.01544
G1 X211.27 Y88.487 E1.15276
G1 X210.777 Y88.487 E.01544
G1 X237.302 Y115.013 E1.1746
G1 X237.302 Y115.506 E.01544
G1 X210.284 Y88.487 E1.19643
G1 X209.791 Y88.487 E.01544
G1 X237.302 Y115.999 E1.21826
G1 X237.302 Y116.492 E.01544
G1 X209.297 Y88.487 E1.24011
G1 X208.804 Y88.487 E.01544
G1 X237.302 Y116.985 E1.26194
G1 X237.302 Y117.478 E.01544
G1 X208.311 Y88.487 E1.28377
G1 X207.818 Y88.487 E.01544
G1 X237.302 Y117.971 E1.3056
G1 X237.302 Y118.464 E.01544
G1 X207.325 Y88.487 E1.32743
G1 X206.832 Y88.487 E.01544
G1 X237.302 Y118.958 E1.34929
G1 X237.302 Y119.451 E.01544
G1 X206.339 Y88.487 E1.37112
G1 X205.846 Y88.487 E.01544
G1 X237.302 Y119.944 E1.39295
G1 X237.302 Y120.437 E.01544
G1 X205.353 Y88.487 E1.41478
G1 X204.86 Y88.487 E.01544
G1 X237.302 Y120.93 E1.43661
G1 X237.302 Y121.423 E.01544
G1 X204.366 Y88.487 E1.45846
G1 X203.873 Y88.487 E.01544
G1 X237.302 Y121.916 E1.48029
G1 X237.302 Y122.409 E.01544
G1 X203.38 Y88.487 E1.50213
G1 X202.887 Y88.487 E.01544
G1 X237.302 Y122.902 E1.52396
G1 X237.302 Y123.395 E.01544
G1 X202.394 Y88.487 E1.54579
G1 X201.901 Y88.487 E.01544
G1 X237.302 Y123.889 E1.56764
G1 X237.302 Y124.382 E.01544
G1 X201.408 Y88.487 E1.58947
G1 X200.915 Y88.487 E.01544
G1 X237.302 Y124.875 E1.6113
G1 X237.302 Y125.368 E.01544
G1 X200.422 Y88.487 E1.63313
G1 X199.929 Y88.487 E.01544
G1 X237.302 Y125.861 E1.65496
G1 X237.302 Y126.354 E.01544
G1 X199.435 Y88.487 E1.67682
G1 X198.942 Y88.487 E.01544
G1 X237.302 Y126.847 E1.69865
G1 X237.302 Y127.34 E.01544
G1 X198.449 Y88.487 E1.72048
G1 X197.956 Y88.487 E.01544
G1 X237.302 Y127.833 E1.74231
G1 X237.302 Y128.327 E.01547
G1 X197.463 Y88.487 E1.76416
G1 X196.97 Y88.487 E.01544
G1 X237.302 Y128.82 E1.78599
G1 X237.302 Y129.313 E.01544
G1 X196.477 Y88.487 E1.80782
G1 X195.984 Y88.487 E.01544
G1 X237.302 Y129.806 E1.82966
G1 X237.302 Y130.299 E.01544
G1 X195.491 Y88.487 E1.85149
G1 X194.997 Y88.487 E.01547
G1 X237.302 Y130.792 E1.87334
G1 X237.302 Y131.285 E.01544
G1 X194.504 Y88.487 E1.89517
G1 X194.011 Y88.487 E.01544
G1 X237.302 Y131.778 E1.917
G1 X237.302 Y132.271 E.01544
G1 X193.518 Y88.487 E1.93883
G1 X193.025 Y88.487 E.01544
G1 X237.302 Y132.764 E1.96066
G1 X237.302 Y133.258 E.01547
G1 X192.532 Y88.487 E1.98252
G1 X192.039 Y88.487 E.01544
G1 X237.302 Y133.751 E2.00435
G1 X237.302 Y134.244 E.01544
G1 X191.546 Y88.487 E2.02618
G1 X191.053 Y88.487 E.01544
G1 X237.302 Y134.737 E2.04801
G1 X237.302 Y135.23 E.01544
G1 X190.56 Y88.487 E2.06984
G1 X190.066 Y88.487 E.01547
G1 X237.302 Y135.723 E2.09169
G1 X237.302 Y136.216 E.01544
G1 X189.573 Y88.487 E2.11352
G1 X189.08 Y88.487 E.01544
G1 X237.302 Y136.709 E2.13535
G1 X237.302 Y137.202 E.01544
G1 X188.587 Y88.487 E2.15719
G1 X188.094 Y88.487 E.01544
G1 X237.302 Y137.695 E2.17902
G1 X237.302 Y138.189 E.01547
G1 X187.601 Y88.487 E2.20087
G1 X187.108 Y88.487 E.01544
G1 X237.302 Y138.682 E2.2227
G1 X237.302 Y139.175 E.01544
G1 X186.615 Y88.487 E2.24453
G1 X186.122 Y88.487 E.01544
G1 X237.302 Y139.668 E2.26636
G1 X237.302 Y140.161 E.01544
G1 X185.629 Y88.487 E2.28819
G1 X185.135 Y88.487 E.01547
G1 X237.302 Y140.654 E2.31005
G1 X237.302 Y141.147 E.01544
G1 X184.642 Y88.487 E2.33188
G1 X184.149 Y88.487 E.01544
G1 X237.302 Y141.64 E2.35371
G1 X237.302 Y142.133 E.01544
G1 X183.656 Y88.487 E2.37554
G1 X183.163 Y88.487 E.01544
G1 X237.302 Y142.626 E2.39737
G1 X237.302 Y143.12 E.01547
G1 X182.67 Y88.487 E2.41922
G1 X182.177 Y88.487 E.01544
G1 X237.302 Y143.613 E2.44105
G1 X237.302 Y144.106 E.01544
G1 X181.684 Y88.487 E2.46288
G1 X181.191 Y88.487 E.01544
G1 X237.302 Y144.599 E2.48472
G1 X237.302 Y145.092 E.01544
G1 X180.698 Y88.487 E2.50655
G1 X180.204 Y88.487 E.01547
G1 X237.302 Y145.585 E2.5284
G1 X237.302 Y146.078 E.01544
G1 X179.711 Y88.487 E2.55023
G1 X179.218 Y88.487 E.01544
G1 X237.302 Y146.571 E2.57206
G1 X237.302 Y147.064 E.01544
G1 X178.725 Y88.487 E2.59389
G1 X178.232 Y88.487 E.01544
G1 X237.302 Y147.558 E2.61575
G1 X237.302 Y148.051 E.01544
G1 X177.739 Y88.487 E2.63758
G1 X177.246 Y88.487 E.01544
G1 X237.302 Y148.544 E2.65941
G1 X237.302 Y149.037 E.01544
G1 X176.753 Y88.487 E2.68124
G1 X176.26 Y88.487 E.01544
G1 X237.302 Y149.53 E2.70307
G1 X237.302 Y150.023 E.01544
G1 X175.766 Y88.487 E2.72492
G1 X175.273 Y88.487 E.01544
G1 X237.302 Y150.516 E2.74675
G1 X237.302 Y151.009 E.01544
G1 X174.78 Y88.487 E2.76858
G1 X174.287 Y88.487 E.01544
G1 X237.302 Y151.502 E2.79041
G1 X237.302 Y151.995 E.01544
G1 X173.794 Y88.487 E2.81225
G1 X173.301 Y88.487 E.01544
G1 X237.302 Y152.489 E2.8341
G1 X237.302 Y152.982 E.01544
G1 X172.808 Y88.487 E2.85593
G1 X172.315 Y88.487 E.01544
G1 X237.302 Y153.475 E2.87776
G1 X237.302 Y153.968 E.01544
G1 X171.822 Y88.487 E2.89959
G1 X171.329 Y88.487 E.01544
G1 X237.302 Y154.461 E2.92142
G1 X237.302 Y154.954 E.01544
G1 X170.835 Y88.487 E2.94328
G1 X170.342 Y88.487 E.01544
G1 X237.302 Y155.447 E2.96511
G1 X237.302 Y155.94 E.01544
G1 X169.849 Y88.487 E2.98694
G1 X169.356 Y88.487 E.01544
G1 X237.302 Y156.433 E3.00877
G1 X237.302 Y156.926 E.01544
G1 X168.863 Y88.487 E3.0306
G1 X168.37 Y88.487 E.01544
G1 X237.302 Y157.42 E3.05245
G1 X237.302 Y157.913 E.01544
G1 X167.877 Y88.487 E3.07428
G1 X167.384 Y88.487 E.01544
G1 X237.302 Y158.406 E3.09611
G1 X237.302 Y158.899 E.01544
G1 X166.891 Y88.487 E3.11794
G1 X166.398 Y88.487 E.01544
G1 X237.302 Y159.392 E3.13978
G1 X237.302 Y159.885 E.01544
G1 X165.904 Y88.487 E3.16163
G1 X165.411 Y88.487 E.01544
G1 X237.302 Y160.378 E3.18346
G1 X237.302 Y160.871 E.01544
G1 X164.918 Y88.487 E3.20529
G1 X164.425 Y88.487 E.01544
G1 X237.302 Y161.364 E3.22712
G1 X237.302 Y161.857 E.01544
G1 X163.932 Y88.487 E3.24895
G1 X163.439 Y88.487 E.01544
G1 X237.302 Y162.351 E3.27081
G1 X237.302 Y162.844 E.01544
G1 X162.946 Y88.487 E3.29264
G1 X162.453 Y88.487 E.01544
G1 X237.302 Y163.337 E3.31447
G1 X237.302 Y163.83 E.01544
G1 X161.96 Y88.487 E3.3363
G1 X161.467 Y88.487 E.01544
G1 X237.302 Y164.323 E3.35813
G1 X237.302 Y164.816 E.01544
G1 X160.973 Y88.487 E3.37998
G1 X160.48 Y88.487 E.01544
G1 X237.302 Y165.309 E3.40181
G1 X237.302 Y165.802 E.01544
G1 X159.987 Y88.487 E3.42364
G1 X159.494 Y88.487 E.01544
G1 X237.302 Y166.295 E3.44547
G1 X237.302 Y166.788 E.01544
G1 X159.001 Y88.487 E3.46731
G1 X158.508 Y88.487 E.01544
G1 X237.302 Y167.282 E3.48916
G1 X237.302 Y167.775 E.01544
G1 X158.015 Y88.487 E3.51099
G1 X157.522 Y88.487 E.01544
G1 X237.302 Y168.268 E3.53282
G1 X237.302 Y168.761 E.01544
G1 X157.029 Y88.487 E3.55465
G1 X156.536 Y88.487 E.01544
G1 X237.302 Y169.254 E3.57648
G1 X237.302 Y169.747 E.01544
G1 X156.042 Y88.487 E3.59834
G1 X155.549 Y88.487 E.01544
G1 X237.302 Y170.24 E3.62017
G1 X237.302 Y170.733 E.01544
G1 X155.056 Y88.487 E3.642
G1 X154.563 Y88.487 E.01544
G1 X237.302 Y171.226 E3.66383
G1 X237.302 Y171.72 E.01547
G1 X154.07 Y88.487 E3.68568
G1 X153.577 Y88.487 E.01544
G1 X237.302 Y172.213 E3.70751
G1 X237.302 Y172.706 E.01544
G1 X153.084 Y88.487 E3.72934
G1 X152.591 Y88.487 E.01544
G1 X237.302 Y173.199 E3.75117
G1 X237.302 Y173.692 E.01544
G1 X152.098 Y88.487 E3.773
G1 X151.604 Y88.487 E.01547
G1 X237.302 Y174.185 E3.79486
G1 X237.302 Y174.678 E.01544
G1 X151.111 Y88.487 E3.81669
G1 X150.618 Y88.487 E.01544
G1 X237.302 Y175.171 E3.83852
G1 X237.302 Y175.664 E.01544
G1 X150.125 Y88.487 E3.86035
G1 X149.632 Y88.487 E.01544
G1 X237.302 Y176.157 E3.88218
G1 X237.302 Y176.651 E.01547
G1 X149.139 Y88.487 E3.90403
G1 X148.646 Y88.487 E.01544
G1 X237.302 Y177.144 E3.92587
G1 X237.302 Y177.637 E.01544
G1 X148.153 Y88.487 E3.9477
G1 X147.66 Y88.487 E.01544
G1 X237.302 Y178.13 E3.96953
G1 X237.302 Y178.623 E.01544
G1 X147.167 Y88.487 E3.99136
G1 X146.673 Y88.487 E.01547
G1 X237.302 Y179.116 E4.01321
G1 X237.302 Y179.609 E.01544
G1 X146.18 Y88.487 E4.03504
G1 X145.687 Y88.487 E.01544
G1 X237.302 Y180.102 E4.05687
G1 X237.302 Y180.595 E.01544
G1 X145.194 Y88.487 E4.0787
G1 X144.701 Y88.487 E.01544
G1 X237.302 Y181.088 E4.10053
G1 X237.302 Y181.582 E.01547
G1 X144.208 Y88.487 E4.12239
G1 X143.715 Y88.487 E.01544
G1 X237.302 Y182.075 E4.14422
G1 X237.302 Y182.568 E.01544
G1 X143.222 Y88.487 E4.16605
G1 X142.729 Y88.487 E.01544
G1 X237.302 Y183.061 E4.18788
G1 X237.302 Y183.554 E.01544
