; generated by PrusaSlicer 2.6.0-alpha6+win64 on 2023-08-12 at 16:28:17 UTC

; 

; external perimeters extrusion width = 0.38mm
; perimeters extrusion width = 0.38mm
; infill extrusion width = 0.45mm
; solid infill extrusion width = 0.45mm
; top infill extrusion width = 0.44mm
; support material extrusion width = 0.40mm
; first layer extrusion width = 0.40mm

M190 S55 ; set bed temperature and wait for it to be reached
M104 S210 ; set temperature
;TYPE:Custom
print_start EXTRUDER=210 BED=55
M109 S210 ; set temperature and wait for it to be reached
G21 ; set units to millimeters
G90 ; use absolute coordinates
M83 ; use relative distances for extrusion
;Filament gcode
M107
;LAYER_CHANGE
;Z:0.24
;HEIGHT:0.24
G1 Z.24 F12000
G1 E-.75 F3000
G1 X59.435 Y84.105 F12000
G1 E.75 F1800
M204 S4000
;TYPE:Skirt/Brim
;WIDTH:0.4
G1 F3000
G1 X60.594 Y83.476 E.04127
G1 X61.614 Y83.202 E.03305
G1 X62.405 Y83.133 E.02485
G1 X238.123 Y83.168 E5.49922
G1 X239.651 Y83.577 E.0495
G1 X240.752 Y84.249 E.04037
G1 X241.523 Y85.014 E.03399
G1 X242.314 Y86.384 E.04951
G1 X242.587 Y87.404 E.03305
G1 X242.656 Y88.195 E.02485
G1 X242.656 Y211.805 E3.86846
G1 X242.587 Y212.596 E.02485
G1 X242.212 Y213.861 E.04129
G1 X241.523 Y214.986 E.04129
G1 X240.565 Y215.895 E.04133
G1 X239.406 Y216.524 E.04127
G1 X238.386 Y216.797 E.03305
G1 X237.594 Y216.867 E.02488
G1 X62.406 Y216.867 E5.48264
G1 X61.614 Y216.797 E.02488
G1 X60.349 Y216.423 E.04128
G1 X59.224 Y215.733 E.0413
G1 X58.316 Y214.776 E.04129
G1 X57.686 Y213.616 E.04131
G1 X57.413 Y212.596 E.03305
G1 X57.344 Y211.805 E.02485
G1 X57.344 Y88.195 E3.86846
G1 X57.413 Y87.404 E.02485
G1 X57.788 Y86.138 E.04132
G1 X58.477 Y85.014 E.04126
G1 X59.391 Y84.147 E.03943
G1 X59.629 Y84.399 F12000
G1 F3000
G1 X60.728 Y83.798 E.0392
G1 X61.66 Y83.548 E.0302
G1 X62.405 Y83.482 E.02341
G1 X238.077 Y83.513 E5.49778
G1 X239.517 Y83.899 E.04666
G1 X240.54 Y84.525 E.03753
G1 X241.246 Y85.226 E.03114
G1 X241.992 Y86.517 E.04666
G1 X242.241 Y87.449 E.03019
G1 X242.308 Y88.195 E.02344
G1 X242.308 Y211.805 E3.86846
G1 X242.241 Y212.551 E.02344
G1 X241.89 Y213.728 E.03844
G1 X241.246 Y214.774 E.03844
G1 X240.353 Y215.618 E.03845
G1 X239.272 Y216.202 E.03845
G1 X238.34 Y216.452 E.0302
G1 X237.594 Y216.518 E.02344
G1 X62.406 Y216.518 E5.48264
G1 X61.66 Y216.452 E.02344
G1 X60.483 Y216.101 E.03844
G1 X59.436 Y215.457 E.03847
G1 X58.592 Y214.564 E.03845
G1 X58.008 Y213.483 E.03845
G1 X57.758 Y212.551 E.0302
G1 X57.692 Y211.805 E.02344
G1 X57.692 Y88.195 E3.86846
G1 X57.758 Y87.449 E.02344
G1 X58.11 Y86.272 E.03845
G1 X58.754 Y85.226 E.03844
G1 X59.586 Y84.44 E.03582
G1 X59.823 Y84.692 F12000
G1 F3000
G1 X60.861 Y84.12 E.03709
G1 X61.705 Y83.894 E.02734
G1 X62.405 Y83.83 E.022
G1 X238.032 Y83.859 E5.49637
G1 X239.384 Y84.221 E.0438
G1 X240.328 Y84.802 E.03469
G1 X240.97 Y85.438 E.02828
G1 X241.67 Y86.651 E.04383
G1 X241.896 Y87.495 E.02734
G1 X241.959 Y88.195 E.022
G1 X241.959 Y211.805 E3.86846
G1 X241.896 Y212.505 E.022
G1 X241.568 Y213.594 E.03559
G1 X240.97 Y214.562 E.03561
G1 X240.141 Y215.342 E.03562
G1 X239.139 Y215.88 E.03559
G1 X238.295 Y216.106 E.02734
G1 X237.594 Y216.17 E.02203
G1 X62.406 Y216.17 E5.48264
G1 X61.705 Y216.106 E.02203
G1 X60.616 Y215.779 E.03558
G1 X59.648 Y215.18 E.03563
G1 X58.869 Y214.352 E.03558
G1 X58.33 Y213.349 E.03563
G1 X58.104 Y212.505 E.02734
G1 X58.041 Y211.805 E.022
G1 X58.041 Y88.195 E3.86846
G1 X58.104 Y87.495 E.022
G1 X58.432 Y86.405 E.03562
G1 X59.03 Y85.438 E.03558
G1 X59.779 Y84.733 E.03219
G1 E-.75
G1 X62.2 Y211.963 F12000
G1 E.75 F1800
;TYPE:Perimeter
;WIDTH:0.399999
G1 F3000
G1 X62.138 Y211.756 E.00676
G1 X62.138 Y88.266 E3.8647
G1 X62.153 Y88.127 E.00438
G1 X62.248 Y87.989 E.00524
G1 X62.455 Y87.927 E.00676
G1 X237.523 Y87.927 E5.47887
G1 X237.66 Y87.942 E.00431
G1 X237.821 Y88.064 E.00632
G1 X237.862 Y88.266 E.00645
G1 X237.862 Y211.734 E3.86401
G1 X237.847 Y211.873 E.00438
G1 X237.752 Y212.011 E.00524
G1 X237.545 Y212.073 E.00676
G1 X62.477 Y212.073 E5.47887
G1 X62.338 Y212.057 E.00438
G1 X62.249 Y211.997 E.00336
G1 X61.875 Y212.111 F12000
;TYPE:External perimeter
G1 F3000
G1 X61.789 Y211.779 E.01073
G1 X61.789 Y88.221 E3.86683
G1 X61.875 Y87.889 E.01073
G1 X62.099 Y87.664 E.00994
G1 X62.432 Y87.579 E.01076
G1 X237.523 Y87.579 E5.47959
G1 X237.75 Y87.603 E.00714
G1 X238.028 Y87.762 E.01002
G1 X238.156 Y87.962 E.00743
G1 X238.211 Y88.266 E.00967
G1 X238.211 Y211.779 E3.86542
G1 X238.125 Y212.111 E.01073
G1 X237.901 Y212.336 E.00994
G1 X237.568 Y212.421 E.01076
G1 X62.432 Y212.421 E5.481
G1 X62.099 Y212.336 E.01076
G1 X61.917 Y212.154 E.00806
G1 X62.047 Y211.814 F12000
G1 X62.242 Y211.198
;TYPE:Solid infill
;WIDTH:0.400233
G1 F3000
G1 X62.856 Y211.811 E.02717
G1 X63.349 Y211.811 E.01544
G1 X62.399 Y210.862 E.04205
G1 X62.399 Y210.368 E.01547
G1 X63.842 Y211.811 E.06391
G1 X64.335 Y211.811 E.01544
G1 X62.399 Y209.875 E.08574
G1 X62.399 Y209.382 E.01544
G1 X64.828 Y211.811 E.10758
G1 X65.322 Y211.811 E.01547
G1 X62.399 Y208.889 E.12943
G1 X62.399 Y208.396 E.01544
G1 X65.815 Y211.811 E.15127
G1 X66.308 Y211.811 E.01544
G1 X62.399 Y207.903 E.1731
G1 X62.399 Y207.409 E.01547
G1 X66.801 Y211.811 E.19496
G1 X67.294 Y211.811 E.01544
G1 X62.399 Y206.916 E.21679
G1 X62.399 Y206.423 E.01544
G1 X67.787 Y211.811 E.23863
G1 X68.281 Y211.811 E.01547
G1 X62.399 Y205.93 E.26048
G1 X62.399 Y205.437 E.01544
G1 X68.774 Y211.811 E.28232
G1 X69.267 Y211.811 E.01544
G1 X62.399 Y204.943 E.30417
G1 X62.399 Y204.45 E.01544
G1 X69.76 Y211.811 E.32601
G1 X70.253 Y211.811 E.01544
G1 X62.399 Y203.957 E.34784
G1 X62.399 Y203.464 E.01544
G1 X70.747 Y211.811 E.3697
G1 X71.24 Y211.811 E.01544
G1 X62.399 Y202.971 E.39153
G1 X62.399 Y202.478 E.01544
G1 X71.733 Y211.811 E.41337
G1 X72.226 Y211.811 E.01544
G1 X62.399 Y201.984 E.43522
G1 X62.399 Y201.491 E.01544
G1 X72.719 Y211.811 E.45706
G1 X73.212 Y211.811 E.01544
G1 X62.399 Y200.998 E.47889
G1 X62.399 Y200.505 E.01544
G1 X73.706 Y211.811 E.50075
G1 X74.199 Y211.811 E.01544
G1 X62.399 Y200.012 E.52258
G1 X62.399 Y199.519 E.01544
G1 X74.692 Y211.811 E.54442
G1 X75.185 Y211.811 E.01544
G1 X62.399 Y199.025 E.56627
G1 X62.399 Y198.532 E.01544
G1 X75.678 Y211.811 E.58811
G1 X76.172 Y211.811 E.01547
G1 X62.399 Y198.039 E.60996
G1 X62.399 Y197.546 E.01544
G1 X76.665 Y211.811 E.6318
G1 X77.158 Y211.811 E.01544
G1 X62.399 Y197.053 E.65363
G1 X62.399 Y196.559 E.01547
G1 X77.651 Y211.811 E.67549
G1 X78.144 Y211.811 E.01544
G1 X62.399 Y196.066 E.69732
G1 X62.399 Y195.573 E.01544
G1 X78.637 Y211.811 E.71916
G1 X79.131 Y211.811 E.01547
G1 X62.399 Y195.08 E.74101
G1 X62.399 Y194.587 E.01544
G1 X79.624 Y211.811 E.76285
G1 X80.117 Y211.811 E.01544
G1 X62.399 Y194.094 E.78468
G1 X62.399 Y193.6 E.01547
G1 X80.61 Y211.811 E.80654
G1 X81.103 Y211.811 E.01544
G1 X62.399 Y193.107 E.82837
G1 X62.399 Y192.614 E.01544
G1 X81.596 Y211.811 E.85021
G1 X82.09 Y211.811 E.01547
G1 X62.399 Y192.121 E.87206
G1 X62.399 Y191.628 E.01544
G1 X82.583 Y211.811 E.8939
G1 X83.076 Y211.811 E.01544
G1 X62.399 Y191.135 E.91573
G1 X62.399 Y190.641 E.01547
G1 X83.569 Y211.811 E.93759
G1 X84.062 Y211.811 E.01544
G1 X62.399 Y190.148 E.95942
G1 X62.399 Y189.655 E.01544
G1 X84.556 Y211.811 E.98128
G1 X85.049 Y211.811 E.01544
G1 X62.399 Y189.162 E1.00311
G1 X62.399 Y188.669 E.01544
G1 X85.542 Y211.811 E1.02495
G1 X86.035 Y211.811 E.01544
G1 X62.399 Y188.175 E1.0468
G1 X62.399 Y187.682 E.01544
G1 X86.528 Y211.811 E1.06864
G1 X87.021 Y211.811 E.01544
G1 X62.399 Y187.189 E1.09047
G1 X62.399 Y186.696 E.01544
G1 X87.515 Y211.811 E1.11233
G1 X88.008 Y211.811 E.01544
G1 X62.399 Y186.203 E1.13416
G1 X62.399 Y185.71 E.01544
G1 X88.501 Y211.811 E1.156
G1 X88.994 Y211.811 E.01544
G1 X62.399 Y185.216 E1.17785
G1 X62.399 Y184.723 E.01544
G1 X89.487 Y211.811 E1.19969
G1 X89.98 Y211.811 E.01544
G1 X62.399 Y184.23 E1.22152
G1 X62.399 Y183.737 E.01544
G1 X90.474 Y211.811 E1.24338
G1 X90.967 Y211.811 E.01544
G1 X62.399 Y183.244 E1.26521
G1 X62.399 Y182.75 E.01547
G1 X91.46 Y211.811 E1.28707
G1 X91.953 Y211.811 E.01544
G1 X62.399 Y182.257 E1.3089
G1 X62.399 Y181.764 E.01544
G1 X92.446 Y211.811 E1.33074
G1 X92.94 Y211.811 E.01547
G1 X62.399 Y181.271 E1.35259
G1 X62.399 Y180.778 E.01544
G1 X93.433 Y211.811 E1.37443
G1 X93.926 Y211.811 E.01544
G1 X62.399 Y180.285 E1.39626
G1 X62.399 Y179.791 E.01547
G1 X94.419 Y211.811 E1.41812
G1 X94.912 Y211.811 E.01544
G1 X62.399 Y179.298 E1.43995
G1 X62.399 Y178.805 E.01544
G1 X95.405 Y211.811 E1.46179
G1 X95.899 Y211.811 E.01547
G1 X62.399 Y178.312 E1.48364
G1 X62.399 Y177.819 E.01544
G1 X96.392 Y211.811 E1.50548
G1 X96.885 Y211.811 E.01544
G1 X62.399 Y177.326 E1.52731
G1 X62.399 Y176.832 E.01547
G1 X97.378 Y211.811 E1.54917
G1 X97.871 Y211.811 E.01544
G1 X62.399 Y176.339 E1.571
G1 X62.399 Y175.846 E.01544
G1 X98.364 Y211.811 E1.59284
G1 X98.858 Y211.811 E.01547
G1 X62.399 Y175.353 E1.61469
G1 X62.399 Y174.86 E.01544
G1 X99.351 Y211.811 E1.63653
G1 X99.844 Y211.811 E.01544
G1 X62.399 Y174.366 E1.65838
G1 X62.399 Y173.873 E.01544
G1 X100.337 Y211.811 E1.68022
G1 X100.83 Y211.811 E.01544
G1 X62.399 Y173.38 E1.70205
G1 X62.399 Y172.887 E.01544
G1 X101.324 Y211.811 E1.72391
G1 X101.817 Y211.811 E.01544
G1 X62.399 Y172.394 E1.74574
G1 X62.399 Y171.901 E.01544
G1 X102.31 Y211.811 E1.76758
G1 X102.803 Y211.811 E.01544
G1 X62.399 Y171.407 E1.78943
G1 X62.399 Y170.914 E.01544
G1 X103.296 Y211.811 E1.81127
G1 X103.789 Y211.811 E.01544
G1 X62.399 Y170.421 E1.8331
G1 X62.399 Y169.928 E.01544
G1 X104.283 Y211.811 E1.85496
G1 X104.776 Y211.811 E.01544
G1 X62.399 Y169.435 E1.87679
G1 X62.399 Y168.942 E.01544
G1 X105.269 Y211.811 E1.89863
G1 X105.762 Y211.811 E.01544
G1 X62.399 Y168.448 E1.92048
G1 X62.399 Y167.955 E.01544
G1 X106.255 Y211.811 E1.94232
G1 X106.748 Y211.811 E.01544
G1 X62.399 Y167.462 E1.96415
G1 X62.399 Y166.969 E.01544
G1 X107.242 Y211.811 E1.98601
G1 X107.735 Y211.811 E.01544
G1 X62.399 Y166.476 E2.00784
G1 X62.399 Y165.982 E.01547
G1 X108.228 Y211.811 E2.0297
G1 X108.721 Y211.811 E.01544
G1 X62.399 Y165.489 E2.05153
G1 X62.399 Y164.996 E.01544
G1 X109.214 Y211.811 E2.07337
G1 X109.708 Y211.811 E.01547
G1 X62.399 Y164.503 E2.09522
G1 X62.399 Y164.01 E.01544
G1 X110.201 Y211.811 E2.11706
G1 X110.694 Y211.811 E.01544
G1 X62.399 Y163.517 E2.13889
G1 X62.399 Y163.023 E.01547
G1 X111.187 Y211.811 E2.16075
G1 X111.68 Y211.811 E.01544
G1 X62.399 Y162.53 E2.18258
G1 X62.399 Y162.037 E.01544
G1 X112.173 Y211.811 E2.20442
G1 X112.667 Y211.811 E.01547
G1 X62.399 Y161.544 E2.22627
G1 X62.399 Y161.051 E.01544
G1 X113.16 Y211.811 E2.24811
G1 X113.653 Y211.811 E.01544
G1 X62.399 Y160.558 E2.26994
G1 X62.399 Y160.064 E.01547
G1 X114.146 Y211.811 E2.2918
G1 X114.639 Y211.811 E.01544
G1 X62.399 Y159.571 E2.31363
G1 X62.399 Y159.078 E.01544
G1 X115.133 Y211.811 E2.33549
G1 X115.626 Y211.811 E.01544
G1 X62.399 Y158.585 E2.35732
G1 X62.399 Y158.092 E.01544
G1 X116.119 Y211.811 E2.37916
G1 X116.612 Y211.811 E.01544
G1 X62.399 Y157.598 E2.40101
G1 X62.399 Y157.105 E.01544
G1 X117.105 Y211.811 E2.42285
G1 X117.598 Y211.811 E.01544
G1 X62.399 Y156.612 E2.44468
G1 X62.399 Y156.119 E.01544
G1 X118.092 Y211.811 E2.46654
G1 X118.585 Y211.811 E.01544
G1 X62.399 Y155.626 E2.48837
G1 X62.399 Y155.133 E.01544
G1 X119.078 Y211.811 E2.5102
G1 X119.571 Y211.811 E.01544
G1 X62.399 Y154.639 E2.53206
G1 X62.399 Y154.146 E.01544
G1 X120.064 Y211.811 E2.5539
G1 X120.557 Y211.811 E.01544
G1 X62.399 Y153.653 E2.57573
G1 X62.399 Y153.16 E.01544
G1 X121.051 Y211.811 E2.59759
G1 X121.544 Y211.811 E.01544
G1 X62.399 Y152.667 E2.61942
G1 X62.399 Y152.174 E.01544
G1 X122.037 Y211.811 E2.64125
G1 X122.53 Y211.811 E.01544
G1 X62.399 Y151.68 E2.66311
G1 X62.399 Y151.187 E.01544
G1 X123.023 Y211.811 E2.68495
G1 X123.517 Y211.811 E.01547
G1 X62.399 Y150.694 E2.7068
G1 X62.399 Y150.201 E.01544
G1 X124.01 Y211.811 E2.72864
G1 X124.503 Y211.811 E.01544
G1 X62.399 Y149.708 E2.75047
G1 X62.399 Y149.214 E.01547
G1 X124.996 Y211.811 E2.77233
G1 X125.489 Y211.811 E.01544
G1 X62.399 Y148.721 E2.79416
G1 X62.399 Y148.228 E.01544
G1 X125.982 Y211.811 E2.81599
G1 X126.476 Y211.811 E.01547
G1 X62.399 Y147.735 E2.83785
G1 X62.399 Y147.242 E.01544
G1 X126.969 Y211.811 E2.85969
G1 X127.462 Y211.811 E.01544
G1 X62.399 Y146.749 E2.88152
G1 X62.399 Y146.255 E.01547
G1 X127.955 Y211.811 E2.90338
G1 X128.448 Y211.811 E.01544
G1 X62.399 Y145.762 E2.92521
G1 X62.399 Y145.269 E.01544
G1 X128.941 Y211.811 E2.94704
G1 X129.435 Y211.811 E.01547
G1 X62.399 Y144.776 E2.9689
G1 X62.399 Y144.283 E.01544
G1 X129.928 Y211.811 E2.99073
G1 X130.421 Y211.811 E.01544
G1 X62.399 Y143.789 E3.01259
G1 X62.399 Y143.296 E.01544
G1 X130.914 Y211.811 E3.03443
G1 X131.407 Y211.811 E.01544
G1 X62.399 Y142.803 E3.05626
G1 X62.399 Y142.31 E.01544
G1 X131.901 Y211.811 E3.07812
G1 X132.394 Y211.811 E.01544
G1 X62.399 Y141.817 E3.09995
G1 X62.399 Y141.324 E.01544
G1 X132.887 Y211.811 E3.12178
G1 X133.38 Y211.811 E.01544
G1 X62.399 Y140.83 E3.14364
G1 X62.399 Y140.337 E.01544
G1 X133.873 Y211.811 E3.16548
G1 X134.366 Y211.811 E.01544
G1 X62.399 Y139.844 E3.18731
G1 X62.399 Y139.351 E.01544
G1 X134.86 Y211.811 E3.20917
G1 X135.353 Y211.811 E.01544
G1 X62.399 Y138.858 E3.231
G1 X62.399 Y138.365 E.01544
G1 X135.846 Y211.811 E3.25283
G1 X136.339 Y211.811 E.01544
G1 X62.399 Y137.871 E3.27469
G1 X62.399 Y137.378 E.01544
G1 X136.832 Y211.811 E3.29652
G1 X137.325 Y211.811 E.01544
G1 X62.399 Y136.885 E3.31836
G1 X62.399 Y136.392 E.01544
G1 X137.819 Y211.811 E3.34022
G1 X138.312 Y211.811 E.01544
G1 X62.399 Y135.899 E3.36205
G1 X62.399 Y135.405 E.01547
G1 X138.805 Y211.811 E3.38391
G1 X139.298 Y211.811 E.01544
G1 X62.399 Y134.912 E3.40574
G1 X62.399 Y134.419 E.01544
G1 X139.791 Y211.811 E3.42757
G1 X140.285 Y211.811 E.01547
G1 X62.399 Y133.926 E3.44943
G1 X62.399 Y133.433 E.01544
G1 X140.778 Y211.811 E3.47126
G1 X141.271 Y211.811 E.01544
G1 X62.399 Y132.94 E3.4931
G1 X62.399 Y132.446 E.01547
G1 X141.764 Y211.811 E3.51496
G1 X142.257 Y211.811 E.01544
G1 X62.399 Y131.953 E3.53679
G1 X62.399 Y131.46 E.01544
G1 X142.75 Y211.811 E3.55862
G1 X143.244 Y211.811 E.01547
G1 X62.399 Y130.967 E3.58048
G1 X62.399 Y130.474 E.01544
G1 X143.737 Y211.811 E3.60231
G1 X144.23 Y211.811 E.01544
G1 X62.399 Y129.981 E3.62415
G1 X62.399 Y129.487 E.01547
G1 X144.723 Y211.811 E3.64601
G1 X145.216 Y211.811 E.01544
G1 X62.399 Y128.994 E3.66784
G1 X62.399 Y128.501 E.01544
G1 X145.709 Y211.811 E3.68967
G1 X146.203 Y211.811 E.01547
G1 X62.399 Y128.008 E3.71153
G1 X62.399 Y127.515 E.01544
G1 X146.696 Y211.811 E3.73336
G1 X147.189 Y211.811 E.01544
G1 X62.399 Y127.021 E3.75522
G1 X62.399 Y126.528 E.01544
G1 X147.682 Y211.811 E3.77705
G1 X148.175 Y211.811 E.01544
G1 X62.399 Y126.035 E3.79889
G1 X62.399 Y125.542 E.01544
G1 X148.669 Y211.811 E3.82075
G1 X149.162 Y211.811 E.01544
G1 X62.399 Y125.049 E3.84258
G1 X62.399 Y124.556 E.01544
G1 X149.655 Y211.811 E3.86441
G1 X150.148 Y211.811 E.01544
G1 X62.399 Y124.062 E3.88627
G1 X62.399 Y123.569 E.01544
G1 X150.641 Y211.811 E3.9081
G1 X151.134 Y211.811 E.01544
G1 X62.399 Y123.076 E3.92994
G1 X62.399 Y122.583 E.01544
G1 X151.628 Y211.811 E3.9518
G1 X152.121 Y211.811 E.01544
G1 X62.399 Y122.09 E3.97363
G1 X62.399 Y121.597 E.01544
G1 X152.614 Y211.811 E3.99546
G1 X153.107 Y211.811 E.01544
G1 X62.399 Y121.103 E4.01732
G1 X62.399 Y120.61 E.01544
G1 X153.6 Y211.811 E4.03915
G1 X154.094 Y211.811 E.01547
G1 X62.399 Y120.117 E4.06101
G1 X62.399 Y119.624 E.01544
G1 X154.587 Y211.811 E4.08284
G1 X155.08 Y211.811 E.01544
G1 X62.399 Y119.131 E4.10468
G1 X62.399 Y118.637 E.01547
G1 X155.573 Y211.811 E4.12654
G1 X156.066 Y211.811 E.01544
G1 X62.399 Y118.144 E4.14837
G1 X62.399 Y117.651 E.01544
G1 X156.559 Y211.811 E4.1702
G1 X157.053 Y211.811 E.01547
G1 X62.399 Y117.158 E4.19206
G1 X62.399 Y116.665 E.01544
G1 X157.546 Y211.811 E4.21389
G1 X158.039 Y211.811 E.01544
G1 X62.399 Y116.172 E4.23573
G1 X62.399 Y115.678 E.01547
G1 X158.532 Y211.811 E4.25758
G1 X159.025 Y211.811 E.01544
G1 X62.399 Y115.185 E4.27942
G1 X62.399 Y114.692 E.01544
G1 X159.518 Y211.811 E4.30125
G1 X160.012 Y211.811 E.01547
G1 X62.399 Y114.199 E4.32311
G1 X62.399 Y113.706 E.01544
G1 X160.505 Y211.811 E4.34494
