; generated by PrusaSlicer 2.6.0-alpha6+win64 on 2023-07-24 at 10:28:08 UTC

; 

; external perimeters extrusion width = 0.38mm
; perimeters extrusion width = 0.38mm
; infill extrusion width = 0.45mm
; solid infill extrusion width = 0.45mm
; top infill extrusion width = 0.44mm
; support material extrusion width = 0.40mm
; first layer extrusion width = 0.40mm

M190 S55 ; set bed temperature and wait for it to be reached
M104 S210 ; set temperature
;TYPE:Custom
print_start EXTRUDER=210 BED=55
M109 S210 ; set temperature and wait for it to be reached
G21 ; set units to millimeters
G90 ; use absolute coordinates
M83 ; use relative distances for extrusion
;Filament gcode
M107
;LAYER_CHANGE
;Z:0.24
;HEIGHT:0.24
G1 Z.24 F12000
G1 E-.75 F3000
G1 X61.166 Y27.906 F12000
G1 E.75 F1800
M204 S4000
;TYPE:Skirt/Brim
;WIDTH:0.4
G1 F3000
G1 X61.653 Y26.952 E.03352
G1 X62.343 Y26.132 E.03354
G1 X62.97 Y25.632 E.0251
G1 X63.75 Y25.212 E.02772
G1 X65.329 Y24.891 E.05043
G1 X220.73 Y24.891 E4.86339
G1 X221.431 Y24.949 E.02201
G1 X222.613 Y25.289 E.03849
G1 X223.666 Y25.923 E.03847
G1 X224.413 Y26.67 E.03306
G1 X225.115 Y27.885 E.04391
G1 X225.388 Y28.905 E.03305
G1 X225.445 Y29.607 E.02204
G1 X225.445 Y153.857 E3.88849
G1 X225.388 Y154.558 E.02201
G1 X225.048 Y155.74 E.03849
G1 X224.413 Y156.793 E.03848
G1 X223.666 Y157.54 E.03306
G1 X222.452 Y158.241 E.04387
G1 X221.431 Y158.515 E.03308
G1 X220.73 Y158.572 E.02201
G1 X65.58 Y158.572 E4.85553
G1 X64.879 Y158.515 E.02201
G1 X63.697 Y158.174 E.0385
G1 X62.782 Y157.646 E.03306
G1 X61.897 Y156.793 E.03847
G1 X61.195 Y155.578 E.04391
G1 X60.922 Y154.558 E.03305
G1 X60.865 Y153.857 E.02201
G1 X60.865 Y29.557 E3.89006
G1 X60.908 Y28.946 E.01917
G1 X61.152 Y27.964 E.03167
G1 X61.488 Y28.048 F12000
G1 F3000
G1 X61.946 Y27.14 E.03183
G1 X62.586 Y26.382 E.03105
G1 X63.162 Y25.923 E.02305
G1 X63.883 Y25.534 E.02564
G1 X65.329 Y25.24 E.04618
G1 X220.73 Y25.24 E4.86339
G1 X221.386 Y25.294 E.0206
G1 X222.48 Y25.611 E.03565
G1 X223.454 Y26.2 E.03562
G1 X224.137 Y26.882 E.03021
G1 X224.793 Y28.018 E.04105
G1 X225.043 Y28.951 E.03023
G1 X225.097 Y29.607 E.0206
G1 X225.097 Y153.857 E3.88849
G1 X225.043 Y154.512 E.02057
G1 X224.726 Y155.606 E.03565
G1 X224.137 Y156.581 E.03565
G1 X223.454 Y157.263 E.03021
G1 X222.318 Y157.919 E.04105
G1 X221.386 Y158.169 E.0302
G1 X220.73 Y158.224 E.0206
G1 X65.58 Y158.224 E4.85553
G1 X64.924 Y158.169 E.0206
G1 X63.83 Y157.852 E.03565
G1 X62.994 Y157.37 E.0302
G1 X62.173 Y156.581 E.03564
G1 X61.517 Y155.445 E.04105
G1 X61.267 Y154.512 E.03023
G1 X61.213 Y153.857 E.02057
G1 X61.213 Y29.557 E3.89006
G1 X61.254 Y28.986 E.01792
G1 X61.474 Y28.107 E.02836
G1 X61.81 Y28.191 F12000
G1 F3000
G1 X62.24 Y27.328 E.03018
G1 X62.829 Y26.631 E.02856
G1 X63.354 Y26.214 E.02098
G1 X64.016 Y25.856 E.02355
G1 X65.329 Y25.588 E.04194
G1 X220.73 Y25.588 E4.86339
G1 X221.34 Y25.64 E.01916
G1 X222.346 Y25.933 E.03279
G1 X223.242 Y26.476 E.03279
G1 X223.86 Y27.094 E.02735
G1 X224.471 Y28.152 E.03824
G1 X224.697 Y28.996 E.02734
G1 X224.748 Y29.607 E.01919
G1 X224.748 Y153.857 E3.88849
G1 X224.697 Y154.467 E.01916
G1 X224.404 Y155.473 E.03279
G1 X223.86 Y156.369 E.0328
G1 X223.242 Y156.987 E.02735
G1 X222.185 Y157.597 E.03819
G1 X221.34 Y157.824 E.02738
G1 X220.73 Y157.875 E.01916
G1 X65.58 Y157.875 E4.85553
G1 X64.97 Y157.824 E.01916
G1 X63.964 Y157.53 E.0328
G1 X63.207 Y157.093 E.02736
G1 X62.45 Y156.369 E.03278
G1 X61.839 Y155.312 E.03821
G1 X61.613 Y154.467 E.02737
G1 X61.562 Y153.857 E.01916
G1 X61.562 Y29.557 E3.89006
G1 X61.6 Y29.025 E.01669
G1 X61.795 Y28.249 E.02504
G1 E-.75
G1 X105.081 Y32.741 F12000
G1 E.75 F1800
;TYPE:Perimeter
;WIDTH:0.573904
G1 F3000
G1 X105.074 Y32.772 E.00149
;WIDTH:0.560453
G1 X105.064 Y32.908 E.00623
;WIDTH:0.52034
G1 X105.054 Y33.045 E.00578
;WIDTH:0.480226
G1 X105.044 Y33.181 E.00525
;WIDTH:0.440113
G1 X105.035 Y33.317 E.00476
;WIDTH:0.399999
G1 X105.035 Y57.806 E.7664
G1 X104.457 Y57.611 E.01909
G1 X103.995 Y57.561 E.01454
G1 X99.782 Y57.55 E.13185
G1 X100.025 Y56.818 E.02414
G1 X100.025 Y32.643 E.75657
G1 X100.341 Y33.071 E.01665
G1 X100.924 Y33.57 E.02402
G1 X101.616 Y33.902 E.02402
G1 X102.371 Y34.044 E.02404
G1 X102.689 Y34.044 E.00995
G1 X103.444 Y33.902 E.02404
G1 X104.136 Y33.57 E.02402
G1 X104.642 Y33.162 E.02034
;WIDTH:0.443476
G1 X104.752 Y33.057 E.00535
;WIDTH:0.486952
G1 X104.862 Y32.952 E.00595
;WIDTH:0.530428
G1 X104.971 Y32.846 E.00654
;WIDTH:0.573904
G1 X105.038 Y32.783 E.00431
G1 E-.75
G1 X106.316 Y59.302 F12000
G1 E.75 F1800
;WIDTH:0.399999
G1 F3000
G1 X108.646 Y59.302 E.07292
G1 X108.585 Y59.53 E.00739
G1 X108.535 Y59.992 E.01454
G1 X108.539 Y71.928 E.37355
G1 X108.617 Y72.445 E.01636
G1 X108.79 Y72.887 E.01485
G1 X108.949 Y73.163 E.00997
G1 X109.304 Y73.589 E.01735
G1 X109.746 Y73.92 E.01728
G1 X110.341 Y74.169 E.02019
G1 X110.965 Y74.252 E.0197
G1 X122.901 Y74.247 E.37355
G1 X123.419 Y74.169 E.01639
G1 X123.861 Y73.997 E.01484
G1 X124.136 Y73.837 E.00996
G1 X124.525 Y73.522 E.01566
G1 X124.811 Y73.163 E.01436
G1 X124.97 Y72.887 E.00997
G1 X125.155 Y72.396 E.01642
G1 X125.225 Y71.821 E.01813
G1 X125.225 Y59.992 E.3702
G1 X125.215 Y59.833 E.00499
G1 X125.114 Y59.302 E.01692
G1 X142.396 Y59.302 E.54085
G1 X142.335 Y59.53 E.00739
G1 X142.285 Y59.992 E.01454
G1 X142.285 Y71.821 E.3702
G1 X142.335 Y72.284 E.01457
G1 X142.417 Y72.591 E.00994
G1 X142.636 Y73.072 E.01654
G1 X142.985 Y73.522 E.01782
G1 X143.496 Y73.92 E.02027
G1 X144.091 Y74.169 E.02019
G1 X144.715 Y74.252 E.0197
G1 X156.651 Y74.247 E.37355
G1 X157.169 Y74.169 E.01639
G1 X157.611 Y73.997 E.01484
G1 X157.886 Y73.837 E.00996
G1 X158.312 Y73.482 E.01735
G1 X158.643 Y73.041 E.01726
G1 X158.893 Y72.445 E.02023
G1 X158.975 Y71.821 E.0197
G1 X158.975 Y60.357 E.35877
G1 X158.965 Y59.833 E.0164
G1 X158.864 Y59.302 E.01692
G1 X161.196 Y59.302 E.07298
G1 X161.135 Y59.53 E.00739
G1 X161.085 Y59.992 E.01454
G1 X161.089 Y71.928 E.37355
G1 X161.167 Y72.445 E.01636
G1 X161.34 Y72.887 E.01485
G1 X161.499 Y73.163 E.00997
G1 X161.854 Y73.589 E.01735
G1 X162.296 Y73.92 E.01728
G1 X162.891 Y74.169 E.02019
G1 X163.515 Y74.252 E.0197
G1 X175.345 Y74.252 E.37023
G1 X175.969 Y74.169 E.0197
G1 X176.411 Y73.997 E.01484
G1 X176.686 Y73.837 E.00996
G1 X177.112 Y73.482 E.01735
G1 X177.443 Y73.041 E.01726
G1 X177.693 Y72.445 E.02023
G1 X177.775 Y71.821 E.0197
G1 X177.775 Y60.357 E.35877
G1 X177.765 Y59.833 E.0164
G1 X177.664 Y59.302 E.01692
G1 X179.996 Y59.302 E.07298
G1 X179.935 Y59.53 E.00739
G1 X179.885 Y59.992 E.01454
G1 X179.889 Y71.928 E.37355
G1 X179.967 Y72.445 E.01636
G1 X180.14 Y72.887 E.01485
G1 X180.299 Y73.163 E.00997
G1 X180.654 Y73.589 E.01735
G1 X181.096 Y73.92 E.01728
G1 X181.691 Y74.169 E.02019
G1 X182.315 Y74.252 E.0197
G1 X194.251 Y74.247 E.37355
G1 X194.769 Y74.169 E.01639
G1 X195.211 Y73.997 E.01484
G1 X195.486 Y73.837 E.00996
G1 X195.912 Y73.482 E.01735
G1 X196.243 Y73.041 E.01726
G1 X196.493 Y72.445 E.02023
G1 X196.575 Y71.821 E.0197
G1 X196.575 Y60.357 E.35877
G1 X196.565 Y59.833 E.0164
G1 X196.464 Y59.302 E.01692
G1 X198.796 Y59.302 E.07298
G1 X198.735 Y59.53 E.00739
G1 X198.685 Y59.992 E.01454
G1 X198.689 Y71.928 E.37355
G1 X198.767 Y72.445 E.01636
G1 X198.94 Y72.887 E.01485
G1 X199.099 Y73.163 E.00997
G1 X199.454 Y73.589 E.01735
G1 X199.896 Y73.92 E.01728
G1 X200.491 Y74.169 E.02019
G1 X201.115 Y74.252 E.0197
G1 X212.945 Y74.252 E.37023
G1 X213.569 Y74.169 E.0197
G1 X214.164 Y73.92 E.02019
G1 X214.541 Y73.642 E.01466
G1 X214.766 Y73.417 E.00996
G1 X215.12 Y72.887 E.01995
G1 X215.325 Y72.284 E.01993
G1 X215.375 Y71.821 E.01457
G1 X215.375 Y60.754 E.34635
G1 X215.365 Y59.833 E.02883
G1 X215.269 Y59.302 E.01689
G1 X215.741 Y59.25 E.01486
G1 X216.18 Y59.01 E.01566
G1 X216.397 Y58.767 E.0102
G1 X216.551 Y58.449 E.01106
G1 X216.607 Y58.082 E.01162
G1 X216.607 Y33.317 E.77504
G1 X216.547 Y32.944 E.01182
;WIDTH:0.397243
G1 X216.467 Y32.754 E.0064
;WIDTH:0.399999
G1 X216.841 Y33.165 E.01739
G1 X217.243 Y33.457 E.01555
G1 X217.866 Y33.752 E.02157
G1 X218.621 Y33.894 E.02404
G1 X219.386 Y33.835 E.02401
G1 X219.964 Y33.641 E.01908
G1 X219.959 Y89.071 E1.73472
G1 X219.356 Y88.875 E.01984
G1 X218.861 Y88.822 E.01558
G1 X218.174 Y88.878 E.02157
G1 X217.866 Y88.961 E.00998
G1 X217.174 Y89.293 E.02402
G1 X216.591 Y89.792 E.02402
G1 X216.157 Y90.426 E.02405
;WIDTH:0.443512
G1 X216.069 Y90.583 E.00634
;WIDTH:0.487024
G1 X215.982 Y90.74 E.00702
;WIDTH:0.530536
G1 X215.894 Y90.897 E.00774
G1 X215.803 Y91.412 E.0225
;WIDTH:0.527427
G1 X215.818 Y91.59 E.00763
;WIDTH:0.484951
G1 X215.833 Y91.768 E.00695
;WIDTH:0.442475
G1 X215.847 Y91.946 E.00627
;WIDTH:0.399999
G1 X215.965 Y92.61 E.02111
G1 X216.157 Y93.087 E.01609
G1 X216.396 Y93.466 E.01402
G1 X216.774 Y93.913 E.01832
G1 X217.174 Y94.22 E.01578
G1 X217.616 Y94.449 E.01558
G1 X218.093 Y94.621 E.01587
G1 X218.621 Y94.694 E.01668
G1 X219.386 Y94.635 E.02401
G1 X219.959 Y94.443 E.01891
G1 X219.955 Y149.669 E1.72833
G1 X219.356 Y149.475 E.0197
G1 X218.861 Y149.422 E.01558
G1 X218.174 Y149.478 E.02157
G1 X217.866 Y149.561 E.00998
G1 X217.245 Y149.842 E.02133
G1 X216.816 Y150.167 E.01684
G1 X216.591 Y150.392 E.00996
G1 X216.254 Y150.839 E.01752
G1 X216.064 Y151.25 E.01417
G1 X215.902 Y151.751 E.01648
G1 X215.844 Y152.52 E.02413
G1 X215.937 Y153.082 E.01783
G1 X136.576 Y153.081 E2.48366
G1 X136.666 Y152.52 E.01778
G1 X136.608 Y151.751 E.02413
G1 X136.353 Y151.026 E.02405
G1 X136.194 Y150.75 E.00997
G1 X135.772 Y150.232 E.02091
G1 X135.336 Y149.893 E.01728
G1 X135.061 Y149.733 E.00996
G1 X134.412 Y149.491 E.02168
G1 X133.811 Y149.422 E.01893
G1 X133.523 Y149.426 E.00901
G1 X132.975 Y149.508 E.01734
G1 X132.399 Y149.733 E.01935
G1 X132.124 Y149.893 E.00996
G1 X131.582 Y150.341 E.02201
G1 X131.266 Y150.75 E.01618
G1 X131.107 Y151.026 E.00997
G1 X130.852 Y151.751 E.02405
G1 X130.794 Y152.52 E.02413
G1 X130.878 Y153.081 E.01775
G1 X70.373 Y153.081 E1.89354
G1 X70.406 Y152.967 E.00371
G1 X70.467 Y152.198 E.02414
G1 X70.367 Y151.558 E.02027
G1 X70.153 Y151.026 E.01795
G1 X69.936 Y150.675 E.01291
G1 X69.624 Y150.282 E.0157
G1 X69.136 Y149.893 E.01953
G1 X68.861 Y149.733 E.00996
G1 X68.21 Y149.49 E.02175
G1 X67.611 Y149.422 E.01887
G1 X66.924 Y149.478 E.02157
G1 X66.355 Y149.669 E.01878
G1 X66.355 Y94.394 E1.72987
G1 X66.616 Y94.502 E.00884
G1 X67.371 Y94.644 E.02404
G1 X68.136 Y94.585 E.02401
G1 X68.444 Y94.502 E.00998
G1 X69.018 Y94.251 E.01961
G1 X69.466 Y93.918 E.01747
G1 X69.719 Y93.671 E.01107
G1 X70.128 Y93.094 E.02213
G1 X70.326 Y92.62 E.01608
G1 X70.421 Y92.211 E.01314
;WIDTH:0.441382
G1 X70.452 Y91.944 E.00941
;WIDTH:0.482764
G1 X70.482 Y91.677 E.01041
;WIDTH:0.524146
G1 X70.512 Y91.41 E.0114
G1 X70.425 Y90.888 E.02246
;WIDTH:0.522838
G1 X70.38 Y90.811 E.00377
;WIDTH:0.491752
G1 X70.335 Y90.735 E.00349
;WIDTH:0.460666
G1 X70.164 Y90.417 E.01327
;WIDTH:0.430333
G1 X69.994 Y90.1 E.01224
;WIDTH:0.399999
G1 X69.494 Y89.517 E.02404
G1 X68.861 Y89.083 E.02402
G1 X68.209 Y88.84 E.02178
G1 X67.611 Y88.772 E.01884
G1 X66.924 Y88.828 E.02157
G1 X66.355 Y89.019 E.01878
G1 X66.355 Y33.744 E1.72987
G1 X66.616 Y33.852 E.00884
G1 X67.371 Y33.994 E.02404
G1 X68.136 Y33.935 E.02401
G1 X68.847 Y33.685 E.02359
G1 X69.136 Y33.52 E.01041
G1 X69.719 Y33.021 E.02402
G1 X70.153 Y32.387 E.02405
G1 X70.367 Y31.855 E.01795
G1 X70.467 Y31.215 E.02027
G1 X70.466 Y30.889 E.0102
G1 X70.385 Y30.377 E.01622
G1 X74.429 Y30.381 E.12656
G1 X74.429 Y56.818 E.82736
G1 X74.694 Y57.561 E.02469
G1 X73.686 Y57.561 E.03155
G1 X72.903 Y57.611 E.02455
G1 X72.299 Y57.816 E.01996
G1 X72.024 Y57.976 E.00996
G1 X71.544 Y58.396 E.01996
G1 X71.19 Y58.926 E.01995
G1 X70.985 Y59.53 E.01996
G1 X70.935 Y59.992 E.01454
G1 X70.935 Y71.821 E.3702
G1 X70.945 Y71.981 E.00502
G1 X71.067 Y72.591 E.01947
G1 X71.349 Y73.163 E.01996
G1 X71.652 Y73.539 E.01511
G1 X72.146 Y73.92 E.01952
G1 X72.741 Y74.169 E.02019
G1 X73.365 Y74.252 E.0197
G1 X85.195 Y74.252 E.37023
G1 X85.819 Y74.169 E.0197
G1 X86.261 Y73.997 E.01484
G1 X86.536 Y73.837 E.00996
G1 X86.962 Y73.482 E.01735
G1 X87.293 Y73.041 E.01726
G1 X87.543 Y72.445 E.02023
G1 X87.625 Y71.821 E.0197
G1 X87.625 Y59.992 E.3702
G1 X87.558 Y59.43 E.01771
G1 X87.37 Y58.926 E.01683
G1 X87.016 Y58.396 E.01995
G1 X86.618 Y58.038 E.01675
G1 X90.742 Y58.038 E.12906
G1 X90.344 Y58.396 E.01675
G1 X89.99 Y58.926 E.01995
G1 X89.802 Y59.43 E.01683
G1 X89.735 Y59.992 E.01771
G1 X89.739 Y71.928 E.37355
G1 X89.817 Y72.445 E.01636
G1 X89.99 Y72.887 E.01485
G1 X90.149 Y73.163 E.00997
G1 X90.504 Y73.589 E.01735
G1 X90.946 Y73.92 E.01728
G1 X91.541 Y74.169 E.02019
G1 X92.165 Y74.252 E.0197
G1 X104.101 Y74.247 E.37355
G1 X104.619 Y74.169 E.01639
G1 X105.061 Y73.997 E.01484
G1 X105.336 Y73.837 E.00996
G1 X105.762 Y73.482 E.01735
G1 X106.093 Y73.041 E.01726
G1 X106.343 Y72.445 E.02023
G1 X106.425 Y71.821 E.0197
G1 X106.425 Y60.357 E.35877
G1 X106.415 Y59.833 E.0164
G1 X106.327 Y59.361 E.01503
G1 E-.75
G1 X110.221 Y92.919 F12000
G1 E.75 F1800
G1 F3000
G1 X109.746 Y92.72 E.01612
G1 X109.304 Y92.389 E.01728
G1 X108.949 Y91.963 E.01735
G1 X108.79 Y91.687 E.00997
G1 X108.617 Y91.245 E.01485
G1 X108.539 Y90.728 E.01636
G1 X108.535 Y78.792 E.37355
G1 X108.617 Y78.168 E.0197
G1 X108.867 Y77.572 E.02023
G1 X109.198 Y77.131 E.01726
G1 X109.624 Y76.776 E.01735
G1 X109.899 Y76.616 E.00996
G1 X110.341 Y76.444 E.01484
G1 X110.965 Y76.361 E.0197
G1 X122.795 Y76.361 E.37023
G1 X123.419 Y76.444 E.0197
G1 X124.014 Y76.693 E.02019
G1 X124.525 Y77.091 E.02027
G1 X124.874 Y77.541 E.01782
G1 X125.093 Y78.022 E.01654
G1 X125.175 Y78.33 E.00997
G1 X125.225 Y78.792 E.01454
G1 X125.225 Y90.621 E.3702
G1 X125.165 Y91.148 E.0166
G1 X124.97 Y91.687 E.01794
G1 X124.811 Y91.963 E.00997
G1 X124.525 Y92.322 E.01436
G1 X124.136 Y92.637 E.01566
G1 X123.861 Y92.797 E.00996
G1 X123.419 Y92.969 E.01484
G1 X122.795 Y93.052 E.0197
G1 X110.965 Y93.052 E.37023
G1 X110.341 Y92.969 E.0197
G1 X110.277 Y92.942 E.00217
G1 X110.347 Y92.597 F12000
G1 F3000
G1 X109.923 Y92.42 E.01438
G1 X109.496 Y92.091 E.01687
G1 X109.167 Y91.664 E.01687
G1 X108.954 Y91.154 E.0173
G1 X108.883 Y90.621 E.01683
G1 X108.883 Y78.792 E.3702
G1 X108.954 Y78.259 E.01683
G1 X109.167 Y77.75 E.01727
G1 X109.496 Y77.322 E.01689
G1 X109.923 Y76.993 E.01687
G1 X110.033 Y76.938 E.00385
G1 X110.549 Y76.757 E.01711
G1 X110.965 Y76.71 E.0131
G1 X122.795 Y76.71 E.37023
G1 X123.327 Y76.78 E.01679
G1 X123.837 Y76.993 E.0173
G1 X124.275 Y77.333 E.01735
G1 X124.61 Y77.78 E.01748
G1 X124.815 Y78.295 E.01735
G1 X124.877 Y78.792 E.01567
G1 X124.877 Y90.621 E.3702
G1 X124.814 Y91.122 E.0158
G1 X124.603 Y91.647 E.01771
G1 X124.275 Y92.08 E.017
G1 X123.837 Y92.42 E.01735
G1 X123.327 Y92.633 E.0173
G1 X122.795 Y92.704 E.0168
G1 X110.965 Y92.704 E.37023
G1 X110.403 Y92.62 E.01778
G1 X110.532 Y92.286 F12000
G1 F3000
G1 X110.462 Y92.275 E.00222
G1 X110.048 Y92.084 E.01427
G1 X109.697 Y91.793 E.01427
G1 X109.434 Y91.42 E.01428
G1 X109.276 Y90.993 E.01425
G1 X109.232 Y90.621 E.01172
G1 X109.232 Y78.792 E.3702
G1 X109.311 Y78.289 E.01593
G1 X109.502 Y77.874 E.0143
G1 X109.794 Y77.524 E.01426
G1 X110.166 Y77.26 E.01428
G1 X110.594 Y77.102 E.01428
G1 X110.965 Y77.058 E.01169
G1 X122.795 Y77.058 E.37023
G1 X123.298 Y77.138 E.01594
G1 X123.712 Y77.329 E.01427
G1 X124.063 Y77.62 E.01427
G1 X124.326 Y77.993 E.01428
G1 X124.484 Y78.421 E.01428
G1 X124.528 Y78.792 E.01169
G1 X124.528 Y90.621 E.3702
G1 X124.449 Y91.124 E.01593
G1 X124.258 Y91.539 E.0143
G1 X123.966 Y91.889 E.01426
G1 X123.594 Y92.153 E.01428
G1 X123.166 Y92.311 E.01428
G1 X122.795 Y92.355 E.01169
G1 X110.965 Y92.355 E.37023
G1 X110.591 Y92.296 E.01185
G1 X110.615 Y91.956 F12000
;TYPE:External perimeter
G1 F3000
G1 X110.26 Y91.808 E.01204
G1 X109.974 Y91.581 E.01143
G1 X109.756 Y91.287 E.01145
G1 X109.621 Y90.947 E.01145
G1 X109.58 Y90.621 E.01028
G1 X109.58 Y78.792 E.3702
G1 X109.633 Y78.422 E.0117
G1 X109.779 Y78.087 E.01144
G1 X110.006 Y77.8 E.01145
G1 X110.299 Y77.582 E.01143
G1 X110.64 Y77.448 E.01147
G1 X110.965 Y77.407 E.01025
G1 X122.795 Y77.407 E.37023
G1 X123.164 Y77.46 E.01167
G1 X123.5 Y77.605 E.01145
G1 X123.786 Y77.832 E.01143
G1 X124.004 Y78.126 E.01145
G1 X124.139 Y78.466 E.01145
G1 X124.18 Y78.792 E.01028
